djean032/levmar/conformance/nist_nls/corpus/enso/jacobian_certified.csv
j1,j2,j3,j4,j5,j6,j7,j8,j9
1.0000000000000000e+00,8.6602540378443871e-01,4.9999999999999994e-01,-2.3989298856403832e-03,9.8996361986549020e-01,1.4132243750662973e-01,-1.2227014385897688e-02,9.7282009260679136e-01,2.3156223228435582e-01
1.0000000000000000e+00,5.0000000000000011e-01,8.6602540378443860e-01,-6.1358865503358508e-03,9.6005593731436945e-01,2.7980814360455536e-01,-2.1562992965423234e-02,8.9275786515897204e-01,4.5053678451020468e-01
1.0000000000000000e+00,6.1232339957367660e-17,1.0000000000000000e+00,-1.1026123724442217e-02,9.1087728208868846e-01,4.1267732791458744e-01,-2.6249695282814799e-02,7.6416548551199381e-01,6.4502024057561080e-01
1.0000000000000000e+00,-4.9999999999999983e-01,8.6602540378443871e-01,-1.6836123846884498e-02,8.4341480554514503e-01,5.3726293915293022e-01,-2.4970630058294710e-02,5.9403321160641076e-01,8.0444051582983633e-01
1.0000000000000000e+00,-8.6602540378443871e-01,4.9999999999999994e-01,-2.3291002395843342e-02,7.5902266580255207e-01,6.5106420021222744e-01,-1.6980334476375803e-02,3.9160940234092251e-01,9.2013155363686205e-01
1.0000000000000000e+00,-1.0000000000000000e+00,1.2246467991473532e-16,-3.0083202330676958e-02,6.5939484605055221e-01,7.5179680566092366e-01,-2.1892002512832339e-03,1.6789777849556237e-01,9.8580441060904933e-01
1.0000000000000000e+00,-8.6602540378443882e-01,-4.9999999999999978e-01,-3.6882240357472784e-02,5.4653115163115251e-01,8.3743877405857325e-01,1.8803172954153759e-02,-6.4940737491867684e-02,9.9788912240489536e-01
1.0000000000000000e+00,-5.0000000000000044e-01,-8.6602540378443837e-01,-4.3345237668886705e-02,4.2269706842550958e-01,9.0627103470456349e-01,4.4729458135946497e-02,-2.9424908701714647e-01,9.5572876632943082e-01
1.0000000000000000e+00,-1.8369701987210297e-16,-1.0000000000000000e+00,-4.9127945553146729e-02,2.9037828829894374e-01,9.5691193413217268e-01,7.3730352029729912e-02,-5.0756211067110057e-01,8.6161517153024725e-01
1.0000000000000000e+00,5.0000000000000011e-01,-8.6602540378443860e-01,-5.3895961394664599e-02,1.5223081440402517e-01,9.8834496970738273e-01,1.0348010597338508e-01,-6.9328415199637095e-01,7.2066433558951204e-01
1.0000000000000000e+00,8.6602540378443837e-01,-5.0000000000000044e-01,-5.7335823497284992e-02,1.1027647866016968e-02,9.9993919364256501e-01,1.3135368310417261e-01,-8.4131939522475963e-01,5.4053831984295508e-01
1.0000000000000000e+00,1.0000000000000000e+00,-2.4492935982947064e-16,-5.9165674058783022e-02,-1.3039687400393718e-01,9.9146187786016327e-01,1.5462424118461651e-01,-9.4362067195251009e-01,3.3102874114477315e-01
1.0000000000000000e+00,8.6602540378443860e-01,5.0000000000000000e-01,-5.9145188524588707e-02,-2.6920397068218072e-01,9.6308318548760241e-01,1.7067722775373095e-01,-9.9462690372428741e-01,1.0352450138898042e-01
1.0000000000000000e+00,5.0000000000000056e-01,8.6602540378443837e-01,-5.7084486266599545e-02,-4.0260740059345224e-01,9.1537275521362527e-01,1.7722586904813753e-01,-9.9156540122802461e-01,-1.2960731108817306e-01
1.0000000000000000e+00,1.1943401194869635e-15,1.0000000000000000e+00,-5.2851761693779246e-02,-5.2792938867007833e-01,8.4928826706745297e-01,1.7251235079236540e-01,-9.3460258717238687e-01,-3.5569369413960789e-01
1.0000000000000000e+00,-4.9999999999999922e-01,8.6602540378443915e-01,-4.6379405945522388e-02,-6.4265437668896019e-01,7.6615621913714449e-01,1.5547957594971232e-01,-8.2683494957915160e-01,-5.6244463385691745e-01
1.0000000000000000e+00,-8.6602540378443882e-01,4.9999999999999978e-01,-3.7668426515760994e-02,-7.4447951746872820e-01,6.6764530109147746e-01,1.2590002031727973e-01,-6.7412071726785661e-01,-7.3862118745015060e-01
1.0000000000000000e+00,-1.0000000000000000e+00,3.6739403974420594e-16,-2.6791014620374292e-02,-8.3136089936915103e-01,5.5573289897226386e-01,8.4450800543227178e-02,-4.8476140762219494e-01,-8.7464643009626930e-01
1.0000000000000000e+00,-8.6602540378443915e-01,-4.9999999999999917e-01,-1.3891156833665643e-02,-9.0155457323950006e-01,4.3266540359837297e-01,3.2727465530838350e-02,-2.6905055764258745e-01,-9.6312605479875413e-01
1.0000000000000000e+00,-4.9999999999999983e-01,-8.6602540378443871e-01,8.1676264753313395e-04,-9.5365155829177450e-01,3.0091311930135295e-01,-2.6806989039501405e-02,-3.8714169181345730e-02,-9.9925032554640592e-01
1.0000000000000000e+00,-4.2862637970157361e-16,-1.0000000000000000e+00,1.7051371013746281e-02,-9.8660612423428107e-01,1.6312067809879391e-01,-9.0937054778331000e-02,1.9372671434620312e-01,-9.8105553367208764e-01
1.0000000000000000e+00,4.9999999999999911e-01,-8.6602540378443915e-01,3.4469676649011641e-02,-9.9975678196508622e-01,2.2053954629838321e-02,-1.5586837578212778e-01,4.1563664956271035e-01,-9.0953074469216522e-01
1.0000000000000000e+00,8.6602540378443782e-01,-5.0000000000000144e-01,5.2674297529171632e-02,-9.9283956148417973e-01,-1.1945545258338629e-01,-2.1745076593304746e-01,6.1495265349054329e-01,-7.8856403288822385e-01
1.0000000000000000e+00,1.0000000000000000e+00,-4.8985871965894128e-16,7.1222396221193265e-02,-9.6599331050000270e-01,-2.5856705913407735e-01,-2.7143754422688721e-01,7.8083994507221355e-01,-6.2473112630924876e-01
1.0000000000000000e+00,8.6602540378443826e-01,5.0000000000000056e-01,8.9636122894778486e-02,-9.1975690737268234e-01,-3.9248851109330463e-01,-3.1376525704473929e-01,9.0428092186192244e-01,-4.2693795141279223e-01
1.0000000000000000e+00,4.9999999999999994e-01,8.6602540378443871e-01,1.0741432553228281e-01,-8.5505844433789513e-01,-5.1853163526101154e-01,-3.4083592496419057e-01,9.7856535522432597e-01,-2.0593650855224460e-01
1.0000000000000000e+00,5.5109105961630896e-16,1.0000000000000000e+00,1.2404524975767132e-01,-7.7319659813391306e-01,-6.3416639822222065e-01,-3.4978313580394321e-01,9.9965515712033048e-01,2.6259604770964506e-02
1.0000000000000000e+00,-4.9999999999999900e-01,8.6602540378443926e-01,1.3901992036528654e-01,-6.7581456197476686e-01,-7.3707169110124826e-01,-3.3870368635589321e-01,9.6640388982498704e-01,2.5702825084245945e-01
1.0000000000000000e+00,-8.6602540378443860e-01,5.0000000000000000e-01,1.5184587353386375e-01,-5.6486706212678872e-01,-8.2518192062371953e-01,-3.0683805901915673e-01,8.8061908606988359e-01,4.7382488880328233e-01
1.0000000000000000e+00,-1.0000000000000000e+00,2.3886802389739270e-15,1.6206089351302003e-01,-4.4258112115687481e-01,-8.9672847127518129e-01,-2.5468573592867533e-01,7.4696399189863816e-01,6.6486449356756239e-01
1.0000000000000000e+00,-8.6602540378443926e-01,-4.9999999999999895e-01,1.6924640073719341e-01,-3.1141135544238430e-01,-9.5027520629633233e-01,-1.8404505803555554e-01,5.7270407347565933e-01,8.1976218760344555e-01
1.0000000000000000e+00,-5.0000000000000155e-01,-8.6602540378443771e-01,1.7304014012821400e-01,-1.7399070424504828e-01,-9.8474729491190383e-01,-9.7971819710256924e-02,3.6731206769111613e-01,9.3009776095229735e-01
1.0000000000000000e+00,1.1028010998692062e-15,-1.0000000000000000e+00,1.7314782886027730e-01,-3.3077579352363523e-02,-9.9945278715114305e-01,-6.5578636946124155e-04,1.4195304593806862e-01,9.8987339228252047e-01
1.0000000000000000e+00,5.0000000000000044e-01,-8.6602540378443837e-01,1.6935344193999058e-01,1.0849950386094070e-01,-9.9409650319369380e-01,1.0278046975567776e-01,-9.1122517100540965e-02,9.9583968934626299e-01
1.0000000000000000e+00,8.6602540378443860e-01,-5.0000000000000011e-01,1.6152784125270081e-01,2.4789870254393670e-01,-9.6878595844336679e-01,2.0655092592179966e-01,-3.1924467698669129e-01,9.4767232534017953e-01
1.0000000000000000e+00,1.0000000000000000e+00,-7.3478807948841188e-16,1.4963548869740878e-01,3.8232188999976724e-01,-9.2402920539721356e-01,3.0452951007569401e-01,-5.3001275536029635e-01,8.4798966925039043e-01
1.0000000000000000e+00,8.6602540378443926e-01,4.9999999999999883e-01,1.3373902593974937e-01,5.0907082181203389e-01,-8.6072463562954937e-01,3.9060948453405309e-01,-7.1196943851807692e-01,7.0221045179935493e-01
1.0000000000000000e+00,5.0000000000000167e-01,8.6602540378443771e-01,1.1400155124532897e-01,6.2560129705811407e-01,-7.8014294659325434e-01,4.5907784255846662e-01,-8.5522359486442545e-01,5.1825920424742011e-01
1.0000000000000000e+00,2.5723772588460301e-15,1.0000000000000000e+00,9.0686476749449629e-02,7.2957422744435974e-01,-6.8390163521442593e-01,5.0498205891421633e-01,-9.5198795499296984e-01,3.0613548234123944e-01
1.0000000000000000e+00,-5.0000000000000033e-01,8.6602540378443849e-01,6.4154906178349860e-02,8.1890258926465953e-01,-5.7393253026434776e-01,5.2446620330269123e-01,-9.9700242620919632e-01,7.7370292315436712e-02
1.0000000000000000e+00,-8.6602540378443671e-01,5.0000000000000333e-01,3.4860532161819426e-02,8.9179331572696985e-01,-4.5244301522368219e-01,5.1505450919944429e-01,-9.8782003019508191e-01,-1.5560073247060066e-01
1.0000000000000000e+00,-1.0000000000000000e+00,8.5725275940314722e-16,3.3421124928682926e-03,9.4678328875317930e-01,-3.2187172000303765e-01,4.7586296283226420e-01,-9.2493992029724925e-01,-3.8011333025890870e-01
1.0000000000000000e+00,-8.6602540378443937e-01,-4.9999999999999872e-01,-2.9786355420961853e-02,9.8276870779753156e-01,-1.8483957090939682e-01,4.0772322428793789e-01,-8.1178024764349488e-01,-5.8396303781649250e-01
1.0000000000000000e+00,-5.0000000000000178e-01,-8.6602540378443760e-01,-6.3847584536859278e-02,9.9902724617037009e-01,-4.4097181420662351e-02,3.1320802034226164e-01,-6.5449235108056936e-01,-7.5606862279625697e-01
1.0000000000000000e+00,8.5787174003973557e-16,-1.0000000000000000e+00,-9.8114840237628398e-02,9.9523255012861178e-01,9.7530360219268558e-02,1.9655279076743326e-01,-4.6162637153377484e-01,-8.8707445747499758e-01
1.0000000000000000e+00,4.9999999999999711e-01,-8.6602540378444026e-01,-1.3182739166705490e-01,9.7146078969619665e-01,2.3720019831956693e-01,6.3474504320758920e-02,-2.4366646792987973e-01,-9.6985908894363460e-01
1.0000000000000000e+00,8.6602540378443849e-01,-5.0000000000000033e-01,-1.6420724485063487e-01,9.2818912972145728e-01,3.7210877370323275e-01,-7.9105173006660146e-02,-1.2460900259654099e-02,-9.9992235996837220e-01
1.0000000000000000e+00,1.0000000000000000e+00,-9.7971743931788257e-16,-1.9447679235223608e-01,8.6628615186150915e-01,4.9954809887835461e-01,-2.2341915401821247e-01,2.1942203964075488e-01,-9.7563003670443182e-01
1.0000000000000000e+00,8.6602540378443948e-01,4.9999999999999861e-01,-2.2187698437802861e-01,7.8699441975087381e-01,6.1696011482184610e-01,-3.6127804371043504e-01,4.3937723810623630e-01,-8.9830264534517301e-01
1.0000000000000000e+00,4.9999999999999883e-01,8.6602540378443926e-01,-2.4568560514950677e-01,6.9190553731952176e-01,7.2198803828497304e-01,-4.8453404097086444e-01,6.3544797128689645e-01,-7.7214368856280080e-01
1.0000000000000000e+00,2.8173066186755008e-15,1.0000000000000000e+00,-2.6523522666417448e-01,5.8292820090874908e-01,8.1252366893850492e-01,-5.8555939293031267e-01,7.9697587044199369e-01,-6.0401114388165589e-01
1.0000000000000000e+00,-5.0000000000000011e-01,8.6602540378443860e-01,-2.7993041007290981e-01,4.6224988646708265e-01,8.8674970677253073e-01,-6.5771146125605329e-01,9.1518030889062263e-01,-4.0304466529016936e-01
1.0000000000000000e+00,-8.6602540378443837e-01,5.0000000000000044e-01,-2.8926373303297881e-01,3.3229294086998246e-01,9.4317623032388720e-01,-6.9575637848013427e-01,9.8363571525177995e-01,-1.8016875334285709e-01
1.0000000000000000e+00,-1.0000000000000000e+00,1.1021821192326179e-15,-2.9283023952193776e-01,1.9566595873171169e-01,9.8067060351251489e-01,-6.9622486353005386e-01,9.9862086631454550e-01,5.2501098666472609e-02
1.0000000000000000e+00,-8.6602540378443771e-01,-5.0000000000000155e-01,-2.9033993646554934e-01,5.5111420711009614e-02,9.9848021077396121e-01,-6.5767697835230243e-01,9.5932117204260070e-01,2.8231700067620941e-01
1.0000000000000000e+00,-5.0000000000000200e-01,-8.6602540378443749e-01,-2.8162799865922544e-01,-8.6549355645707884e-02,9.9624756413118154e-01,-5.8085729307576206e-01,8.6787295653773144e-01,4.9678620281813068e-01
1.0000000000000000e+00,-2.9397712985902359e-15,-1.0000000000000000e+00,-2.6666238914387380e-01,-2.2647284753511099e-01,9.7401747896500213e-01,-4.6872784521764876e-01,7.2924732785733071e-01,6.8425019898641071e-01
1.0000000000000000e+00,5.0000000000000000e-01,-8.6602540378443860e-01,-2.4554865552285871e-01,-3.6185040424850129e-01,9.3223617444572282e-01,-3.2637310942244824e-01,5.5097994950111429e-01,8.3451848107022142e-01
1.0000000000000000e+00,8.6602540378443837e-01,-5.0000000000000056e-01,-2.1853172257762934e-01,-4.8996462454416190e-01,8.7174231668268720e-01,-1.6077855659898327e-01,3.4276140313899067e-01,9.3942249308721060e-01
1.0000000000000000e+00,1.0000000000000000e+00,-4.7773604779478540e-15,-1.8599456668973752e-01,-6.0824390239104742e-01,7.9375018438052036e-01,1.9508147144827452e-02,1.1591041038629747e-01,9.9325967237378565e-01
1.0000000000000000e+00,8.6602540378443960e-01,4.9999999999999839e-01,-1.4845372660122658e-01,-7.1431404620014582e-01,6.9982529491379197e-01,2.0481710943609857e-01,-1.1724145080681422e-01,9.9310343983530402e-01
1.0000000000000000e+00,5.0000000000000211e-01,8.6602540378443749e-01,-1.0655167642905328e-01,-8.0604593540307401e-01,5.9185298007206444e-01,3.8487477344377402e-01,-3.4402008844877324e-01,9.3896228824362171e-01
1.0000000000000000e+00,-4.9047770029552963e-16,1.0000000000000000e+00,-6.1046159001270237e-02,-8.8159825777883960e-01,4.7200054224684390e-01,5.4937326914062456e-01,-5.5209785779985321e-01,8.3377932057158444e-01
1.0000000000000000e+00,-4.9999999999999684e-01,8.6602540378444048e-01,-1.2796648870842690e-02,-9.3945446967262425e-01,3.4267375069025680e-01,6.8855901261428920e-01,-7.3016368985695379e-01,6.8327226346053160e-01
1.0000000000000000e+00,-8.6602540378443826e-01,5.0000000000000067e-01,3.7251816850046623e-02,-9.7845323721301192e-01,2.0646855108557668e-01,7.9380702077568399e-01,-8.6853795896966257e-01,4.9562265265906968e-01
1.0000000000000000e+00,-1.0000000000000000e+00,-2.2056021997384123e-15,8.8087137011407760e-02,-9.9781174748837620e-01,6.6118957751865645e-02,8.5814732392006454e-01,-9.5969866549780913e-01,2.8103108625510487e-01
1.0000000000000000e+00,-8.6602540378443960e-01,-4.9999999999999833e-01,1.3865061244011093e-01,-9.9714142176279474e-01,-7.5557825570037776e-02,8.7671173149627379e-01,-9.9869033031872223e-01,5.1162722053088472e-02
1.0000000000000000e+00,-4.9999999999999917e-01,-8.6602540378443915e-01,1.8785896562042770e-01,-9.7645571532385944e-01,-2.1571795477282368e-01,8.4707297506228074e-01,-9.8339337375452329e-01,-1.8148683824370451e-01
1.0000000000000000e+00,-3.1847006584197066e-15,-1.0000000000000000e+00,2.3462745661545145e-01,-9.3616984739791376e-01,-3.5154802918373318e-01,7.6945374238228537e-01,-9.1463933553083898e-01,-4.0427080762739387e-01
1.0000000000000000e+00,4.9999999999999978e-01,-8.6602540378443882e-01,2.7789360369820371e-01,-8.7709246655406559e-01,-4.8032156428178963e-01,6.4679004910845761e-01,-7.9616567243132630e-01,-6.0507869078490450e-01
1.0000000000000000e+00,8.6602540378444004e-01,-4.9999999999999767e-01,3.1664099347411773e-01,-8.0040941889531370e-01,-5.9945371976797868e-01,4.8464140026156111e-01,-6.3441259083914325e-01,-7.7299460838013989e-01
1.0000000000000000e+00,1.0000000000000000e+00,-1.4695761589768238e-15,3.4992265271569462e-01,-7.0765994485401174e-01,-7.0655318444489157e-01,2.9094883282567741e-01,-4.3817295831077335e-01,-8.9889068223293167e-01
1.0000000000000000e+00,8.6602540378444148e-01,4.9999999999999512e-01,3.7688345316379868e-01,-6.0070578238766781e-01,-7.9947017643312990e-01,7.5650716697754569e-02,-2.1811432492421320e-01,-9.7592322508630502e-01
1.0000000000000000e+00,5.0000000000000233e-01,8.6602540378443726e-01,3.9678103139355497e-01,-4.8169379675924084e-01,-8.7633959522759619e-01,-1.4982538171019369e-01,1.3800962767491605e-02,-9.9990476217822377e-01
1.0000000000000000e+00,-2.4554834046605899e-16,1.0000000000000000e+00,4.0900472845055347e-01,-3.5301288702539335e-01,-9.3561845941280830e-01,-3.7316889659362712e-01,2.4496603267928133e-01,-9.6953166159407778e-01
1.0000000000000000e+00,-4.9999999999999661e-01,8.6602540378444059e-01,4.1309208802569031e-01,-2.1724603423841060e-01,-9.7611687855895790e-01,-5.8185838341448815e-01,4.6281479442566187e-01,-8.8645499945611017e-01
1.0000000000000000e+00,-8.6602540378443815e-01,5.0000000000000089e-01,4.0874249688490633e-01,-7.7118453886763319e-02,-9.9702193760725000e-01,-7.6386286797985214e-01,6.5550502966665236e-01,-7.5519080773121261e-01
1.0000000000000000e+00,-1.0000000000000000e+00,5.1447545176920602e-15,3.9582760628258562e-01,6.4557106702068670e-02,-9.9791401431899818e-01,-9.0833317426484772e-01,8.1256213290339341e-01,-5.8287458356964583e-01
1.0000000000000000e+00,-8.6602540378443971e-01,-4.9999999999999811e-01,3.7439823710733833e-01,2.0493682796441026e-01,-9.7877520225222592e-01,-1.0062436214770549e+00,9.2544850909305376e-01,-3.7887340500151750e-01
1.0000000000000000e+00,-4.9999999999999939e-01,-8.6602540378443904e-01,3.4468754326322359e-01,3.4120290140872717e-01,-9.3998967019338375e-01,-1.0509463844959941e+00,9.8802767573404771e-01,-1.5427673831001026e-01
1.0000000000000000e+00,-3.4296300182491773e-15,-1.0000000000000000e+00,3.0711028581428967e-01,4.7062009080997286e-01,-8.8233595082939520e-01,-1.0386049186178210e+00,9.9689784091828482e-01,7.8706383301878152e-02
1.0000000000000000e+00,4.9999999999999345e-01,-8.6602540378444248e-01,2.6225815309091044e-01,5.9059063595060579e-01,-8.0697131344767081e-01,-9.6847897108064129e-01,9.5157682410922517e-01,3.0741104049497120e-01
1.0000000000000000e+00,8.6602540378443982e-01,-4.9999999999999789e-01,2.1089114752093469e-01,6.9870639683867697e-01,-7.1540853434713314e-01,-8.4304152997221171e-01,8.5452826738653898e-01,5.1940489046346083e-01
1.0000000000000000e+00,1.0000000000000000e+00,-1.7145055188062944e-15,1.5392514656528414e-01,7.9279719172457219e-01,-6.0948553124223703e-01,-6.6791718331720684e-01,7.1102771231896356e-01,7.0316398678719405e-01
1.0000000000000000e+00,8.6602540378443804e-01,5.0000000000000111e-01,9.2415830913781374e-02,8.7097435863902828e-01,-4.9132847118127948e-01,-4.5164128226748390e-01,5.2887582250171938e-01,8.4869921902469658e-01
1.0000000000000000e+00,5.0000000000000255e-01,8.6602540378443715e-01,2.7539256130766052e-02,9.3166866605206011e-01,-3.6330909250495624e-01,-2.0524947148577224e-01,3.1797434092826754e-01,9.4809931890663957e-01
1.0000000000000000e+00,7.1048083769644134e-15,1.0000000000000000e+00,-3.9430577638451002e-02,9.7366181168127219e-01,-2.2799709751122435e-01,5.8283009045320702e-02,8.9787833075122003e-02,9.9596091541368936e-01
1.0000000000000000e+00,-4.9999999999999639e-01,8.6602540378444071e-01,-1.0714673127572852e-01,9.9611087718150637e-01,-8.8108571437119032e-02,3.2472390210305363e-01,-1.4327952475405739e-01,9.8968226102434076e-01
1.0000000000000000e+00,-8.6602540378443804e-01,5.0000000000000111e-01,-1.7421641706435695e-01,9.9856524784271339e-01,5.3548536869091126e-02,5.7935252325452269e-01,-3.6855823415492717e-01,9.2960466222830540e-01
1.0000000000000000e+00,-1.0000000000000000e+00,-1.7157434800794711e-15,-2.3922962897516742e-01,9.8097565767099948e-01,1.9413077823196950e-01,8.0777285818356559e-01,-5.7380218620912260e-01,8.1899392616894995e-01
1.0000000000000000e+00,-8.6602540378443982e-01,-4.9999999999999789e-01,-3.0078872466282014e-01,9.4369517829311123e-01,3.3081627902256106e-01,9.9672626714194157e-01,-7.4785435769694886e-01,6.6386283197184959e-01
1.0000000000000000e+00,-5.0000000000000577e-01,-8.6602540378443538e-01,-3.5753833970117799e-01,8.8747213183431628e-01,4.6086138395124193e-01,1.1348579796683895e+00,-8.8125330481315378e-01,4.7264427718517299e-01
1.0000000000000000e+00,-3.6745593780786476e-15,-1.0000000000000000e+00,-4.0819499626729105e-01,8.1343507002777538e-01,5.8165572880262106e-01,1.2133932256944793e+00,-9.6674748549979761e-01,2.5573286703085035e-01
1.0000000000000000e+00,4.9999999999999939e-01,-8.6602540378443904e-01,-4.5157576371555386e-01,7.2307012106615265e-01,6.9077463765064462e-01,1.2266830475409323e+00,-9.9968945192943792e-01,2.4919865589927658e-02
1.0000000000000000e+00,8.6602540378443971e-01,-4.9999999999999811e-01,-4.8662533758174881e-01,6.1819115890667786e-01,7.8602779279718760e-01,1.1725863816794531e+00,-9.7828848490825804e-01,-2.0724777512896247e-01
1.0000000000000000e+00,1.0000000000000000e+00,-1.9594348786357651e-15,-5.1244092653759865e-01,5.0090339381404325e-01,8.6550320049412499e-01,1.0526635630828960e+00,-9.0370793703978203e-01,-4.2814946517694197e-01
1.0000000000000000e+00,8.6602540378444171e-01,4.9999999999999467e-01,-5.2829437339481877e-01,3.7356111497944111e-01,9.2760556993547472e-01,8.7216654126262916e-01,-7.8000199309280738e-01,-6.2577702959700277e-01
1.0000000000000000e+00,5.0000000000000278e-01,8.6602540378443704e-01,-5.3365098584825410e-01,2.3872043343802901e-01,9.7108833514730242e-01,6.3982226092853911e-01,-6.1389528526827153e-01,-7.8938747059057601e-01
1.0000000000000000e+00,2.4431037919288229e-16,1.0000000000000000e+00,-5.2818461437408371e-01,9.9087973864895415e-02,9.9507867700767749e-01,3.6741723859054820e-01,-4.1441734343829428e-01,-9.1008695488812874e-01
1.0000000000000000e+00,-5.0000000000000233e-01,8.6602540378443726e-01,-5.1178858740894595e-01,-4.2533454853167632e-02,9.9909504313566366e-01,6.9202711750039100e-02,-1.9241175157473517e-01,-9.8131428087842598e-01
1.0000000000000000e+00,-8.6602540378443793e-01,5.0000000000000122e-01,-4.8458219622229087e-01,-1.8330111972854987e-01,9.8305681397682187e-01,-2.3884979639143047e-01,4.0053307467156733e-02,-9.9919754431290586e-01
1.0000000000000000e+00,-1.0000000000000000e+00,5.6346132373510016e-15,-4.4691251212303396e-01,-3.2038942517057811e-01,9.4728592106019738e-01,-5.3990367423358421e-01,2.7034107613354713e-01,-9.6276461430349403e-01
1.0000000000000000e+00,-8.6602540378444004e-01,-4.9999999999999767e-01,-3.9935141498347582e-01,-4.5104663048842841e-01,8.9250038494391426e-01,-8.1717740003809514e-01,4.8593315397216075e-01,-8.7399597817762775e-01
1.0000000000000000e+00,-4.9999999999999978e-01,-8.6602540378443882e-01,-3.4268781253146141e-01,-5.7265008492233838e-01,8.1979990256064228e-01,-1.0548794117186178e+00,6.7510999556227069e-01,-7.3771708255394952e-01
1.0000000000000000e+00,3.1859386196928831e-15,-1.0000000000000000e+00,-2.7791513235197113e-01,-6.8275887148356551e-01,7.3064377326470675e-01,-1.2391056186829073e+00,8.2758798283315349e-01,-5.6133602295786433e-01
1.0000000000000000e+00,4.9999999999999917e-01,-8.6602540378443915e-01,-2.0621427087491542e-01,-7.7916280289595663e-01,6.2682160666597686e-01,-1.3586486424715767e+00,9.3507844063776147e-01,-3.5444084112084551e-01
1.0000000000000000e+00,8.6602540378443604e-01,-5.0000000000000444e-01,-1.2893228360334785e-01,-8.5992678615528007e-01,5.1041740022519921e-01,-1.4056718922921672e+00,9.9173820759852882e-01,-1.2827832080775553e-01
1.0000000000000000e+00,1.0000000000000000e+00,-2.2043642384652358e-15,-4.7557196272237846e-02,-9.2342966518720015e-01,3.8376770767256507e-01,-1.3762083078914800e+00,9.9448726927762665e-01,1.0485738526555662e-01
1.0000000000000000e+00,8.6602540378444182e-01,4.9999999999999450e-01,3.6310594592862393e-02,-9.6839676192451674e-01,2.4941473792482832e-01,-1.2704527036690327e+00,9.4317618719134400e-01,3.3229306329684177e-01
1.0000000000000000e+00,4.9999999999999684e-01,8.6602540378444048e-01,1.2098978312673871e-01,-9.9392546261442816e-01,1.1005532593516267e-01,-1.0928276531091625e+00,8.4059422225837832e-01,5.4166535195250587e-01
1.0000000000000000e+00,4.8923973902235293e-16,1.0000000000000000e+00,2.0475185937358176e-01,-9.9950333576800510e-01,-3.1513200228324864e-02,-8.5181517492626768e-01,6.9231771109291596e-01,7.2159281239980888e-01
1.0000000000000000e+00,-4.9999999999999595e-01,8.6602540378444093e-01,2.8585638264399887e-01,-9.8501841807462553e-01,-1.7244916947831962e-01,-5.5955945128500473e-01,5.0640693737908626e-01,8.6229462121384837e-01
1.0000000000000000e+00,-8.6602540378443782e-01,5.0000000000000144e-01,3.6258710335645927e-01,-9.5076146181466525e-01,-3.0992360789078455e-01,-2.3125870614752281e-01,2.9296797634277266e-01,9.5612225412737917e-01
1.0000000000000000e+00,-1.0000000000000000e+00,5.8795425971804719e-15,4.3328818448396211e-01,-8.9742009865867678e-01,-4.4117702402034820e-01,1.1562352742182778e-01,6.3603330374114489e-02,9.9797525839337387e-01
1.0000000000000000e+00,-8.6602540378443660e-01,-5.0000000000000355e-01,4.9639975998099661e-01,-8.2606503700171074e-01,-5.6357479951055489e-01,4.6228691085951223e-01,-1.6921878085348338e-01,9.8557851245167716e-01
1.0000000000000000e+00,-5.0000000000000000e-01,-8.6602540378443860e-01,5.5049206984196841e-01,-7.3812856989039244e-01,-6.7466007315652232e-01,7.8961323260194960e-01,-3.9284219049549901e-01,9.1960590111563445e-01
1.0000000000000000e+00,-4.1644180977375890e-15,-1.0000000000000000e+00,5.9429742991595391e-01,-6.3537582494795009e-01,-7.7220305689093971e-01,1.0792205463193485e+00,-5.9511077142188606e-01,8.0364368331845160e-01
1.0000000000000000e+00,4.9999999999999895e-01,-8.6602540378443926e-01,6.2673932910565944e-01,-5.1986933339059693e-01,-8.5424579378538135e-01,1.3144944034795931e+00,-7.6502924103638070e-01,6.4399554374180212e-01
1.0000000000000000e+00,8.6602540378443593e-01,-5.0000000000000466e-01,6.4695799659825737e-01,-3.9392762933287950e-01,-9.1914145965035077e-01,1.4815383834775704e+00,-8.9336086280194427e-01,4.4933992568407022e-01
1.0000000000000000e+00,1.0000000000000000e+00,-9.5547209558957080e-15,6.5433184646153486e-01,-2.6007871040822000e-01,-9.6558741934244219e-01,1.5699896755667933e+00,-9.7312955352816022e-01,2.3025827249000974e-01
1.0000000000000000e+00,8.6602540378443837e-01,5.0000000000000044e-01,6.4849428511603668e-01,-1.2100929387845703e-01,-9.9265137424729188e-01,1.5736521066042317e+00,-9.9999910196139641e-01,-1.3401777496516202e-03
1.0000000000000000e+00,5.0000000000000322e-01,8.6602540378443682e-01,6.2934545738522540e-01,2.0489113197648089e-02,-9.9979007608616222e-01,1.4909084140630267e+00,-9.7250888442542671e-01,-2.3286577617505758e-01
1.0000000000000000e+00,7.8395964564528251e-15,1.0000000000000000e+00,5.9705860727866444e-01,1.6157624721641203e-01,-9.8686023140841017e-01,1.3248852517702085e+00,-8.9215326405394713e-01,-4.5173283413748894e-01
1.0000000000000000e+00,-4.9999999999999578e-01,8.6602540378444104e-01,5.5208083838449595e-01,2.9942009995963309e-01,-9.5412137788656814e-01,1.0833577680004476e+00,-7.6330035748739644e-01,-6.4604377890326647e-01
1.0000000000000000e+00,-8.6602540378443771e-01,5.0000000000000167e-01,4.9512817354212579e-01,4.3125376481664185e-01,-9.0223067467886098e-01,7.7839489093106451e-01,-5.9295458486142494e-01,-8.0523590350394536e-01
1.0000000000000000e+00,-1.0000000000000000e+00,-9.8095540059105927e-16,4.2717493198208012e-01,5.5443097623737059e-01,-8.3222971143097035e-01,4.2576091041094910e-01,-3.9037591082562600e-01,-9.2065555353077777e-01
1.0000000000000000e+00,-8.6602540378443671e-01,-5.0000000000000344e-01,3.4943756189641256e-01,6.6647922758636824e-01,-7.4552360069677071e-01,4.4102752296266978e-02,-1.6657647458027003e-01,-9.8602853818558855e-01
1.0000000000000000e+00,-5.0000000000000633e-01,-8.6602540378443493e-01,2.6335318492105020e-01,7.6514940117574348e-01,-6.4385277345088854e-01,-3.4603527872437695e-01,6.6278027971043790e-02,-9.9780119413050894e-01
1.0000000000000000e+00,-4.4093474575670601e-15,-1.0000000000000000e+00,1.7055322374689835e-01,8.4846091426533610e-01,-5.2925804383498043e-01,-7.2331727248956379e-01,2.9552966919744267e-01,-9.5533356196882879e-01
1.0000000000000000e+00,4.9999999999999872e-01,-8.6602540378443937e-01,7.2832592554127995e-02,9.1474147482524526e-01,-4.0403964438472528e-01,-1.0667824918433886e+00,5.0871637234237432e-01,-8.6093417431927677e-01
1.0000000000000000e+00,8.6602540378443937e-01,-4.9999999999999872e-01,-2.7884970190158169e-02,9.6266064905285798e-01,-2.7071105401355566e-01,-1.3570093518982600e+00,6.9424934770796243e-01,-7.1973456441042816e-01
1.0000000000000000e+00,1.0000000000000000e+00,4.4112043994768247e-15,-1.2958475803706540e-01,9.9125656685161401e-01,-1.3194854555299834e-01,-1.5772119914452418e+00,8.4204305711655159e-01,-5.3941031688484775e-01
1.0000000000000000e+00,8.6602540378444204e-01,4.9999999999999406e-01,-2.3020139730725314e-01,9.9995522921886637e-01,9.4625344302936218e-03,-1.7142076082532764e+00,9.4406346189809642e-01,-3.2976382443952434e-01
1.0000000000000000e+00,5.0000000000000344e-01,8.6602540378443671e-01,-3.2766078615068767e-01,9.8858202999025546e-01,1.5068367522842543e-01,-1.7591989919647326e+00,9.9476475174423684e-01,-1.0219143157440780e-01
1.0000000000000000e+00,9.7909845868129412e-16,1.0000000000000000e+00,-4.1992282042094781e-01,9.5736526066738969e-01,2.8888017873724231e-01,-1.7083261329425370e+00,9.9139081392950412e-01,1.3093606858385237e-01
1.0000000000000000e+00,-5.0000000000000167e-01,8.6602540378443771e-01,-5.0502402679977765e-01,9.0693152797725995e-01,4.2127805967179499e-01,-1.5629529320232411e+00,9.3412505508860688e-01,3.5694590830503603e-01
1.0000000000000000e+00,-8.6602540378444104e-01,4.9999999999999578e-01,-5.8111921363294883e-01,8.3829317614562537e-01,5.4521972710796107e-01,-1.3296692464857054e+00,8.2608043126574360e-01,5.6355223456198200e-01
1.0000000000000000e+00,-1.0000000000000000e+00,6.3694013168394133e-15,-6.4652125849715625e-01,7.5282796635406612e-01,6.5821732966794566e-01,-1.0200040194857838e+00,6.7313022820058943e-01,7.3952396572567036e-01
1.0000000000000000e+00,-8.6602540378444037e-01,-4.9999999999999700e-01,-6.9973817866208743e-01,6.5225142127006841e-01,7.5800269356459138e-01,-6.4986120845987938e-01,4.8358879060331245e-01,8.7529531108239444e-01
1.0000000000000000e+00,-5.0000000000000044e-01,-8.6602540378443837e-01,-7.3950667600275455e-01,5.3858238977178929e-01,8.4257285111004399e-01,-2.3870577024673204e-01,2.6775955591605188e-01,9.6348576544526010e-01
1.0000000000000000e+00,-1.1759704174997533e-14,-1.0000000000000000e+00,-7.6482141082742217e-01,4.1410252307850554e-01,9.1023024580598055e-01,1.9145879370312238e-01,3.7374961361901417e-02,9.9930131204917183e-01
1.0000000000000000e+00,5.0000000000000466e-01,-8.6602540378443593e-01,-7.7495933841071363e-01,2.8131047571266737e-01,9.5961680698824403e-01,6.1726768986653269e-01,-1.9504132916953151e-01,9.8079502441426691e-01
1.0000000000000000e+00,8.6602540378443571e-01,-5.0000000000000511e-01,-7.6949853629626008e-01,1.4287175060668830e-01,9.8974121005370908e-01,1.0152639125905234e+00,-4.1685520917161212e-01,9.0897290090876282e-01
1.0000000000000000e+00,1.0000000000000000e+00,-2.9391523179536475e-15,-7.4833105786309972e-01,1.5651951015660155e-03,9.9999877508139678e-01,1.3631902202560977e+00,-6.1600891721037065e-01,7.8773917886398592e-01
1.0000000000000000e+00,8.6602540378443860e-01,5.0000000000000000e-01,-7.1166946614190063e-01,-1.3977277818960424e-01,9.9018360442756259e-01,1.6412328596976620e+00,-7.8167649460279187e-01,6.2368410095615834e-01
1.0000000000000000e+00,5.0000000000000977e-01,8.6602540378443305e-01,-6.6004682907093815e-01,-2.7830512601203977e-01,9.6049271565974026e-01,1.8331475915343687e+00,-9.0485228252570948e-01,4.2572567083512075e-01
1.0000000000000000e+00,-5.8813995390902372e-15,1.0000000000000000e+00,-5.9431009073729779e-01,-4.1125112175839956e-01,9.1152208687033909e-01,1.9272041447883135e+00,-9.7884046796146407e-01,2.0462487209765584e-01
1.0000000000000000e+00,-4.9999999999999534e-01,8.6602540378444137e-01,-5.1560686993683924e-01,-5.3594217232733432e-01,8.4425469375127427e-01,1.9168944215895443e+00,-9.9961906685338064e-01,-2.7599296787718431e-02
1.0000000000000000e+00,-8.6602540378443749e-01,5.0000000000000211e-01,-4.2536587478450555e-01,-6.4987538415308488e-01,7.6004077855854568e-01,1.8013621190418678e+00,-9.6605855841417754e-01,-2.5832317301148394e-01
1.0000000000000000e+00,-1.0000000000000000e+00,-4.9109668093211799e-16,-3.2527125724703837e-01,-7.5076380318799374e-01,6.6057074702313257e-01,1.5855262912799426e+00,-8.7998328566674655e-01,-4.7500464939530557e-01
1.0000000000000000e+00,-8.6602540378444404e-01,-4.9999999999999067e-01,-2.1723136149977168e-01,-8.3658232038285274e-01,5.4784123724199696e-01,1.2798879484626482e+00,-7.4607228449532825e-01,-6.6586496101531123e-01
1.0000000000000000e+00,-5.0000000000000677e-01,-8.6602540378443471e-01,-1.0334244214972092e-01,-9.0560832121536661e-01,4.2411504164021974e-01,9.0002618343537943e-01,-5.7160493212146468e-01,-8.2052897668175973e-01
1.0000000000000000e+00,-4.8992061772260007e-15,-1.0000000000000000e+00,1.4151960026055611e-02,-9.5645626331849642e-01,2.9187568648110979e-01,4.6580757660950001e-01,-3.6606524150646907e-01,-9.3058918914890176e-01
1.0000000000000000e+00,4.9999999999999833e-01,-8.6602540378443960e-01,1.3290519855857749e-01,-9.8810548814023036e-01,1.5377758063891225e-01,3.4879621247945754e-04,-1.4062631216344251e-01,-9.9006274565166319e-01
1.0000000000000000e+00,8.6602540378443915e-01,-4.9999999999999917e-01,2.5051438829111067e-01,-9.9992070837802294e-01,1.2592734285800050e-02,-4.7121352591074406e-01,9.2457037462878616e-02,-9.9571667467386915e-01
1.0000000000000000e+00,1.0000000000000000e+00,-1.0289509035384120e-14,3.6456902290976367e-01,-9.9166475994851544e-01,-1.2884488300376248e-01,-9.2308021380883887e-01,3.2051443965702386e-01,-9.4724362968105735e-01
1.0000000000000000e+00,8.6602540378444237e-01,4.9999999999999367e-01,4.7270035938464766e-01,-9.6350336252532665e-01,-2.6769622784490066e-01,-1.3302009625834110e+00,5.3114873627504089e-01,-8.4727859642116954e-01
1.0000000000000000e+00,5.0000000000000377e-01,8.6602540378443649e-01,5.7263055798833906e-01,-9.1600179308777141e-01,-4.0117417047959053e-01,-1.6696625369566129e+00,7.1290988596511218e-01,-7.0125565558732628e-01
1.0000000000000000e+00,1.4689571783402355e-15,1.0000000000000000e+00,6.6222055954378212e-01,-8.5011353925157440e-01,-5.2659944016411753e-01,-1.9219768521997656e+00,8.5591738629470804e-01,-5.1711258719783215e-01
1.0000000000000000e+00,-5.0000000000000122e-01,8.6602540378443793e-01,7.3951569562202346e-01,-7.6716116014053282e-01,-6.4145440552843025e-01,-2.0721966061106314e+00,9.5239737603284924e-01,-3.0485937434453875e-01
1.0000000000000000e+00,-8.6602540378443371e-01,5.0000000000000844e-01,8.0278806250514212e-01,-6.6880973897428753e-01,-7.4343361038706435e-01,-2.1107947580288493e+00,9.9710522080677488e-01,-7.6034062365973196e-02
1.0000000000000000e+00,-1.0000000000000000e+00,6.8592600364983547e-15,8.5057474535621458e-01,-5.5703346025202582e-01,-8.3049005060846748e-01,-2.0342564073774354e+00,9.8761061045507570e-01,1.5692444716025852e-01
1.0000000000000000e+00,-8.6602540378444059e-01,-4.9999999999999661e-01,8.8171105426664798e-01,-4.3407598242030282e-01,-9.0087626313820091e-01,-1.8453468752192541e+00,9.2442967023793854e-01,3.8135257280340479e-01
1.0000000000000000e+00,-5.0000000000001321e-01,-8.6602540378443105e-01,8.9535802733382464e-01,-3.0240540145491801e-01,-9.5317940240591115e-01,-1.5530372295951647e+00,8.1099690436359839e-01,5.8505044322063415e-01
1.0000000000000000e+00,-1.2249562894656474e-14,-1.0000000000000000e+00,8.9102356591554310e-01,-1.6466470936207209e-01,-9.8634960003576033e-01,-1.1720871800068413e+00,6.5347849697569516e-01,7.5694507990367865e-01
1.0000000000000000e+00,5.0000000000000422e-01,-8.6602540378443615e-01,8.6857669160639317e-01,-2.3618742033426402e-02,-9.9972103860264860e-01,-7.2230417919007028e-01,4.6043711952528049e-01,8.8769232223967254e-01
1.0000000000000000e+00,8.6602540378444259e-01,-4.9999999999999323e-01,8.2825455085660171e-01,1.1790131864190506e-01,-9.9302531642576963e-01,-2.2751566757328237e-01,2.4236646553668548e-01,9.7018477435138850e-01
1.0000000000000000e+00,1.0000000000000000e+00,-3.4290110376125889e-15,7.7066193880252254e-01,2.5705477441273628e-01,-9.6639683513120911e-01,2.8569233319124698e-01,1.1120815371077657e-02,9.9993816182076101e-01
