djean032/levmar/conformance/nist_nls/corpus/gauss1/jacobian_certified.csv
j1,j2,j3,j4,j5,j6,j7,j8
9.8955762760760557e-01,-9.7746732008830548e+01,2.5829645478161789e-04,-6.4509904382557964e-03,1.8541859727331782e-02,2.0450393175911603e-41,-1.5499284145259935e-39,1.5002360077088177e-38
9.7922429835639258e-01,-1.9345204846610952e+02,3.3055484724146714e-04,-8.1314735500446281e-03,2.3020455759810481e-02,5.8425918299745585e-41,-4.4032035495950527e-39,4.2380877466703950e-38
9.6899887357727399e-01,-2.8714792520393235e+02,4.2144901454590979e-04,-1.0209094848802622e-02,2.8460883326739184e-02,1.6593612009515941e-40,-1.2434935037023140e-38,1.1901017037753853e-37
9.5888022649156945e-01,-3.7886589284966595e+02,5.3533172735029545e-04,-1.2766656886771801e-02,3.5038889220299400e-02,4.6849807913203020e-40,-3.4908867312502947e-38,3.3220155962890228e-37
9.4886724208684092e-01,-4.6863704263719092e+02,6.7745016364833459e-04,-1.5901415278852613e-02,4.2954943051974483e-02,1.3149407887163454e-39,-9.7419368906700029e-38,9.2176962591907020e-37
9.3895881699402595e-01,-5.5649203214532361e+02,8.5409887277438626e-04,-1.9726931655857826e-02,5.2436038234826947e-02,3.6689017247972173e-39,-2.7025393135222382e-37,2.5424119921527359e-36
9.2915385936585215e-01,-6.4246109096430530e+02,1.0727916223593104e-03,-2.4375010872897999e-02,6.3737232614087910e-02,1.0176477104549179e-38,-7.4527356426817855e-37,6.9706285376266786e-36
9.1945128875652349e-01,-7.2657402629123669e+02,1.3424528030542646e-03,-2.9997687895241015e-02,7.7142814326285683e-02,2.8060172723108981e-38,-2.0430369976169057e-36,1.8997659064389896e-35
9.0985003600266090e-01,-8.0886022845532011e+02,1.6736286692724659e-03,-3.6769219043489766e-02,9.2966963270492795e-02,7.6915650845791571e-38,-5.5674124025354536e-36,5.1467139656424707e-35
9.0034904310548769e-01,-8.8934867637376931e+02,2.0787181852038152e-03,-4.4888020452389786e-02,1.1155376485639637e-01,2.0959001938965822e-37,-1.5081586345275323e-35,1.3859942181658696e-34
8.9094726311424421e-01,-9.6806794293923042e+02,2.5722226141035895e-03,-5.4578483896853568e-02,1.3327642144495100e-01,5.6775108854068314e-37,-4.0612240549604155e-35,3.7101706955666503e-34
8.8164366001082062e-01,-1.0450462003395487e+03,3.1710122281074188e-03,-6.6092586873329806e-02,1.5853549923577409e-01,1.5288921558682275e-36,-1.0871337686192538e-34,9.8724987235874022e-34
8.7243720859559404e-01,-1.1203112253107086e+03,3.8946076219198646e-03,-7.9711200406009999e-02,1.8775604549474781e-01,4.0928631959347086e-36,-2.8928435607077263e-34,2.6113232472661572e-33
8.6332689437445775e-01,-1.1938904043237601e+03,4.7654720876346666e-03,-9.5744984995302054e-02,2.2138341422350619e-01,1.0892036897860593e-35,-7.6521354536650152e-34,6.8658476259384121e-33
8.5431171344703039e-01,-1.2658107387065413e+03,5.8093103563559827e-03,-1.1453475306888899e-01,2.5987764891689991e-01,2.8815255741101620e-35,-2.0121293506096118e-33,1.7944331365315158e-32
8.4539067239603194e-01,-1.3360988497009876e+03,7.0553677486630152e-03,-1.3645116596533854e-01,3.0370629013381462e-01,7.5782224977282039e-35,-5.2595004240583098e-33,4.6618640403697302e-32
8.3656278817781582e-01,-1.4047809834568200e+03,8.5367224215043974e-03,-1.6189362569975316e-01,3.5333550427077470e-01,1.9812702800069559e-34,-1.3666214891718100e-32,1.2039008817527579e-31
8.2782708801404337e-01,-1.4718830159623869e+03,1.0290561983601712e-02,-1.9128821742510360e-01,4.0921946898831313e-01,5.1493403405933010e-34,-3.5299369355306513e-32,3.0904396182607668e-31
8.1918260928448927e-01,-1.5374304579134264e+03,1.2358434313808156e-02,-2.2508455854996143e-01,4.7178800067455634e-01,1.3304267498485015e-33,-9.0635929210821044e-32,7.8858367360592354e-31
8.1062839942096732e-01,-1.6014484595205104e+03,1.4786461005438135e-02,-2.6375141584853157e-01,5.4143247018425067e-01,3.4171326558414350e-33,-2.3133874242621052e-31,2.0001974472232843e-30
8.0216351580236289e-01,-1.6639618152559194e+03,1.7625500531944921e-02,-3.0777096350933342e-01,6.1849012438395368e-01,8.7249753459208669e-33,-5.8696292324915192e-31,5.0430711587454654e-30
7.9378702565076231e-01,-1.7249949685406873e+03,2.0931247051685042e-02,-3.5763157373105287e-01,7.0322701167500801e-01,2.2146141849343010e-32,-1.4804272454799277e-30,1.2639038235698518e-29
7.8549800592866592e-01,-1.7845720163725509e+03,2.4764249815512687e-02,-4.1381905785507467e-01,7.9581979788932333e-01,5.5880906852246919e-32,-3.7117383029748285e-30,3.1486850235572063e-29
7.7729554323727545e-01,-1.8427167138955222e+03,2.9189837489872826e-02,-4.7680631057880812e-01,8.9633685227671278e-01,1.4017169100121621e-31,-9.2508423653771713e-30,7.7972276701755516e-29
7.6917873371584333e-01,-1.8994524789118082e+03,3.4277931442386909e-02,-5.4704135270044152e-01,1.0047190785202322e+00,3.4953339803439401e-31,-2.2919156717946568e-29,1.9193163199837167e-28
7.6114668294207211e-01,-1.9548023963367687e+03,4.0102732239272194e-02,-6.2493381894387401e-01,1.1207610589292203e+00,8.6646005249732957e-31,-5.6445480442088419e-29,4.6962128209184573e-28
7.5319850583355530e-01,-2.0087892225976243e+03,4.6742264353404166e-02,-7.1083999614697646e-01,1.2440931666550994e+00,2.1352066310351583e-30,-1.3818874080061557e-28,1.1422032093678351e-27
7.4533332655024620e-01,-2.0614353899765952e+03,5.4277765449838908e-02,-8.0504658247089189e-01,1.3741653759506092e+00,5.2307356651021731e-30,-3.3630153218674987e-28,2.7614226646572773e-27
7.3755027839794640e-01,-2.1127630108991561e+03,6.2792908661328875e-02,-9.0775340883451072e-01,1.5102335588354041e+00,1.2738466132162995e-29,-8.1357479147294288e-28,6.6361439336046017e-27
7.2984850373280097e-01,-2.1627938821680732e+03,7.2372849031944603e-02,-1.0190554375441205e+00,1.6513490926399652e+00,3.0839192592309769e-29,-1.9564930857265926e-27,1.5852275169463313e-26
7.2222715386679115e-01,-2.2115494891438980e+03,8.3103088812708462e-02,-1.1389244276481256e+00,1.7963526115582253e+00,7.4219899300616040e-29,-4.6770400369832362e-27,3.7640881123706901e-26
7.1468538897421496e-01,-2.2590510098725654e+03,9.5068160533155102e-02,-1.2671907290399140e+00,1.9438727118154844e+00,1.7756984744442601e-28,-1.1114131446265203e-26,8.8842301946931168e-26
7.0722237799914300e-01,-2.3053193191607506e+03,1.0835013171060136e-01,-1.4035257345292353e+00,2.0923303604316938e+00,4.2232771393012241e-28,-2.6253751514607865e-26,2.0843523004596303e-25
6.9983729856384125e-01,-2.3503749925996235e+03,1.2302694062468120e-01,-1.5474255775022712e+00,2.2399496590520025e+00,9.9853074343226889e-28,-6.1647906938689647e-26,4.8608609527403971e-25
6.9252933687815021e-01,-2.3942383105376302e+03,1.3917057867275456e-01,-1.6981967087452468e+00,2.3847754756076567e+00,2.3469551974333092e-27,-1.4389845921085989e-25,1.1267964110399280e-24
6.8529768764981069e-01,-2.4369292620029410e+03,1.5684514129008603e-01,-1.8549440158739074e+00,2.5246982780845015e+00,5.4837753712286259e-27,-3.3389084065909854e-25,2.5963744163723725e-24
6.7814155399572451e-01,-2.4784675485761604e+03,1.7610477608967393e-01,-2.0165621591301091e+00,2.6574862888070974e+00,1.2737553276041045e-26,-7.7012837948137909e-25,5.9467298314845891e-24
6.7106014735414410e-01,-2.5188725882139352e+03,1.9699156353999808e-01,-2.1817307849865952e+00,2.7808248289063489e+00,2.9411953417286713e-26,-1.7657601425556862e-24,1.3538717186330412e-23
6.6405268739777712e-01,-2.5581635190240431e+03,2.1953337191635025e-01,-2.3489142415195809e+00,2.8923624477097043e+00,6.7513904431710840e-26,-4.0244815877836059e-24,3.0638297696013308e-23
6.5711840194779925e-01,-2.5963592029925699e+03,2.4374173417296813e-01,-2.5163663551074724e+00,2.9897631394642836e+00,1.5406148474000808e-25,-9.1179565901216861e-24,6.8918993785131186e-23
6.5025652688876523e-01,-2.6334782296637636e+03,2.6960979951612907e-01,-2.6821407358796239e+00,3.0707636507823013e+00,3.4948330373476966e-25,-2.0534972036079326e-23,1.5409898057207591e-22
6.4346630608440769e-01,-2.6695389197731402e+03,2.9711041653715331e-01,-2.8441069597589652e+00,3.1332345887916744e+00,7.8811625553878610e-25,-4.5972635814830415e-23,3.4248889188672663e-22
6.3674699129431589e-01,-2.7045593288344235e+03,3.2619440752225004e-01,-2.9999728294243435e+00,3.1752437656446579e+00,1.7667928669307143e-24,-1.0230881446989792e-22,7.5662107470167861e-22
6.3009784209148390e-01,-2.7385572506808849e+03,3.5678909474804571e-01,-3.1473127478608474e+00,3.1951199738385103e+00,3.9374267579797207e-24,-2.2632614039091613e-22,1.6614792162366802e-21
6.2351812578072052e-01,-2.7715502209616420e+03,3.8879713898652124e-01,-3.2836020504709649e+00,3.1915151927255847e+00,8.7230997488908929e-24,-4.9769588585851508e-22,3.6265630256620085e-21
6.1700711731791036e-01,-2.8035555205934738e+03,4.2209574791715515e-01,-3.4062569403402367e+00,3.1634630928392240e+00,1.9211474036228415e-23,-1.0879293552108278e-21,7.8682593974468724e-21
6.1056409923011901e-01,-2.8345901791686988e+03,4.5653630757254321e-01,-3.5126794626729341e+00,3.1104316428945857e+00,4.2061236611543577e-23,-2.3639826567951486e-21,1.6968540988664807e-20
6.0418836153653122e-01,-2.8646709783196543e+03,4.9194448329126811e-01,-3.6003067460620772e+00,3.0323676439071154e+00,9.1545053922077945e-23,-5.1061603558721856e-21,3.6374076907585349e-20
5.9787920167021613e-01,-2.8938144550403213e+03,5.2812082796049586e-01,-3.6666635382443564e+00,2.9297311221879525e+00,1.9807024187643146e-22,-1.0963539950070686e-20,7.7503326237269056e-20
5.9163592440070822e-01,-2.9220369049656083e+03,5.6484192472567463e-01,-3.7094168807941066e+00,2.8035177108295963e+00,4.2602499323585885e-22,-2.3399843739322697e-20,1.6414543264529712e-19
5.8545784175739757e-01,-2.9493543856088313e+03,6.0186207903555078e-01,-3.7264316093199352e+00,2.6552674364642188e+00,9.1092458559578324e-22,-4.9645571081475764e-20,3.4555450925269986e-19
5.7934427295371926e-01,-2.9757827195578907e+03,6.3891556117012049e-01,-3.7158252412462094e+00,2.4870586990439096e+00,1.9362492761293774e-21,-1.0470153643021738e-19,7.2307410336210942e-19
5.7329454431213556e-01,-3.0013374976306727e+03,6.7571938563679323e-01,-3.6760207295031275e+00,2.3014866772917424e+00,4.0913969048827072e-21,-2.1949779905728837e-19,1.5039267845716104e-18
5.6730798918990022e-01,-3.0260340819901594e+03,7.1197659845280192e-01,-3.6057955235393457e+00,2.1016258972689115e+00,8.5943582968395815e-21,-4.5741607929700795e-19,3.1091907386971357e-18
5.6138394790559876e-01,-3.0498876092197538e+03,7.4738002785015634e-01,-3.5043253935820360e+00,1.8909772484087091e+00,1.7946790685281331e-20,-9.4753745660832106e-19,6.3891626285487376e-18
5.5552176766645600e-01,-3.0729129933593199e+03,7.8161643886999155e-01,-3.3712215427030232e+00,1.6734002994926782e+00,3.7255606606470032e-20,-1.9511227781505527e-18,1.3050150666048916e-17
5.4972080249640165e-01,-3.0951249289023999e+03,8.1437101819938096e-01,-3.2065596545969317e+00,1.4530323332559685e+00,7.6882585477795549e-20,-3.9937015103366977e-18,2.6494833336737748e-17
5.4398041316488832e-01,-3.1165378937551127e+03,8.4533210298361383e-01,-3.0108997013643304e+00,1.2341960582665374e+00,1.5772328710524343e-19,-8.1258523108582136e-18,5.3466283440499829e-17
5.3829996711645201e-01,-3.1371661521571946e+03,8.7419605673046563e-01,-2.7852955610327701e+00,1.0212984460331846e+00,3.2165859354637541e-19,-1.6434787047804484e-17,1.0724349779495192e-16
5.3267883840100827e-01,-3.1570237575656474e+03,9.0067218726902498e-01,-2.5312937628041174e+00,8.1872355673537545e-01,6.5211771316091668e-19,-3.3041562420753701e-17,2.1381251430465607e-16
5.2711640760487688e-01,-3.1761245555014693e+03,9.2448759642053036e-01,-2.2509209807774746e+00,6.3072253769380882e-01,1.3142813171618455e-18,-6.6032524087206950e-17,4.2370679537762848e-16
5.2161206178252562e-01,-3.1944821863599068e+03,9.4539184887686667e-01,-1.9466602240670567e+00,4.6130418740404888e-01,2.6331898414708860e-18,-1.3117634569951202e-16,8.3457784593340097e-16
5.1616519438902786e-01,-3.2121100881846965e+03,9.6316134895058281e-01,-1.6214160113195686e+00,3.1412956185624513e-01,5.2445412640806136e-18,-2.5903170794158888e-16,1.6339408026521146e-15
5.1077520521322495e-01,-3.2290214994067346e+03,9.7760331842577153e-01,-1.2784691582137619e+00,1.9241405150872370e-01,1.0383991926906173e-17,-5.0845152209688343e-16,3.1796017577287794e-15
5.0544150031158674e-01,-3.2452294615476144e+03,9.8855927664313603e-01,-9.2142213477868185e-01,9.8840175083988499e-02,2.0438672088109896e-17,-9.9207574629448753e-16,6.1499977288235226e-15
5.0016349194276266e-01,-3.2607468218884624e+03,9.9590793500910968e-01,-5.5413625265120803e-01,3.5484024831019152e-02,3.9991943431189161e-17,-1.9241467528677923e-15,1.1823385273778189e-14
4.9494059850281596e-01,-3.2755862361045170e+03,9.9956743201946097e-01,-1.8066220880889372e-01,3.7578675956824858e-03,7.7790012636133296e-17,-3.7096166920842623e-15,2.2592911378136847e-14
4.8977224446113499e-01,-3.2897601708658567e+03,9.9949685121146004e-01,1.9483426874142537e-01,4.3708731393601805e-03,1.5042037735063786e-16,-7.1091349258284991e-15,4.2910621683733532e-14
4.8465786029701297e-01,-3.3032809064047142e+03,9.9569698268753393e-01,5.6814976517256133e-01,3.7309326746635070e-02,2.8914854070850565e-16,-1.3542558643260995e-14,8.1006228297641458e-14
4.7959688243689053e-01,-3.3161605390497757e+03,9.8821030839253410e-01,9.3512150500322833e-01,1.0183701231573798e-01,5.5254395887994440e-16,-2.5643676954186744e-14,1.5199584849836885e-13
4.7458875319225308e-01,-3.3284109837278834e+03,9.7712021152822148e-01,1.2917046194264739e+00,1.9651575263159168e-01,1.0496491644209348e-15,-4.8267500774192132e-14,2.8346759998582477e-13
4.6963292069817747e-01,-3.3400439764335501e+03,9.6254943067721044e-01,1.6340463494307234e+00,3.1924539458331602e-01,1.9822251997509136e-15,-9.0307452158933599e-14,5.2545091559607975e-13
4.6472883885251920e-01,-3.3510710766666657e+03,9.4465779870983990e-01,1.9585552816031302e+00,4.6732185788136810e-01,3.7212883277130611e-15,-1.6795229025340230e-13,9.6809172240373729e-13
4.5987596725573621e-01,-3.3615036698388230e+03,9.2363932471470700e-01,2.2619638784320748e+00,6.3751125407508857e-01,6.9448864235189300e-15,-3.1048535137627517e-13,1.7727808394806437e-12
4.5507377115133918e-01,-3.3713529696486135e+03,8.9971869343456667e-01,2.5413827858362152e+00,8.2613755329038996e-01,1.2884526819714279e-14,-5.7054302963019451e-13,3.2266087014517595e-12
4.5032172136696563e-01,-3.3806300204263157e+03,8.7314727048941443e-01,2.7943456686581691e+00,1.0291808500319146e+00,2.3763111139523906e-14,-1.0421423278297063e-12,5.8369871702559400e-12
4.4561929425606772e-01,-3.3893456994483281e+03,8.4419871261087231e-01,3.0188436293109979e+00,1.2423829726002864e+00,4.3568200613338464e-14,-1.8921528953478525e-12,1.0494960205709561e-11
4.4096597164020990e-01,-3.3975107192217406e+03,8.1316428989245138e-01,3.2133485937177735e+00,1.4613570034885621e+00,7.9408583206066936e-14,-3.4148778232033262e-12,1.8755163718600221e-11
4.3636124075196875e-01,-3.4051356297394041e+03,7.8034803149767040e-01,3.3768253894762146e+00,1.6816972348299093e+00,1.4387878788340816e-13,-6.1260852414623267e-12,3.3312503136111662e-11
4.3180459417842948e-01,-3.4122308207058791e+03,7.4606180730841520e-01,3.5087325809991556e+00,1.8990861717549390e+00,2.5915380669408920e-13,-1.0923931462865403e-11,5.8808256978039967e-11
4.2729552980527152e-01,-3.4188065237346027e+03,7.1062045571127064e-01,3.6090124528310921e+00,2.1093954097159324e+00,4.6403411879126749e-13,-1.9362529027046768e-11,1.0318396599286212e-10
4.2283355076143941e-01,-3.4248728145166656e+03,6.7433706230083146e-01,3.6780708339717068e+00,2.3087775364792900e+00,8.2598799329562263e-13,-3.4113907838788941e-11,1.7993977618873951e-10
4.1841816536439008e-01,-3.4304396149615159e+03,6.3751848602447203e-01,3.7167477228141217e+00,2.4937466281136431e+00,1.4616017492092494e-12,-5.9742886158306851e-11,3.1187553742642382e-10
4.1404888706591264e-01,-3.4355166953099651e+03,6.0046121859215940e-01,3.7262798959920405e+00,2.6612453999579886e+00,2.5710816750104897e-12,-1.0399807430448385e-10,5.3724537944624123e-10
4.0972523439851394e-01,-3.4401136762198366e+03,5.6344765028888022e-01,3.7082568588712608e+00,2.8086976149504048e+00,4.4960816662651946e-12,-1.7994830875123994e-10,9.1981251460874107e-10
4.0544673092236355e-01,-3.4442400308245869e+03,5.2674280116748584e-01,3.6645716167172897e+00,2.9340449184200863e+00,7.8159902399930653e-12,-3.0949424989858713e-10,1.5651613956638833e-09
4.0121290517279329e-01,-3.4479050867652491e+03,4.9059156150490429e-01,3.5973678121353347e+00,3.0357678361777496e+00,1.3507199826197630e-11,-5.2910112015235745e-10,2.6469760007670415e-09
3.9702329060834457e-01,-3.4511180281960246e+03,4.5521646991784448e-01,3.5089847868855668e+00,3.1128912184167561e+00,2.3204816613916713e-11,-8.9909371228281317e-10,4.4490752064997841e-09
3.9287742555935840e-01,-3.4538878977638537e+03,4.2081604218111368e-01,3.4019020874031183e+00,3.1649749147724053e+00,3.9629852456897439e-11,-1.5186241048796759e-09,7.4321777768295043e-09
3.8877485317710236e-01,-3.4562235985622888e+03,3.8756364906111462e-01,3.2786848479353012e+00,3.1920909082232325e+00,6.7281903461293223e-11,-2.5496084783046099e-09,1.2339190989951628e-08
3.8471512138342862e-01,-3.4581338960599955e+03,3.5560692780356307e-01,3.1419313593259965e+00,3.1947885034717083e+00,1.1355482250318770e-10,-4.2547433218049301e-09,2.0360062857653988e-08
3.8069778282095762e-01,-3.4596274200041858e+03,3.2506769966486276e-01,2.9942239724795772e+00,3.1740494493094333e+00,1.9052167685209234e-10,-7.0574636119339031e-09,3.3388035504147137e-08
3.7672239480378228e-01,-3.4607126662993192e+03,2.9604235534049611e-01,2.8380843015496451e+00,3.1312350689015429e+00,3.1777132650527530e-10,-1.1635848142736892e-08,5.4415089672345577e-08
3.7278851926868661e-01,-3.4613979988613564e+03,2.6860266152777290e-01,2.6759334914162842e+00,3.0680275758522724e+00,5.2688582863761550e-10,-1.9068661711510622e-08,8.8137733308542288e-08
3.6889572272687365e-01,-3.4616916514478821e+03,2.4279693528613236e-01,2.5100581055116620e+00,2.9863677702871225e+00,8.6846001502973537e-10,-3.1060880731133082e-08,1.4187820028569646e-07
3.6504357621619815e-01,-3.4616017294644080e+03,2.1865152836505997e-01,2.3425819816180002e+00,2.8883912445137416e+00,1.4230319042162713e-09,-5.0289493327919723e-08,2.2697490855143519e-07
3.6123165525389722e-01,-3.4611362117471340e+03,1.9617256121937127e-01,2.1754442022882792e+00,2.7763650915695210e+00,2.3179867303805257e-09,-8.0929937332209995e-08,3.6086555436056466e-07
3.5745953978981498e-01,-3.4603029523224777e+03,1.7534784591695385e-01,2.0103831394742544e+00,2.6526269138601086e+00,3.7535201625818250e-09,-1.2945178722485922e-07,5.7018437900023626e-07
3.5372681416011575e-01,-3.4591096821436590e+03,1.5614893839920915e-01,1.8489263650963963e+00,2.5195276863855582e+00,6.0422412283376489e-09,-2.0581271179832882e-07,8.9533239140874443e-07
3.5003306704148057e-01,-3.4575640108046246e+03,1.3853326336695285e-01,1.6923860747096631e+00,2.3793797537465666e+00,9.6691626529774484e-09,-3.2523701860707799e-07,1.3971693290703361e-06
3.4637789140578146e-01,-3.4556734282315942e+03,1.2244625918808857e-01,1.5418595528563541e+00,2.2344109462656898e+00,1.5381942059559194e-08,-5.1084559224948990e-07,2.1667364858976275e-06
3.4276088447522995e-01,-3.4534453063525229e+03,1.0782349539074190e-01,1.3982341176125983e+00,2.0867255015753265e+00,2.4325679224525385e-08,-7.9751605807292626e-07,3.3392725228281721e-06
3.3918164767799308e-01,-3.4508869007447329e+03,9.4592721241116257e-02,1.2621959184720160e+00,1.9382721861695975e+00,3.8242852560093052e-08,-1.2375064249000670e-06,5.1142577541263860e-06
3.3563978660427357e-01,-3.4480053522610151e+03,8.2675810336631850e-02,1.1342419252164857e+00,1.7908197373308106e+00,5.9767774098546245e-08,-1.9085862368432339e-06,7.7838500358161749e-06
3.3213491096284797e-01,-3.4448076886344456e+03,7.1990572812756864e-02,1.0146944340090349e+00,1.6459394982349773e+00,9.2857157242237125e-08,-2.9257040539257109e-06,1.1772897685054837e-05
3.2866663453805917e-01,-3.4413008260622037e+03,6.2452413428896958e-02,9.0371742806042421e-01,1.5049949045155262e+00,1.4341520072405581e-07,-4.4576008574907484e-06,1.7694778807978842e-05
3.2523457514725773e-01,-3.4374915707686432e+03,5.3975820255640974e-02,8.0133416076081587e-01,1.3691373035505876e+00,2.2019450936144199e-07,-6.7502825836502295e-06,2.6428674912941420e-05
3.2183835459868787e-01,-3.4333866205478853e+03,4.6475674756336523e-02,7.0744537565946097e-01,1.2393074505531636e+00,3.3608512023805927e-07,-1.0159923550621277e-05,3.9225596967693226e-05
3.1847759864981290e-01,-3.4289925662861806e+03,3.9868379599713427e-02,6.2184763647333996e-01,1.1162419285382488e+00,5.0994528873755017e-07,-1.5198623603022615e-05,5.7852602750474913e-05
3.1515193696607607e-01,-3.4243158934643075e+03,3.4072805452829147e-02,5.4425130776530717e-01,1.0004836810370101e+00,7.6918247678875681e-07,-2.2597527995449697e-05,8.4787230784679033e-05
3.1186100308009185e-01,-3.4193629836402447e+03,2.9011062216341449e-02,4.7429779956019225e-01,8.9239582419747776e-01,1.1533647629135205e-06,-3.3393187172268072e-05,1.2347727349314763e-04
3.0860443435126389e-01,-3.4141401159123798e+03,2.4609103641873700e-02,4.1157576374663635e-01,7.9217791469668852e-01,1.7192359158777236e-06,-4.9044732733987648e-05,1.7868464589990561e-04
3.0538187192582378e-01,-3.4086534683634804e+03,2.0797177009101067e-02,3.5563600379786386e-01,6.9988388693502557e-01,2.5476265768165883e-06,-7.1591524258511833e-05,2.5693626939972235e-04
3.0219296069728785e-01,-3.4029091194856906e+03,1.7510131559412365e-02,3.0600492972808674e-01,6.1544093206005834e-01,3.7529049532205269e-06,-1.0386342207195001e-04,3.6710952787160527e-04
2.9903734926732650e-01,-3.3969130495867785e+03,1.4687600726476265e-02,2.6219645534860736e-01,5.3866866707325611e-01,5.4957992371108881e-06,-1.4975879441361348e-04,5.2118484367489758e-04
2.9591468990704256e-01,-3.3906711421778732e+03,1.2274073931479548e-02,2.2372229334881136e-01,4.6929802930282860e-01,8.0006570114149838e-06,-2.1460878401684955e-04,7.3520305283772381e-04
2.9282463851865337e-01,-3.3841891853429274e+03,1.0218873894000080e-02,1.9010065452336677e-01,4.0698942489344686e-01,1.1578490533234105e-05,-3.0565021765773524e-04,1.0304702084055072e-03
2.8976685459757329e-01,-3.3774728730901279e+03,8.4760551277310459e-03,1.6086340005853608e-01,3.5134975517639400e-01,1.6657496719533523e-05,-4.3263377643184636e-04,1.4350567482940984e-03
2.8674100119489260e-01,-3.3705278066855008e+03,7.0042386262679467e-03,1.3556173003118002e-01,3.0194803796855246e-01,2.3823141326296296e-05,-6.0859852746115647e-04,1.9856410106233280e-03
2.8374674488024754e-01,-3.3633594959689117e+03,5.7663967803127372e-03,1.1377051735359968e-01,2.5832942882608567e-01,3.3870360338283638e-05,-8.5084844438755114e-04,2.7297480723711613e-03
2.8078375570507824e-01,-3.3559733606526956e+03,4.7296013830487489e-03,9.5091414779904487e-02,2.2002752759413280e-01,4.7870956609677154e-05,-1.1821708130498757e-03,3.7284328521655827e-03
2.7785170716627078e-01,-3.3483747316031427e+03,3.8647462484833533e-03,7.9154873948896309e-02,1.8657492650771587e-01,6.7259849995261623e-05,-1.6323400149200358e-03,5.0594502081454749e-03
2.7495027617017798e-01,-3.3405688521050361e+03,3.1462545541456107e-03,6.5621220595484669e-02,1.5751201654549071e-01,9.3944461618540153e-05,-2.2399525600335980e-03,6.8209430859424358e-03
2.7207914299701730e-01,-3.3325608791094819e+03,2.5517795819095879e-03,5.4180929926882927e-02,1.3239411825781669e-01,1.3044215605431897e-04,-3.0546397204987527e-03,9.1356612497054280e-03
2.6923799126563897e-01,-3.3243558844652180e+03,2.0619061168644058e-03,4.4554241676972098e-02,1.1079704194732160e-01,1.8005129711571075e-04,-4.1397018725319677e-03,1.2155696378140667e-02
2.6642650789866290e-01,-3.3159588561336222e+03,1.6598584126425568e-03,3.6490246459535317e-02,9.2321210365585785e-02,2.4706204934254409e-04,-5.5752027377449220e-03,1.6067683065720279e-02
2.6364438308797983e-01,-3.3073746993876357e+03,1.3312193718891523e-03,2.9765564631034986e-02,7.6594495826119130e-02,3.3701351993620411e-04,-7.4615510696835578e-03,2.1098368555824542e-02
2.6089131026061207e-01,-3.2986082379947807e+03,1.0636644435085890e-03,2.4182726766236267e-02,6.3273933878647784e-02,4.5700411144275363e-04,-9.9235808514033259e-03,2.7520396345678017e-02
2.5816698604493105e-01,-3.2896642153844959e+03,8.4671271714689635e-04,1.9568351773316943e-02,5.2046478645425567e-02,6.1606195524545185e-04,-1.3115117662332228e-02,3.5658080347307497e-02
2.5547111023722774e-01,-3.2805472957999777e+03,6.7149680650842856e-04,1.5771205253500415e-02,4.2628961855377068e-02,8.2558191667370183e-04,-1.7223987558766571e-02,4.5892868222730955e-02
2.5280338576863221e-01,-3.2712620654347293e+03,5.3055235734066801e-04,1.2660207459310811e-02,3.4767409793189520e-02,1.0998347889332140e-03,-2.2477384848757657e-02,5.8668107194505520e-02
2.5016351867237802e-01,-3.2618130335539981e+03,4.1762738943663453e-04,1.0122447532830349e-02,2.8235861018623042e-02,1.4565528019304217e-03,-2.9147466168747773e-02,7.4492636847845697e-02
2.4755121805140934e-01,-3.2522046336013163e+03,3.2751117744852110e-04,8.0612489155477401e-03,2.2834813919432109e-02,1.9175933388365320e-03,-3.7556980475783229e-02,9.3942646561693849e-02
2.4496619604632566e-01,-3.2424412242903118e+03,2.5588198277125968e-04,6.3943201249923413e-03,1.8389417926401998e-02,2.5096796608218997e-03,-4.8084678871805370e-02,1.1766115727192977e-01
2.4240816780366164e-01,-3.2325270906819837e+03,1.9917265666329146e-04,5.0520156175229095e-03,1.4747506385053465e-02,3.2652133904860184e-03,-6.1170176392114167e-02,1.4635442692500197e-01
2.3987685144449780e-01,-3.2224664452476359e+03,1.5445293064479134e-04,3.9757232574999298e-03,1.1777553339504773e-02,4.2231484312015566e-03,-7.7317862888803060e-02,1.8078454624582885e-01
2.3737196803339927e-01,-3.2122634289176317e+03,1.1932708131413608e-04,3.1163879884357941e-03,9.3666213852118003e-03,5.4299098848303072e-03,-9.7099385956498030e-02,2.2175749728374533e-01
2.3489324154767896e-01,-3.2019221121161731e+03,9.1845590574218095e-05,2.4331756036478111e-03,7.4183536936996385e-03,6.9403344204398976e-03,-1.2115416072621991e-01,2.7010600286128728e-01
2.3244039884698145e-01,-3.1914464957822606e+03,7.0429407039388089e-05,1.8922759605438126e-03,5.8510505810348825e-03,8.8186005691691591e-03,-1.5018730570052227e-01,3.2666661117166235e-01
2.3001316964318461e-01,-3.1808405123770217e+03,5.3805439218423388e-05,1.4658414687849643e-03,4.5958597478380804e-03,1.1139108798878417e-02,-1.8496436802682378e-01,3.9225064528053255e-01
2.2761128647061549e-01,-3.1701080268775804e+03,4.0951966179163281e-05,1.1310540890787139e-03,3.5950996329089479e-03,1.3987262288501256e-02,-2.2630219381688230e-01,4.6760890813701445e-01
2.2523448465657731e-01,-3.1592528377576336e+03,3.1052728258185981e-05,8.6931228100868238e-04,2.8007271894380822e-03,1.7460090522967431e-02,-2.7505532768787699e-01,5.5339037150659642e-01
2.2288250229218431e-01,-3.1482786779549137e+03,2.3458551696106098e-05,6.6552821004311081e-04,2.1729547477471948e-03,2.1666649726759576e-02,-3.3209739865861737e-01,6.5009548796161243e-01
2.2055508020350062e-01,-3.1371892158256851e+03,1.7655460790630830e-05,5.0752494565144471e-04,1.6790153641590652e-03,2.6728127414289780e-02,-3.9829707385335739e-01,7.5802523782955766e-01
2.1825196192298127e-01,-3.1259880560864676e+03,1.3238334354606997e-05,3.8552324282335710e-04,1.2920720361498368e-03,3.2777573709669411e-02,-4.7448834221865499e-01,8.7722753925531782e-01
2.1597289366121078e-01,-3.1146787407431220e+03,9.8892660907849835e-06,2.9170769762576834e-04,9.9026323748690396e-04,3.9959180380593609e-02,-5.6143512993267042e-01,1.0074431826957413e+00
2.1371762427893742e-01,-3.1032647500074827e+03,7.3598880359532131e-06,2.1986251533967298e-04,7.5587523577335227e-04,4.8427030551759190e-02,-6.5979054600427345e-01,1.1480539669059537e+00
2.1148590525939895e-01,-3.0917495032016714e+03,5.4570103883532572e-06,1.6506775144981269e-04,5.7463044293782728e-04,5.8343248574085668e-02,-7.7005140489768475e-01,1.2980361707965702e+00
2.0927749068093768e-01,-3.0801363596502747e+03,4.0310184088951468e-06,1.2344761807991583e-04,4.3508046900722028e-04,6.9875491173258572e-02,-8.9250906201292324e-01,1.4559228487007159e+00
2.0709213718990144e-01,-3.0684286195605218e+03,2.9665468432954570e-06,9.1963239990053519e-05,3.2809246546969771e-04,8.3193738243128784e-02,-1.0271980112923080e+00,1.6197786379184234e+00
2.0492960397382767e-01,-3.0566295248906276e+03,2.1750240698396649e-06,6.8243054462392025e-05,2.4641763596728954e-04,9.8466364682527521e-02,-1.1738441106262574e+00,1.7871907709030996e+00
2.0278965273490707e-01,-3.0447422602064375e+03,1.5887419110419396e-06,5.0444847453839857e-05,1.8433135432375223e-04,1.1585550336214327e-01,-1.3318146938773230e+00,1.9552797500141934e+00
2.0067204766372482e-01,-3.0327699535265442e+03,1.1561629961836455e-06,3.7144181827788620e-05,1.3733507471232214e-04,1.3551174312392833e-01,-1.5000731683138235e+00,2.1207326407352771e+00
1.9857655541327585e-01,-3.0207156771560039e+03,8.3822615194557684e-07,2.7244686905555235e-05,1.0191107357663938e-04,1.5756824369928452e-01,-1.6771409509944788e+00,2.2798611549959928e+00
1.9650294507325150e-01,-3.0085824485088160e+03,6.0545207968103247e-07,1.9906332426571607e-05,7.5321969888254609e-05,1.8213439017586464e-01,-1.8610697350377132e+00,2.4286856341463712e+00
1.9445098814459438e-01,-2.9963732309192865e+03,4.3568717114362001e-07,1.4488399341025052e-05,5.5447884814772408e-05,2.0928915130504708e-01,-2.0494270669634784e+00,2.5630447277874753e+00
1.9242045851431946e-01,-2.9840909344424472e+03,3.1235337094523017e-07,1.0504383334403009e-05,4.0654990785723072e-05,2.3907434630005261e-01,-2.2392980346788027e+00,2.6787290504894101e+00
1.9041113243059765e-01,-2.9717384166436459e+03,2.2309716432926533e-07,7.5865259257495852e-06,2.9690039992448408e-05,2.7148806131278092e-01,-2.4273054952540734e+00,2.7716354575490829e+00
1.8842278847809982e-01,-2.9593184833774599e+03,1.5875168046514472e-07,5.4580656073658019e-06,2.1596238371823038e-05,3.0647848681426265e-01,-2.6096507058368226e+00,2.8379369088847000e+00
1.8645520755359815e-01,-2.9468338895560623e+03,1.1254314316429502e-07,3.9116422679434186e-06,1.5646534450779079e-05,3.4393846795112409e-01,-2.7821754658114508e+00,2.8742612993101377e+00
1.8450817284182225e-01,-2.9342873399071818e+03,7.9487013001314949e-08,2.7925772594512589e-06,1.1291019497468833e-05,3.8370106909885537e-01,-2.9404459535305234e+00,2.8778712462652738e+00
1.8258146979156770e-01,-2.9216814897217914e+03,5.5930633983974331e-08,1.9859944547707849e-06,8.1156864771354982e-06,4.2553644914905220e-01,-3.0798573809924679e+00,2.8468357665705031e+00
1.8067488609205343e-01,-2.9090189455916457e+03,3.9208455522467232e-08,1.4069500485847311e-06,5.8102733234473562e-06,4.6915032399470841e-01,-3.1957574430078184e+00,2.7801841574353396e+00
1.7878821164952680e-01,-2.8963022661368136e+03,2.7383323439838793e-08,9.9290603774383346e-07,4.1433258285235882e-06,5.1418425641532095e-01,-3.2835853641011590e+00,2.6780323203049061e+00
1.7692123856411215e-01,-2.8835339627233207e+03,1.9053247332962700e-08,6.9801930056426471e-07,2.9429629698252628e-06,5.6021796121920631e-01,-3.3390222162092620e+00,2.5416722965217025e+00
1.7507376110690206e-01,-2.8707165001710441e+03,1.3207733037574401e-08,4.8882956988558395e-07,2.0821192344168576e-06,6.0677374618799873e-01,-3.3581471677986592e+00,2.3736169505292350e+00
1.7324557569728671e-01,-2.8578522974519610e+03,9.1214522110383444e-09,3.4101947967672838e-07,1.4672811152294279e-06,6.5332312924550684e-01,-3.3375935050931695e+00,2.1775935241914728e+00
1.7143648088052088e-01,-2.8449437283789061e+03,6.2759015200704981e-09,2.3699188824489244e-07,1.0299349186091199e-06,6.9929558250507196e-01,-3.2746977080408839e+00,1.9584821315511636e+00
1.6964627730552487e-01,-2.8319931222849314e+03,4.3019432908479591e-09,1.6406699308655963e-07,7.2010644268741453e-07,7.4408925849487018e-01,-3.1676346258066528e+00,1.7221980563190289e+00
1.6787476770291718e-01,-2.8190027646934118e+03,2.9378503531457921e-09,1.1314705185033172e-07,5.0150556330798461e-07,7.8708345768059185e-01,-3.0155319209797877e+00,1.4755198010083912e+00
1.6612175686327663e-01,-2.8059748979789961e+03,1.9988080374823269e-09,7.7732094645890079e-08,3.4789532654250493e-07,8.2765250460499751e-01,-2.8185574595784186e+00,1.2258680291570072e+00
1.6438705161563150e-01,-2.7929117220195390e+03,1.3548428761853032e-09,5.3197766407299971e-08,2.4039022522829991e-07,8.6518061788054368e-01,-2.5779742125630629e+00,9.8104363092626090e-01
1.6267046080617328e-01,-2.7798153948391223e+03,9.1492017663043506e-10,3.6267957353728576e-08,1.6545577410944692e-07,8.9907729202637487e-01,-2.2961584756507705e+00,7.4893591126638259e-01
1.6097179527719283e-01,-2.7666880332422747e+03,6.1553663520078334e-10,2.4631463441599200e-08,1.1343457943182283e-07,9.2879266128668370e-01,-1.9765787542548454e+00,5.3721414258813172e-01
1.5929086784623611e-01,-2.7535317134395182e+03,4.1257322051184414e-10,1.6664622673715348e-08,7.7465597392375302e-08,9.5383229075033804e-01,-1.6237344230082331e+00,3.5301726131666838e-01
1.5762749328547804e-01,-2.7403484716643352e+03,2.7550189611337403e-10,1.1231547868937885e-08,5.2695505244135676e-08,9.7377084076255604e-01,-1.2430551595998425e+00,2.0265718329268387e-01
1.5598148830131139e-01,-2.7271403047816862e+03,1.8328400964353904e-10,7.5409018481174697e-09,3.5705978503482540e-08,9.8826407781434167e-01,-8.4076406291865924e-01,9.1350985624987738e-02
1.5435267151414919e-01,-2.7139091708881742e+03,1.2147893902689781e-10,5.0436760217430153e-09,2.4099737612254899e-08,9.9705875830814306e-01,-4.2370918260878210e-01,2.2996035273750721e-02
1.5274086343843754e-01,-2.7006569899039669e+03,8.0214675554209231e-11,3.3605622672440999e-09,1.6202760126434198e-08,9.9999998875806484e-01,8.3019968983164493e-04,8.8024406413625642e-08
1.5114588646287752e-01,-2.6873856441565808e+03,5.2769514712152818e-11,2.2305821218327116e-09,1.0851062725512096e-08,9.9703576354322354e-01,4.2535488835630714e-01,2.3175551971013588e-02
1.4956756483085357e-01,-2.6740969789566470e+03,3.4585081010605726e-11,1.4749137037355520e-09,7.2387464419088813e-09,9.8821849446649834e-01,8.4236612035297009e-01,9.1703681696610431e-02
1.4800572462106620e-01,-2.6607928031657402e+03,2.2582442979492124e-11,9.7153338695078361e-10,4.8102038052943391e-09,9.7370346926119666e-01,1.2445858939950254e+00,2.0317066314906163e-01
1.4646019372836686e-01,-2.6474748897563882e+03,1.4690259763015253e-11,6.3751757258769363e-10,3.1840053242680095e-09,9.5374430239308516e-01,1.6251682345214475e+00,3.5367361395291236e-01
1.4493080184479304e-01,-2.6341449763643673e+03,9.5206030110305041e-12,4.1674507181522691e-10,2.0994011438559902e-09,9.2868556436969052e-01,1.9778928285179123e+00,5.3799071871272641e-01
1.4341738044080135e-01,-2.6208047658333626e+03,6.1471790829582727e-12,2.7138961437505251e-10,1.3788896845719486e-09,8.9895288885247226e-01,2.2973333825317099e+00,7.4980629286274947e-01
1.4191976274669682e-01,-2.6074559267521249e+03,3.9542461681388028e-12,1.7606010463672087e-10,9.0214666721556312e-10,8.6504095435680328e-01,2.5789943713638293e+00,9.8197874178596534e-01
1.4043778373425556e-01,-2.5941000939841811e+03,2.5341246154366882e-12,1.1378216586884849e-10,5.8794860674132491e-10,8.2749981439715392e-01,2.8194114556945902e+00,1.2268373285892196e+00
1.3897128009853990e-01,-2.5807388691902397e+03,1.6179632782501992e-12,7.3254357143237691e-11,3.8169564308666525e-10,7.8692010304918980e-01,3.0162126663901234e+00,1.4764925002072440e+00
1.3752009023990319e-01,-2.5673738213433439e+03,1.0291668325752648e-12,4.6982838705008407e-11,2.4683779904238357e-10,7.4391766999194786e-01,3.1681393632432360e+00,1.7231442978232070e+00
1.3608405424618245e-01,-2.5540064872369026e+03,6.5219780164613358e-13,3.0018712542107015e-11,1.5900974230662124e-10,6.9911819966176392e-01,3.2750278658787173e+00,1.9593740766625876e+00
1.3466301387507698e-01,-2.5406383719856594e+03,4.1176488508822911e-13,1.9106993939640678e-11,1.0203622065584388e-10,6.5314234423706174e-01,3.3377544164922113e+00,2.1784063007003716e+00
1.3325681253671126e-01,-2.5272709495197278e+03,2.5899758388735186e-13,1.2115480175400908e-11,6.5223558584776970e-11,6.0659185223543655e-01,3.3581476730942370e+00,2.3743294229959657e+00
1.3186529527637944e-01,-2.5139056630717396e+03,1.6230000968535212e-13,7.6530986902890008e-12,4.1531251860920757e-11,5.6003710719237698e-01,3.3388741717233206e+00,2.5422676329290264e+00
1.3048830875747044e-01,-2.5005439256572408e+03,1.0132527866057140e-13,4.8159598532314997e-12,2.6343098105058453e-11,5.1400640875957326e-01,3.2833030832768348e+00,2.6784983412830519e+00
1.2912570124457121e-01,-2.4871871205483903e+03,6.3022190748642141e-14,3.0191013869928029e-12,1.6644886563402509e-11,4.6897723673335151e-01,3.1953570969934031e+00,2.7805134666353384e+00
1.2777732258674632e-01,-2.4738366017410622e+03,3.9052209718948973e-14,1.8854814195265642e-12,1.0476539176400479e-11,4.2536964233707414e-01,3.0793563855558173e+00,2.8470256723352927e+00
1.2644302420099243e-01,-2.4604936944154397e+03,2.4108720271430302e-14,1.1730511508567808e-12,6.5686887247294469e-12,3.8354181573955476e-01,2.9398623675973994e+00,2.8779234948507977e+00
1.2512265905586506e-01,-2.4471596953901744e+03,1.4827882333026177e-14,7.2704648796830137e-13,4.1026471891166745e-12,3.4378778905376994e-01,2.7815274241902546e+00,2.8741816480208615e+00
1.2381608165527713e-01,-2.4338358735702182e+03,9.0857447555144690e-15,4.4890903377158134e-13,2.5525549403741748e-12,3.0633715398178685e-01,2.6089559050704292e+00,2.8377345732693655e+00
1.2252314802246562e-01,-2.4205234703883712e+03,5.5464916197087380e-15,2.7612506361114432e-13,1.5820209739656810e-12,2.7135660601425415e-01,2.4265807473116516e+00,2.7713224701014765e+00
1.2124371568412658e-01,-2.4072237002406750e+03,3.3732817615658312e-15,1.6920181203800376e-13,9.7673408043291736e-13,2.3895307480966449e-01,2.2385588986614278e+00,2.6783195691465576e+00
1.1997764365471535e-01,-2.3939377509156957e+03,2.0439172231516385e-15,1.0328951938982945e-13,6.0071454868574246e-13,2.0917816417983573e-01,2.0486875644310816e+00,2.5625543311078616e+00
1.1872479242091082e-01,-2.3806667840177915e+03,1.2338160525941071e-15,6.2814503379354124e-14,3.6803437548771622e-13,1.8203360509707536e-01,1.8603421502271911e+00,2.4281306367095943e+00
1.1748502392624195e-01,-2.3674119353844449e+03,7.4201717445529479e-16,3.8055408161219261e-14,2.2461448070617386e-13,1.5747742051227281e-01,1.6764357133029786e+00,2.2792579717130597e+00
1.1625820155587477e-01,-2.3541743154977307e+03,4.4458409984846186e-16,2.2968147216923062e-14,1.3655793475187313e-13,1.3543050997163161e-01,1.4993988111292036e+00,2.1200972228693851e+00
1.1504419012155824e-01,-2.3409550098900031e+03,2.6538130388927068e-16,1.3809851379632044e-14,8.2704021210099274e-14,1.1578338290814502e-01,1.3311778812552373e+00,1.9546271092719185e+00
1.1384285584672751e-01,-2.3277550795438756e+03,1.5782040322047783e-16,8.2719107420641877e-15,4.9896199863019924e-14,9.8402799551360137e-02,1.1732497214897930e+00,1.7865346014283185e+00
1.1265406635176231e-01,-2.3145755612865610e+03,9.3504476204134590e-17,4.9360186364763693e-15,2.9987490267332785e-14,8.3138114957130652e-02,1.0266492697631533e+00,1.6191310398150185e+00
1.1147769063939970e-01,-2.3014174681786617e+03,5.5192247924513952e-17,2.9342841984071436e-15,1.7953337998421793e-14,6.9827162026785003e-02,8.9200770212511771e-01,1.4552941511579696e+00
1.1031359908029896e-01,-2.2882817898974718e+03,3.2456388402233737e-17,1.7377300115103972e-15,1.0707383349077726e-14,5.8301551047870749e-02,7.6959785821309079e-01,1.2974348482365514e+00
1.0916166339875719e-01,-2.2751694931148591e+03,1.9015105047003962e-17,1.0252209550321472e-15,6.3614359670825480e-15,4.8391304024766393e-02,6.5938414143485691e-01,1.1474866379646100e+00
1.0802175665857416e-01,-2.2620815218698153e+03,1.1098740418121619e-17,6.0257067176096417e-16,3.7649674514825731e-15,3.9928780037423943e-02,5.6107429625605543e-01,1.0069146793473702e+00
1.0689375324906472e-01,-2.2490187979357247e+03,6.4539424303577208e-18,3.5282076649504346e-16,2.2197401185044996e-15,3.2751881663905885e-02,4.7417080522362776e-01,8.7674103197116204e-01
1.0577752887121723e-01,-2.2359822211824385e+03,3.7389779866357825e-18,2.0580513511364328e-16,1.3037023416187803e-15,2.6706561169167555e-02,3.9802004164902072e-01,7.5758240223604878e-01
1.0467296052399673e-01,-2.2229726699332100e+03,2.1580284077594091e-18,1.1959539896241276e-16,7.6276494701626220e-16,2.1648668173006962e-02,3.3185773031450544e-01,6.4969669889324588e-01
1.0357992649079077e-01,-2.2099910013165622e+03,1.2409029997572698e-18,6.9235559781025281e-17,4.4456935391527530e-16,1.7445197729725626e-02,2.7484968194900833e-01,5.5303491146164785e-01
1.0249830632599710e-01,-2.1970380516131640e+03,7.1087777980869202e-19,3.9930126177135936e-17,2.5812220464465755e-16,1.3975009378227463e-02,2.2612715608384265e-01,4.6729517875614585e-01
1.0142798084175132e-01,-2.1841146365977647e+03,4.0572192055214430e-19,2.2941888164598758e-17,1.4929621047379314e-16,1.1129094213270744e-02,1.8481655505385639e-01,3.9197637239452965e-01
1.0036883209479312e-01,-2.1712215518762673e+03,2.3069513377789302e-19,1.3131516770024113e-17,8.6022149775817069e-17,8.8104690332147066e-03,1.5006344851207384e-01,3.2642903603450346e-01
9.9320743373469578e-02,-2.1583595732179915e+03,1.3068472334872081e-19,7.4878672713658765e-18,4.9375373349595746e-17,6.9337748987846190e-03,1.2105116707088141e-01,2.6990205425061320e-01
9.8283599184874379e-02,-2.1455294568832046e+03,7.3754350004333142e-20,4.2536244182459862e-18,2.8232515882221979e-17,5.4246528019829317e-03,9.7014384209172938e-02,2.2158394109352147e-01
9.7257285242121058e-02,-2.1327319399459648e+03,4.1469317234148998e-20,2.4072330844266900e-18,1.6081566183805402e-17,4.2189623976690649e-03,7.7248229692161594e-02,1.8063811092759888e-01
9.6241688451749505e-02,-2.1199677406123637e+03,2.3229644212306488e-20,1.3571735432412183e-18,9.1253000176603480e-18,3.2619016435768804e-03,6.1113550521030985e-02,1.4623190459776755e-01
9.5236696901263532e-02,-2.1072375585341965e+03,1.2963869759074064e-20,7.6227398349382883e-19,5.1582985679402615e-18,2.5070763939488354e-03,4.8038963839297559e-02,1.1755948148797696e-01
9.4242199846798949e-02,-2.0945420751181568e+03,7.2078076496711216e-21,4.2652600022564000e-19,2.9047367011224096e-18,1.9155600586714405e-03,3.7520338308386865e-02,9.3858948582780669e-02
9.3258087700920228e-02,-2.0818819538305825e+03,3.9925296080591172e-21,2.3776003010141733e-19,1.6294779532877130e-18,1.4549748202253015e-03,2.9118304595762749e-02,7.4424282868743488e-02
9.2284252020544646e-02,-2.0692578404978358e+03,2.2032791801320260e-21,1.3203568672353422e-19,9.1060926928375134e-19,1.0986179262982517e-03,2.2454339903844277e-02,5.8612719278851977e-02
9.1320585494992557e-02,-2.0566703636023635e+03,1.2113435850084971e-21,7.3047132242083218e-20,5.0694160766192090e-19,8.2464946977174375e-04,1.7205903311067802e-02,4.5848331828443604e-02
9.0366981934162316e-02,-2.0441201345744939e+03,6.6350100473550695e-22,4.0260075523713672e-20,2.8114251520424518e-19,6.1535195704865027e-04,1.3101024500396513e-02,3.5622541258756489e-02
8.9423336256829009e-02,-2.0316077480800411e+03,3.6206975986492117e-22,2.2105776789591815e-20,1.5532388589843297e-19,4.5646689644604602e-04,9.9126734547741683e-03,2.7492249641233417e-02
8.8489544479064902e-02,-2.0191337823037472e+03,1.9684271707877396e-22,1.2091967202645004e-20,8.5485707477056138e-20,3.3660959235881388e-04,7.4531669335028234e-03,2.1076241963536472e-02
8.7565503702781169e-02,-2.0066987992286467e+03,1.0661612066339316e-22,6.5894372405198230e-21,4.6869758525245769e-20,2.4676024204297670e-04,5.5688018741300773e-03,1.6050416733358563e-02
8.6651112104389139e-02,-1.9943033449113843e+03,5.7531120069417358e-23,3.5773388060966606e-21,2.5599781483304607e-20,1.7982720176949553e-04,4.1348481040458058e-03,1.2142320737268666e-02
8.5746268923580005e-02,-1.9819479497535572e+03,3.0928525125161777e-23,1.9347835973427998e-21,1.3929147058056004e-20,1.3027680061919689e-04,3.0509838077683654e-03,9.1253743110684248e-03
8.4850874452221586e-02,-1.9696331287691185e+03,1.6565022099855548e-23,1.0424746079006144e-21,7.5501901864938361e-21,9.3823208750949794e-05,2.2372172670445845e-03,6.8130881829746833e-03
8.3964830023371184e-02,-1.9573593818479103e+03,8.8389617954853385e-24,5.5957657503594932e-22,4.0769626711569382e-21,6.7171489416354894e-05,1.6303071094541492e-03,5.0534949186755510e-03
8.3088038000403014e-02,-1.9451271940153686e+03,4.6987995868705322e-24,2.9923659278590583e-22,2.1931150766201401e-21,4.7806965020561849e-05,1.1806699227016083e-03,3.7239495821205981e-03
8.2220401766249396e-02,-1.9329370356884517e+03,2.4885651505075898e-24,1.5941573695219591e-22,1.1752555412936373e-21,3.3824303977629757e-05,8.4974763647724936e-04,2.7263965819333052e-03
8.1361825712753938e-02,-1.9207893629278460e+03,1.3130689634196640e-24,8.4607560439895188e-23,6.2740756333547953e-22,2.3790198332897276e-05,6.0779644961581861e-04,1.9831530021367097e-03
8.0512215230136269e-02,-1.9086846176864972e+03,6.9024375386256951e-25,4.4735141952273786e-23,3.3366764370736863e-22,1.6634078851931722e-05,4.3205317937790940e-04,1.4332225132216480e-03
7.9671476696566587e-02,-1.8966232280545175e+03,3.6148798126421220e-25,2.3564069912147292e-23,1.7677696885874038e-22,1.1561946309202060e-05,3.0523267893068653e-04,1.0291272433031590e-03
7.8839517467849077e-02,-1.8846056085005143e+03,1.8860867652394223e-25,1.2365559997105773e-23,9.3300688924037442e-23,7.9890408145604285e-06,2.1431045737008771e-04,7.3422649639672856e-04
7.8016245867213105e-02,-1.8726321601093921e+03,9.8040586530258722e-26,6.4645670426224123e-24,4.9055976716361618e-23,5.4876932933214466e-06,1.4954702176670650e-04,5.2047955292831090e-04
7.7201571175211078e-02,-1.8607032708166735e+03,5.0772267780336984e-26,3.3668783814268440e-24,2.5694918022245865e-23,3.7472832402266214e-06,1.0371406048906440e-04,3.6660359641432880e-04
7.6395403619721552e-02,-1.8488193156393829e+03,2.6195316558746099e-26,1.7469396581103014e-24,1.3407601620166726e-23,2.5437516594356682e-06,7.1486857830120007e-05,2.5657578915395474e-04
7.5597654366057143e-02,-1.8369806569035482e+03,1.3464715088294002e-26,9.0300680968834456e-25,6.9695353113381237e-24,1.7165813835909130e-06,4.8971856963544488e-05,1.7842952242370485e-04
7.4808235507175261e-02,-1.8251876444683512e+03,6.8952039006358904e-27,4.6501498378579650e-25,3.6091565546250159e-24,1.1515573877130196e-06,3.3342770569750722e-05,1.2329791963513472e-04
7.4027060053991400e-02,-1.8134406159469893e+03,3.5178189701422100e-27,2.3856450117486733e-25,1.8619031830012902e-24,7.6795942120960473e-07,2.2562871416515480e-05,8.4661981889886477e-05
7.3254041925793476e-02,-1.8017398969242765e+03,1.7880361200183766e-27,1.2192921963581367e-25,9.5688168261746512e-25,5.0912269700998587e-07,1.5174952080640277e-05,5.7765716531989931e-05
7.2489095940756268e-02,-1.7900858011710432e+03,9.0543132763830456e-28,6.2083045788389214e-26,4.8990227225892754e-25,3.3553524350855885e-07,1.0143857784477747e-05,3.9165721063992208e-05
