djean032/levmar/conformance/nist_nls/corpus/gauss1/jacobian_start2.csv
j1,j2,j3,j4,j5,j6,j7,j8
9.8955493256789928e-01,-9.3018163661382530e+01,2.1326285479854796e-03,-4.1888236888111600e-02,1.0388282748251677e-01,1.6290194262205044e-35,-1.0351603943918196e-33,9.2646855298067850e-33
9.7921896456945956e-01,-1.8409316533905840e+02,2.5964763581439957e-03,-5.0176386325861085e-02,1.2243038263510105e-01,3.9768030979016801e-35,-2.5129418775640719e-33,2.2365182710320240e-32
9.6899095645373967e-01,-2.7325544971995458e+02,3.1511115984444414e-03,-5.9896329263231941e-02,1.4375119023175664e-01,9.6598513005833355e-35,-6.0697675647215393e-33,5.3717442947785631e-32
9.5886978057248451e-01,-3.6053503749525419e+02,3.8120049296441576e-03,-7.1250946540964880e-02,1.6815223383667710e-01,2.3347227834872729e-34,-1.4587347951228480e-32,1.2836866197081064e-31
9.4885432105580125e-01,-4.4596153089622658e+02,4.5967764172778740e-03,-8.4463008601630571e-02,1.9595417995578293e-01,5.6147280923879347e-34,-3.4881498273960046e-32,3.0521310989715042e-31
9.3894347368913322e-01,-5.2956411916067111e+02,5.5253979888039281e-03,-9.9775426722625821e-02,2.2748797292758688e-01,1.3435401977587408e-33,-8.2990478015557420e-32,7.2201715873534960e-31
9.2913614579151926e-01,-6.1137158393081972e+02,6.6203966096800518e-03,-1.1745113217301187e-01,2.6309053606754657e-01,3.1989034167257888e-33,-1.9646065333821431e-31,1.6993846513755537e-30
9.1943125609512466e-01,-6.9141230458353380e+02,7.9070540515934415e-03,-1.3777250979496414e-01,3.0309952154892111e-01,7.5784452676184299e-33,-4.6273986804078133e-31,3.9795628651507192e-30
9.0982773462602995e-01,-7.6971426349362139e+02,9.4135983697016309e-03,-1.6104031003015973e-01,3.4784706966514500e-01,1.7864367185175071e-32,-1.0844564099760527e-30,9.2721023052952506e-30
9.0032452258626561e-01,-8.4630505123108969e+02,1.1171381433530834e-02,-1.8757196282155611e-01,3.9765256118169900e-01,4.1900931944943974e-32,-2.5287212428773686e-30,2.1494130564457636e-29
8.9092057223707810e-01,-9.2121187169313873e+02,1.3215036089234848e-02,-2.1769921851961918e-01,4.5281437452080786e-01,9.7788606158146343e-32,-5.8668274264579902e-30,4.9574691753570018e-29
8.8161484678341606e-01,-9.9446154717169327e+02,1.5582605794334500e-02,-2.5176504529790367e-01,5.1360069240772355e-01,2.2708129220263912e-31,-1.3543128266965397e-29,1.1376227744250933e-28
8.7240632025962206e-01,-1.0660805233572582e+03,1.8315638888734179e-02,-2.9011971999754937e-01,5.8023943999509875e-01,5.2469023967954085e-31,-3.1106260859401582e-29,2.5973727817600319e-28
8.6329397741631941e-01,-1.1360948742798764e+03,2.1459239080080395e-02,-3.3311606008790395e-01,6.5290747777229174e-01,1.2062939277811485e-30,-7.1086901164143080e-29,5.9002127966238759e-28
8.5427681360847951e-01,-1.2045303071879562e+03,2.5062063262558762e-02,-3.8110375879577357e-01,7.3171921688788522e-01,2.7595090675220421e-30,-1.6163824363010365e-28,1.3335155099483549e-27
8.4535383468465874e-01,-1.2714121673657266e+03,2.9176257493216957e-02,-4.3442280357100327e-01,8.1671487071348614e-01,6.2811481476060214e-30,-3.6568844515362259e-28,2.9986452502597054e-27
8.3652405687739251e-01,-1.3367654428900732e+03,3.3857321857023122e-02,-4.9339597995802653e-01,9.0784860312276883e-01,1.4225737013624792e-29,-8.2317227229339862e-28,6.7088540191911985e-27
8.2778650669473364e-01,-1.4006147693274893e+03,3.9163895098987066e-02,-5.5832048853115968e-01,1.0049768793560874e+00,3.2058193233950011e-29,-1.8436666928844649e-27,1.4933700212364167e-26
8.1914022081292404e-01,-1.4629844343718823e+03,4.5157450324860911e-02,-6.2945873156830123e-01,1.1078473675602101e+00,7.1883933949531957e-29,-4.1085262448854990e-27,3.3073636271328263e-26
8.1058424597018708e-01,-1.5238983824239517e+03,5.1901893803805367e-02,-7.0702835815295817e-01,1.2160887760230881e+00,1.6038108905486379e-28,-9.1096458583162625e-27,7.2877166866530100e-26
8.0211763886162990e-01,-1.5833802191128575e+03,5.9463059974303172e-02,-7.9119169079408835e-01,1.3292020405340683e+00,3.5604345564510651e-28,-2.0096872853888034e-26,1.5977013918840990e-25
7.9373946603524270e-01,-1.6414532157608819e+03,6.7908097178709423e-02,-8.8204469263482099e-01,1.4465532959211063e+00,7.8646859357664751e-28,-4.4113023413714156e-26,3.4849288496834185e-25
7.8544880378898496e-01,-1.6981403137917855e+03,7.7304740443299741e-02,-9.7960567089749417e-01,1.5673690734359906e+00,1.7285752440372642e-27,-9.6342141226416902e-26,7.5628580862737278e-25
7.7724473806894612e-01,-1.7534641290835425e+03,8.7720469779792393e-02,-1.0838039482232911e+00,1.6907341592283343e+00,3.7802778447760720e-27,-2.0935178704369887e-25,1.6329439389408512e-24
7.6912636436857051e-01,-1.8074469562661407e+03,9.9221554998863246e-02,-1.1944687676983152e+00,1.8155925269014390e+00,8.2259805951439030e-27,-4.5263458224779325e-25,3.5079180124203979e-24
7.6109278762893429e-01,-1.8601107729651153e+03,1.1187199087002818e-01,-1.3113187281821224e+00,1.9407517177095410e+00,1.7810666347570930e-26,-9.7370912922170274e-25,7.4975602950071114e-24
7.5314312214006451e-01,-1.9114772439914836e+03,1.2573232959442790e-01,-1.4339520725585313e+00,2.0648909844842853e+00,3.8370829053445330e-26,-2.0841115800378831e-24,1.5943453587289805e-23
7.4527649144328856e-01,-1.9615677254787354e+03,1.4085842092104500e-01,-1.5618381711725471e+00,2.1865734396415659e+00,8.2252806516066852e-26,-4.4383614396069667e-24,3.3731546941012944e-23
7.3749202823460402e-01,-2.0104032689675305e+03,1.5730007376080374e-01,-1.6943105544923691e+00,2.3042623541096221e+00,1.7544007135665607e-25,-9.4044650250735486e-24,7.1003710939305293e-23
7.2978887426905681e-01,-2.0580046254387403e+03,1.7509965675011338e-01,-1.8305618515283852e+00,2.4163416440174683e+00,3.7233631217505106e-25,-1.9826908623321472e-23,1.4870181467491105e-22
7.2216618026611956e-01,-2.1043922492954725e+03,1.9429065878548815e-01,-1.9696409825037648e+00,2.5211404576048189e+00,7.8626785029845563e-25,-4.1589637941536814e-23,3.0984280266444925e-22
7.1462310581605726e-01,-2.1495863022947001e+03,2.1489623398220536e-01,-2.1104529346924426e+00,2.6169616390186285e+00,1.6520917823142719e-24,-8.6800902242791854e-23,6.4232667659665976e-22
7.0715881928727131e-01,-2.1936066574291158e+03,2.3692775868212176e-01,-2.2517614185148855e+00,2.7021137022178623e+00,3.4540319570138653e-24,-1.8024865767676854e-22,1.3248276339242488e-21
6.9977249773461103e-01,-2.2364729027598169e+03,2.6038343092302901e-01,-2.3921946565760521e+00,2.7749458016282205e+00,7.1853356359021996e-24,-3.7241594600881097e-22,2.7186364058643202e-21
6.9246332680864342e-01,-2.2782043452004368e+03,2.8524694505730519e-01,-2.5302545014363198e+00,2.8338850416086783e+00,1.4872921816512705e-23,-7.6558365050499143e-22,5.5504814661611878e-21
6.8523050066587032e-01,-2.3188200142533051e+03,3.1148627584740707e-01,-2.6643290090883811e+00,2.8774753298154518e+00,3.0631908645774301e-23,-1.5659031699719825e-21,1.1274502823798272e-20
6.7807322187988306e-01,-2.3583386656982334e+03,3.3905260725444225e-01,-2.7927085154333899e+00,2.9044168560507257e+00,6.2774078897471814e-23,-3.1867261152301563e-21,2.2785091723895616e-20
6.7099070135344585e-01,-2.3967787852345086e+03,3.6787944117144233e-01,-2.9136051740778233e+00,2.9136051740778233e+00,1.2800153190516462e-22,-6.4525572233393485e-21,4.5813156285709374e-20
6.6398215823149653e-01,-2.4341585920766661e+03,3.9788192045120468e-01,-3.0251758175745991e+00,2.9041687848716156e+00,2.5970392492468468e-22,-1.2999479962105092e-20,9.1646333732840896e-20
6.5704681981505675e-01,-2.4704960425046133e+03,4.2895639867907298e-01,-3.1255479033351969e+00,2.8755040710683812e+00,5.2428856633634639e-22,-2.6057141746916415e-20,1.8239999222841489e-19
6.5018392147604109e-01,-2.5058088333686624e+03,4.6098028621083359e-01,-3.2128482027750258e+00,2.8273064184420229e+00,1.0531513477440116e-21,-5.1967753254428251e-20,3.6117588511827638e-19
6.4339270657295622e-01,-2.5401144055500313e+03,4.9381219803334614e-01,-3.2852337910762457e+00,2.7595963845040461e+00,2.1049399783397356e-21,-1.0312100953886366e-19,7.1153496581815921e-19
6.3667242636747978e-01,-2.5734299473773531e+03,5.2729242404304855e-01,-3.3409247987367556e+00,2.6727398389894046e+00,4.1861730061459700e-21,-2.0359452415390923e-19,1.3946224904542783e-18
6.3002233994191226e-01,-2.6057723979997490e+03,5.6124373644323489e-01,-3.3782382983991193e+00,2.5674611067833304e+00,8.2836770076828591e-21,-3.9993592593092839e-19,2.7195642963303128e-18
6.2344171411748905e-01,-2.6371584507169787e+03,5.9547254223926982e-01,-3.3956226248652119e+00,2.4448482899029527e+00,1.6310139226701858e-20,-7.8166342243968648e-19,5.2762281014678840e-18
6.1692982337354740e-01,-2.6676045562672189e+03,6.2977038140100317e-01,-3.3916913660732426e+00,2.3063501289298052e+00,3.1953667177483426e-20,-1.5200359476328864e-18,1.0184240849140339e-17
6.1048594976753667e-01,-2.6971269260729769e+03,6.6391576333547353e-01,-3.3652562211948482e+00,2.1537639815647029e+00,6.2289131285356644e-20,-2.9409813336381138e-18,1.9557525868693456e-17
6.0410938285586468e-01,-2.7257415354456616e+03,6.9767632607103103e-01,-3.3153579014895396e+00,1.9892147408937240e+00,1.2081820198999709e-19,-5.6615409452512631e-18,3.7366170238658339e-17
5.9779941961557037e-01,-2.7534641267493171e+03,7.3081129422000390e-01,-3.2412942521245611e+00,1.8151247811897542e+00,2.3317446562461088e-19,-1.0843778523872528e-17,7.1026749331365057e-17
5.9155536436681511e-01,-2.7803102125240312e+03,7.6307420360133615e-01,-3.1426448001117433e+00,1.6341752960581064e+00,4.4777324417183015e-19,-2.0664735218529965e-17,1.3432077892044478e-16
5.8537652869618273e-01,-2.8062950785695002e+03,7.9421585261654670e-01,-3.0192909853070637e+00,1.4492596729473908e+00,8.5558628969028639e-19,-3.9181574136366664e-17,2.5272115317956495e-16
5.7926223138078203e-01,-2.8314337869892624e+03,8.2398743333170321e-01,-2.8714314076743195e+00,1.2634298193767006e+00,1.6266646214532430e-18,-7.3915640398835351e-17,4.7306009855254626e-16
5.7321179831314062e-01,-2.8557411791960667e+03,8.5214378896621135e-01,-2.6995915234449575e+00,1.0798366093779830e+00,3.0772356381525148e-18,-1.3873716874610614e-16,8.8098102153777388e-16
5.6722456242688413e-01,-2.8792318788788639e+03,8.7844673934993134e-01,-2.5046273432345241e+00,9.0166584356442869e-01,5.7923128853948710e-18,-2.5909015536371261e-16,1.6322679787913893e-15
5.6129986362319151e-01,-2.9019202949319001e+03,9.0266841208094206e-01,-2.2877228235779397e+00,7.3207130354494065e-01,1.0848552640429378e-17,-4.8140452341905369e-16,3.0087782713690853e-15
5.5543704869801824e-01,-2.9238206243463678e+03,9.2459451476021071e-01,-2.0503807959322433e+00,5.7410662286102809e-01,2.0217158486953467e-17,-8.8995931659569176e-16,5.5177477628932884e-15
5.4963547127008039e-01,-2.9449468550650909e+03,9.4402748291783567e-01,-1.7944074395302221e+00,4.3065778548725331e-01,3.7488404577454511e-17,-1.6369311858745515e-15,1.0067126793128491e-14
5.4389449170958992e-01,-2.9653127688006844e+03,9.6078943915232318e-01,-1.5218904716172799e+00,3.0437809432345597e-01,6.9167539755414425e-17,-2.9956461468069983e-15,1.8273441495522690e-14
5.3821347706773504e-01,-2.9849319438176585e+03,9.7472490160179392e-01,-1.2351713953097934e+00,1.9762742324956692e-01,1.2698026413778767e-16,-5.4544372460386703e-15,3.2999345338533955e-14
5.3259180100689718e-01,-3.0038177576789003e+03,9.8570318412244295e-01,-9.3681230618996980e-01,1.1241747674279637e-01,2.3195228302435696e-16,-9.8811672568376074e-15,5.9287003541025644e-14
5.2702884373159609e-01,-3.0219833899569721e+03,9.9362043637914899e-01,-6.2955790848982873e-01,5.0364632679186304e-02,4.2158932381742378e-16,-1.7810040984667066e-14,1.0596974385876903e-13
5.2152399192015753e-01,-3.0394418249106780e+03,9.9840127931760636e-01,-3.1629352528781768e-01,1.2651741011512709e-02,7.6244599053897228e-16,-3.1938862543677550e-14,1.8843928900769754e-13
5.1607663865709308e-01,-3.0562058541273054e+03,1.0000000000000000e+00,0.0000000000000000e+00,0.0000000000000000e+00,1.3720094196451332e-15,-5.6986411244960611e-14,3.3337050578301955e-13
5.1068618336618787e-01,-3.0722880791309863e+03,9.9840127931760636e-01,3.1629352528781768e-01,1.2651741011512709e-02,2.4565953687921429e-15,-1.0116259728686045e-13,5.8674306426379053e-13
5.0535203174428589e-01,-3.0877009139575866e+03,9.9362043637914899e-01,6.2955790848982873e-01,5.0364632679186304e-02,4.3766185028708502e-15,-1.7867545037970246e-13,1.0273838396832893e-12
5.0007359569576759e-01,-3.1024565876965421e+03,9.8570318412244295e-01,9.3681230618996980e-01,1.1241747674279637e-01,7.7584020756960558e-15,-3.1398253200341940e-13,1.7897004324194904e-12
4.9485029326771224e-01,-3.1165671470000516e+03,9.7472490160179392e-01,1.2351713953097934e+00,1.9762742324956692e-01,1.3684672281264976e-14,-5.4896062856294445e-13,3.1016275513806361e-12
4.8968154858573615e-01,-3.1300444585600253e+03,9.6078943915232318e-01,1.5218904716172799e+00,3.0437809432345597e-01,2.4017347816209608e-14,-9.5492974917249416e-13,5.3476065953659671e-12
4.8456679179050260e-01,-3.1429002115531998e+03,9.4402748291783567e-01,1.7944074395302221e+00,4.3065778548725331e-01,4.1941525361922238e-14,-1.6527058068865457e-12,9.1725172282203294e-12
4.7950545897489405e-01,-3.1551459200548029e+03,9.2459451476021071e-01,2.0503807959322433e+00,5.7410662286102809e-01,7.2877240958196922e-14,-2.8458562594175898e-12,1.5652209426796743e-11
4.7449699212184088e-01,-3.1667929254211658e+03,9.0266841208094206e-01,2.2877228235779397e+00,7.3207130354494065e-01,1.2599930548477415e-13,-4.8755431257333354e-12,2.6571710035246680e-11
4.6954083904279925e-01,-3.1778523986416653e+03,8.7844673934993134e-01,2.5046273432345241e+00,9.0166584356442869e-01,2.1675688826189617e-13,-8.3104590959610984e-12,4.4876479118189932e-11
4.6463645331687203e-01,-3.1883353426603758e+03,8.5214378896621135e-01,2.6995915234449575e+00,1.0798366093779830e+00,3.7102757830947319e-13,-1.4093482562085339e-11,7.5400131707156561e-11
4.5978329423056519e-01,-3.1982525946678115e+03,8.2398743333170321e-01,2.8714314076743195e+00,1.2634298193767006e+00,6.3192858851753677e-13,-2.3779472785914908e-11,1.2603120576534901e-10
4.5498082671817347e-01,-3.2076148283631228e+03,7.9421585261654670e-01,3.0192909853070637e+00,1.4492596729473908e+00,1.0709232382508077e-12,-3.9918663705798856e-11,2.0957298445544399e-10
4.5022852130278923e-01,-3.2164325561871265e+03,7.6307420360133615e-01,3.1426448001117433e+00,1.6341752960581064e+00,1.8058314375132171e-12,-6.6671296672987968e-11,3.4669074269953744e-10
4.4552585403792655e-01,-3.2247161315265125e+03,7.3081129422000390e-01,3.2412942521245611e+00,1.8151247811897542e+00,3.0298742467236514e-12,-1.1078735183145031e-10,5.7055486193196914e-10
4.4087230644975611e-01,-3.2324757508896118e+03,6.9767632607103103e-01,3.3153579014895396e+00,1.9892147408937240e+00,5.0582527428437852e-12,-1.8315933181837346e-10,9.3411259227370459e-10
4.3626736547994266e-01,-3.2397214560540542e+03,6.6391576333547353e-01,3.3652562211948482e+00,2.1537639815647029e+00,8.4024313964842976e-12,-3.0126917772094448e-10,1.5214093474907696e-09
4.3171052342907967e-01,-3.2464631361866791e+03,6.2977038140100317e-01,3.3916913660732426e+00,2.3063501289298052e+00,1.3887943864964021e-11,-4.9302200720622279e-10,2.4651100360311140e-09
4.2720127790071544e-01,-3.2527105299360474e+03,5.9547254223926982e-01,3.3956226248652119e+00,2.4448482899029527e+00,2.2840176579937026e-11,-8.0271800590188681e-10,3.9734541292143395e-09
4.2273913174596278e-01,-3.2584732274978810e+03,5.6124373644323489e-01,3.3782382983991193e+00,2.5674611067833304e+00,3.7375713279442560e-11,-1.3003010649918068e-09,6.3714752184598528e-09
4.1832359300868849e-01,-3.2637606726537874e+03,5.2729242404304855e-01,3.3409247987367556e+00,2.6727398389894046e+00,6.0856651055183322e-11,-2.0955987790852375e-09,1.0163654078563402e-08
4.1395417487127412e-01,-3.2685821647835805e+03,4.9381219803334614e-01,3.2852337910762457e+00,2.7595963845040461e+00,9.8595055759915160e-11,-3.3601195002979087e-09,1.6128573601429965e-08
4.0963039560094400e-01,-3.2729468608515426e+03,4.6098028621083359e-01,3.2128482027750258e+00,2.8273064184420229e+00,1.5893910094516368e-10,-5.3602211793756451e-09,2.5461050602034310e-08
4.0535177849665399e-01,-3.2768637773669507e+03,4.2895639867907298e-01,3.1255479033351969e+00,2.8755040710683812e+00,2.5493818803919690e-10,-8.5072873348680007e-09,3.9984250473879600e-08
4.0111785183653448e-01,-3.2803417923191791e+03,3.9788192045120468e-01,3.0251758175745991e+00,2.9041687848716156e+00,4.0688114506557984e-10,-1.3433181004340119e-08,6.2464291670181553e-08
3.9692814882588245e-01,-3.2833896470876998e+03,3.6787944117144233e-01,2.9136051740778233e+00,2.9136051740778233e+00,6.4614317731061084e-10,-2.1103036170964550e-08,9.7073966386436927e-08
3.9278220754569715e-01,-3.2860159483273023e+03,3.3905260725444225e-01,2.7927085154333899e+00,2.9044168560507257e+00,1.0209829471593342e-09,-3.2982854107982293e-08,1.5007198619131944e-07
3.8867957090175298e-01,-3.2882291698288304e+03,3.1148627584740707e-01,2.6643290090883811e+00,2.8774753298154518e+00,1.6052280551856116e-09,-5.1287036363180291e-08,2.3079166363431130e-07
3.8461978657420420e-01,-3.2900376543557427e+03,2.8524694505730519e-01,2.5302545014363198e+00,2.8338850416086783e+00,2.5112128332712955e-09,-7.9341769467206584e-08,3.5307087412906931e-07
3.8060240696771641e-01,-3.2914496154568114e+03,2.6038343092302901e-01,2.3921946565760521e+00,2.7749458016282205e+00,3.9089384342648640e-09,-1.2211523668643435e-07,5.3730704142031114e-07
3.7662698916211879e-01,-3.2924731392552426e+03,2.3692775868212176e-01,2.2517614185148855e+00,2.7021137022178623e+00,6.0542822824848904e-09,-1.8698650829454585e-07,8.1339131108127445e-07
3.7269309486357133e-01,-3.2931161862145163e+03,2.1489623398220536e-01,2.1104529346924426e+00,2.6169616390186285e+00,9.3302875745050053e-09,-2.8485367964963781e-07,1.2248708224934426e-06
3.6880029035624301e-01,-3.2933865928812502e+03,1.9429065878548815e-01,1.9696409825037648e+00,2.5211404576048189e+00,1.4307241918567688e-08,-4.3172102489277994e-07,1.8348143557943148e-06
3.6494814645449375e-01,-3.2932920736053516e+03,1.7509965675011338e-01,1.8305618515283852e+00,2.4163416440174683e+00,2.1829577951254781e-08,-6.5095801450641754e-07,2.7340236609269537e-06
3.6113623845555637e-01,-3.2928402222377631e+03,1.5730007376080374e-01,1.6943105544923691e+00,2.3042623541096221e+00,3.3140822708988337e-08,-9.7649434112034136e-07,4.0524515156494169e-06
3.5736414609271278e-01,-3.2920385138060701e+03,1.4085842092104500e-01,1.5618381711725471e+00,2.1865734396415659e+00,5.0062180207670489e-08,-1.4573100658452878e-06,5.9749712699656796e-06
3.5363145348895930e-01,-3.2908943061682553e+03,1.2573232959442790e-01,1.4339520725585313e+00,2.0648909844842853e+00,7.5246232576448304e-08,-2.1637054177357711e-06,8.7630069418298732e-06
3.4993774911115533e-01,-3.2894148416448602e+03,1.1187199087002818e-01,1.3113187281821224e+00,1.9407517177095410e+00,1.1253517471925912e-07,-3.1959989620269592e-06,1.2783995848107837e-05
3.4628262572465179e-01,-3.2876072486298440e+03,9.9221554998863246e-02,1.1944687676983152e+00,1.8155925269014390e+00,1.6746357031374905e-07,-4.6965158294490922e-06,1.8551237526323913e-05
3.4266568034839279e-01,-3.2854785431803903e+03,8.7720469779792393e-02,1.0838039482232911e+00,1.6907341592283343e+00,2.4795960180450277e-07,-6.8660013739666812e-06,2.6777405358470055e-05
3.3908651421048719e-01,-3.2830356305859368e+03,7.7304740443299741e-02,9.7960567089749417e-01,1.5673690734359906e+00,3.6531713412075119e-07,-9.9859438611907333e-06,3.8445883865584328e-05
3.3554473270424268e-01,-3.2802853069166763e+03,6.7908097178709423e-02,8.8204469263482099e-01,1.4465532959211063e+00,5.3553478027931087e-07,-1.4448728371935807e-05,5.4905167813356070e-05
3.3203994534466064e-01,-3.2772342605518006e+03,5.9463059974303172e-02,7.9119169079408835e-01,1.3292020405340683e+00,7.8114894083044910e-07,-2.0798090549610707e-05,7.7992839561040150e-05
3.2857176572538460e-01,-3.2738890736877320e+03,5.1901893803805367e-02,7.0702835815295817e-01,1.2160887760230881e+00,1.1337271387479661e-06,-2.9783011934909071e-05,1.1019714415916356e-04
3.2513981147609849e-01,-3.2702562238265987e+03,4.5157450324860911e-02,6.2945873156830123e-01,1.1078473675602101e+00,1.6372378071961955e-06,-4.2429017773489410e-05,1.5486591487323635e-04
3.2174370422037013e-01,-3.2663420852451977e+03,3.9163895098987066e-02,5.5832048853115968e-01,1.0049768793560874e+00,2.3525752000097709e-06,-6.0131822112249741e-05,2.1647455960409906e-04
3.1838306953393447e-01,-3.2621529304446926e+03,3.3857321857023122e-02,4.9339597995802653e-01,9.0784860312276883e-01,3.3635957248256407e-06,-8.4779430244230280e-05,3.0096697736701751e-04
3.1505753690341332e-01,-3.2576949315812935e+03,2.9176257493216957e-02,4.3442280357100327e-01,8.1671487071348614e-01,4.7851173921290088e-06,-1.1891016719440586e-04,4.1618558518042052e-04
3.1176673968546559e-01,-3.2529741618781482e+03,2.5062063262558762e-02,3.8110375879577357e-01,7.3171921688788522e-01,6.7734499977037491e-06,-1.6591565769375334e-04,5.7240901904344896e-04
3.0851031506636467e-01,-3.2479965970186872e+03,2.1459239080080395e-02,3.3311606008790395e-01,6.5290747777229174e-01,9.5401628730792307e-06,-2.3029953175613267e-04,7.8301840797085113e-04
3.0528790402199785e-01,-3.2427681165216613e+03,1.8315638888734179e-02,2.9011971999754937e-01,5.8023943999509875e-01,1.3369962120843802e-05,-3.1800454904426983e-04,1.0653152392983039e-03
3.0209915127828341e-01,-3.2372945050980852e+03,1.5582605794334500e-02,2.5176504529790367e-01,5.1360069240772355e-01,1.8643742331516821e-05,-4.3682288282743910e-04,1.4415155133305491e-03
2.9894370527200131e-01,-3.2315814539903340e+03,1.3215036089234848e-02,2.1769921851961918e-01,4.5281437452080786e-01,2.5868100222654120e-05,-5.9690641263774387e-04,1.9399458410726675e-03
2.9582121811203321e-01,-3.2256345622936101e+03,1.1171381433530834e-02,1.8757196282155611e-01,3.9765256118169900e-01,3.5712849641635212e-05,-8.1139594385795199e-04,2.5964670203454461e-03
2.9273134554100677e-01,-3.2194593382599924e+03,9.4135983697016309e-03,1.6104031003015973e-01,3.4784706966514500e-01,4.9058357456207724e-05,-1.0971901645080858e-03,3.4561490182004706e-03
2.8967374689734138e-01,-3.2130612005853104e+03,7.9070540515934415e-03,1.3777250979496414e-01,3.0309952154892111e-01,6.7054824302811120e-05,-1.4758766829048727e-03,4.5752177170051058e-03
2.8664808507768941e-01,-3.2064454796790337e+03,6.6203966096800518e-03,1.1745113217301187e-01,2.6309053606754657e-01,9.1195956362266043e-05,-1.9748484350248711e-03,6.0232877268258569e-03
2.8365402649977040e-01,-3.1996174189174099e+03,5.5253979888039281e-03,9.9775426722625821e-02,2.2748797292758688e-01,1.2340980408667956e-04,-2.6286288270462748e-03,7.8858864811388249e-03
2.8069124106559334e-01,-3.1925821758800589e+03,4.5967764172778740e-03,8.4463008601630571e-02,1.9595417995578293e-01,1.6616986660727734e-04,-3.4804278560894237e-03,1.0267262175463801e-02
2.7775940212506317e-01,-3.1853448235702244e+03,3.8120049296441576e-03,7.1250946540964880e-02,1.6815223383667710e-01,2.2262985691888897e-04,-4.5839487539599232e-03,1.3293451386483777e-02
2.7485818643996690e-01,-3.1779103516188975e+03,3.1511115984444414e-03,5.9896329263231941e-02,1.4375119023175664e-01,2.9678576779321067e-04,-6.0054600112956179e-03,1.7115561032192510e-02
2.7198727414833651e-01,-3.1702836674730102e+03,2.5964763581439957e-03,5.0176386325861085e-02,1.2243038263510105e-01,3.9366904065507829e-04,-7.8261405282229572e-03,2.1913193479024280e-02
2.6914634872918386e-01,-3.1624695975679106e+03,2.1326285479854796e-03,4.1888236888111600e-02,1.0388282748251677e-01,5.1957468215483844e-04,-1.0144695669073221e-02,2.7897913089951355e-02
2.6633509696760382e-01,-3.1544728884842998e+03,1.7460485771277560e-03,3.4848335921746611e-02,8.7817806522801467e-02,6.8232805275637658e-04,-1.3080228771339740e-02,3.5316617682617298e-02
2.6355320892024209e-01,-3.1462982080898500e+03,1.4249764381924648e-03,2.8891682279639862e-02,7.3962706635878048e-02,8.9159371999521957e-04,-1.6775335841710055e-02,4.4454639980531646e-02
2.6080037788112365e-01,-3.1379501466656798e+03,1.1592291739045914e-03,2.3870847149043344e-02,6.2064202587512697e-02,1.1592291739045914e-03,-2.1399370550278754e-02,5.5638363430724758e-02
2.5807630034783796e-01,-3.1294332180178831e+03,9.4002884218068693e-04,1.9654875055387547e-02,5.1888870146223127e-02,1.4996852893298456e-03,-2.7151802163316856e-02,6.9237095516457986e-02
2.5538067598807768e-01,-3.1207518605743094e+03,7.5984203117923979e-04,1.6128103016998071e-02,4.3223316085554825e-02,1.9304541362277093e-03,-3.4265560918041837e-02,8.5663902295104594e-02
2.5271320760652671e-01,-3.1119104384667698e+03,6.1223154836836317e-04,1.3188936907570626e-02,3.5873908388592106e-02,2.4725630358741922e-03,-4.3010234009031575e-02,1.0537507332212737e-01
2.5007360111209409e-01,-3.1029132425988637e+03,4.9172054539898191e-04,1.0748617745985426e-02,2.9666184978919777e-02,3.1511115984444414e-03,-5.3694941637493283e-02,1.2886785992998387e-01
2.4746156548548998e-01,-3.0937644916995955e+03,3.9366904065507829e-04,8.7300046455670178e-03,2.4444013007587646e-02,3.9958458300846326e-03,-6.6670687674962092e-02,1.5667611603616091e-01
2.4487681274714082e-01,-3.0844683333629860e+03,3.1416255969013819e-04,7.0663956225983397e-03,2.0068563568179286e-02,5.0417602596909790e-03,-8.2331945040753696e-02,1.8936347359373348e-01
2.4231905792543904e-01,-3.0750288450738212e+03,2.4991242536772247e-04,5.7004024576676020e-03,1.6417159078082697e-02,6.3297154274857470e-03,-1.0111720395408481e-01,2.2751370889669081e-01
2.3978801902532465e-01,-3.0654500352197501e+03,1.9816708886150622e-04,4.5828913638467379e-03,1.3382042782432475e-02,7.9070540515934415e-03,-1.2350818428588956e-01,2.7171800542895697e-01
2.3728341699719530e-01,-3.0557358440898811e+03,1.5663379391802596e-04,3.6719973575790659e-03,1.0869112178434035e-02,9.8281948353796892e-03,-1.5002739416207095e-01,3.2255889744845251e-01
2.3480497570614031e-01,-3.0458901448600523e+03,1.2340980408667956e-04,2.9322169450995061e-03,8.7966508352985192e-03,1.2155178329914935e-02,-1.8123370889903168e-01,3.8059078868796647e-01
2.3235242190149691e-01,-3.0359167445649587e+03,9.6922390272060130e-05,2.3335810061023373e-03,7.0940862585511062e-03,1.4958134700577493e-02,-2.1771565056690542e-01,4.4631708366215611e-01
2.2992548518672379e-01,-3.0258193850572852e+03,7.5876768559468674e-05,1.8509075415322550e-03,5.7007952279193447e-03,1.8315638888734179e-02,-2.6008207222002538e-01,5.2016414444005066e-01
2.2752389798959000e-01,-3.0156017439540260e+03,5.9211190809187440e-05,1.4631322093713454e-03,4.5649724932385980e-03,2.2314914776966403e-02,-3.0894999508709986e-01,6.0245249041984472e-01
2.2514739553267432e-01,-3.0052674355701370e+03,4.6058418491265959e-05,1.1527132512646114e-03,3.6425738739961720e-03,2.7051846866350416e-02,-3.6492941422706709e-01,6.9336588703142743e-01
2.2279571580417368e-01,-2.9948200118397026e+03,3.5712849641635212e-05,9.0510646131760275e-04,2.8963406762163284e-03,3.2630755992896034e-02,-4.2860497996668945e-01,7.9291921293837553e-01
2.2046859952901593e-01,-2.9842629632247595e+03,2.7602616196642733e-05,7.0830521369880974e-04,2.2949088923841436e-03,3.9163895098987066e-02,-5.0051457936505472e-01,9.0092624285709844e-01
2.1816579014027451e-01,-2.9735997196119415e+03,2.1266021366713319e-05,5.5244019665593184e-04,1.8120038450314567e-03,4.6770622383958980e-02,-5.8112498312069027e-01,1.0169687204612081e+00
2.1588703375088181e-01,-2.9628336511971020e+03,1.6331741703409983e-05,4.2943334904614350e-04,1.4257187188331964e-03,5.5576212611483058e-02,-6.7080488622060042e-01,1.1403683065750208e+00
2.1363207912563764e-01,-2.9519680693580608e+03,1.2502274127541389e-05,3.3270051726282942e-04,1.1178737380031069e-03,6.5710273227502849e-02,-7.6979585086019597e-01,1.2701631539193234e+00
2.1140067765351048e-01,-2.9410062275156379e+03,9.5401628730792307e-06,2.5689750584627748e-04,8.7345151987734356e-04,7.7304740443299741e-02,-8.7818185143588512e-01,1.4050909622974161e+00
2.0919258332022778e-01,-2.9299513219831101e+03,7.2565938927221231e-06,1.9770444928843568e-04,6.8010330555221877e-04,9.0491441663695923e-02,-9.9585831550897363e-01,1.5435803890389093e+00
2.0700755268115259e-01,-2.9188064928042513e+03,5.5019939228346804e-06,1.5164375570360031e-04,5.2772026984852912e-04,1.0539922456186433e-01,-1.1225017415838552e+00,1.6837526123757827e+00
2.0484534483444380e-01,-2.9075748245800955e+03,4.1583175524666616e-06,1.1592724005468658e-04,4.0806388499249678e-04,1.2215066953999000e-01,-1.2575411429141972e+00,1.8234346572255860e+00
2.0270572139449611e-01,-2.8962593472845606e+03,3.1327479477393311e-06,8.8328454936099994e-05,3.1444929957251595e-04,1.4085842092104500e-01,-1.4001327039551874e+00,1.9601857855372622e+00
2.0058844646565799e-01,-2.8848630370690930e+03,2.3525752000097709e-06,6.7076624102678587e-05,2.4147584676964290e-04,1.6162119246533926e-01,-1.5491391297802766e+00,2.0913378252033734e+00
1.9849328661622387e-01,-2.8733888170564569e+03,1.7610505915275171e-06,5.0768975293028486e-05,1.8479907006662368e-04,1.8451952399298926e-01,-1.7031152064552910e+00,2.2140497683918783e+00
1.9642001085269806e-01,-2.8618395581238105e+03,1.3140455149913044e-06,3.8298644961730559e-05,1.4093901345916846e-04,2.0961138715109781e-01,-1.8603010609659933e+00,2.3253763262074916e+00
1.9436839059432767e-01,-2.8502180796752209e+03,9.7737053389683520e-07,2.8795681617882120e-05,1.0711993561852148e-04,2.3692775868212176e-01,-2.0186245039716777e+00,2.4223494047660132e+00
1.9233819964790103e-01,-2.8385271504037232e+03,7.2463337474713437e-07,2.1579002193269862e-05,8.1137048246694691e-05,2.6646829781352410e-01,-2.1757136516474245e+00,2.5020706993945381e+00
1.9032921418280985e-01,-2.8267694890430917e+03,5.3553478027931087e-07,1.6117454747286138e-05,6.1246328039687322e-05,2.9819727942988739e-01,-2.3289207523474205e+00,2.5618128275821626e+00
1.8834121270637161e-01,-2.8149477651094298e+03,3.9451842226268610e-07,1.1998409872590620e-05,4.6073893910747979e-05,3.3203994534466064e-01,-2.4753577925444450e+00,2.5991256821716675e+00
1.8637397603940994e-01,-2.8030645996327257e+03,2.8970577440751776e-07,8.9025425652332577e-06,3.4541865153105040e-05,3.6787944117144233e-01,-2.6119440323172403e+00,2.6119440323172403e+00
1.8442728729208957e-01,-2.7911225658784833e+03,2.1205927548738141e-07,6.5836770904914382e-06,2.5808014194726440e-05,4.0555450506332058e-01,-2.7354651366520972e+00,2.5986918798194925e+00
1.8250093184000429e-01,-2.7791241900595855e+03,1.5472755133122442e-07,4.8527511379114579e-06,1.9216894506129375e-05,4.4485806622294111e-01,-2.8426430431645939e+00,2.5583787388481345e+00
1.8059469730051422e-01,-2.7670719520384791e+03,1.1253517471925912e-07,3.5651143351061286e-06,1.4260457340424516e-05,4.8553689515407944e-01,-2.9302151622548696e+00,2.4906828879166394e+00
1.7870837350933050e-01,-2.7549682860198391e+03,8.1586665607686507e-08,2.6105122221160239e-06,1.0546469377348736e-05,5.2729242404304855e-01,-2.9950209685645159e+00,2.3960167748516130e+00
1.7684175249734449e-01,-2.7428155812338132e+03,5.8960388492571766e-08,1.9052224095935669e-06,7.7733074311417519e-06,5.6978282473092301e-01,-3.0340935416921648e+00,2.2755701562691240e+00
1.7499462846769887e-01,-2.7306161826099733e+03,4.2472883497506719e-08,1.3859071776770434e-06,5.7099375720294188e-06,6.1262639418441611e-01,-3.0447531790965479e+00,2.1313272253675835e+00
1.7316679777309835e-01,-2.7183723914420980e+03,3.0498144233117118e-08,1.0048284576773565e-06,4.1800863839378030e-06,6.5540625432684052e-01,-3.0246998637183693e+00,1.9660549114169399e+00
1.7135805889335737e-01,-2.7060864660438997e+03,2.1829577951254781e-08,7.2613908097053905e-07,3.0497841400762644e-06,6.9767632607103103e-01,-2.9721011490625919e+00,1.7832606894375553e+00
1.6956821241318232e-01,-2.6937606223958142e+03,1.5574980878162085e-08,5.2302031787338533e-07,2.2176061477831537e-06,7.3896848825894423e-01,-2.8856719466511773e+00,1.5871195706581476e+00
1.6779706100018585e-01,-2.6813970347829700e+03,1.1076944065850681e-08,3.7548181916658005e-07,1.6070621860329626e-06,7.7880078307140488e-01,-2.7647427799034872e+00,1.3823713899517434e+00
1.6604440938313059e-01,-2.6689978364244412e+03,7.8527660826679034e-09,2.6867767985883269e-07,1.1606875769901572e-06,8.1668648259811083e-01,-2.6093133119009644e+00,1.1741909903554340e+00
1.6431006433040046e-01,-2.6565651200939146e+03,5.5492669444098031e-09,1.9162284671080378e-07,8.3547561165910453e-07,8.5214378896621135e-01,-2.4200883606640402e+00,9.6803534426561610e-01
1.6259383462869662e-01,-2.6441009387318645e+03,3.9089384342648640e-09,1.3621868655726198e-07,5.9936222085195272e-07,8.8470590494348356e-01,-2.1984941737845567e+00,7.6947296082459482e-01
1.6089553106195600e-01,-2.6316073060493522e+03,2.7446836898744247e-09,9.6516253017696166e-08,4.2853216339857098e-07,9.1393118527122819e-01,-1.9466734246277162e+00,5.8400202738831486e-01
1.5921496639049024e-01,-2.6190861971235645e+03,1.9210383304027501e-09,6.8161513624018217e-08,3.0536358103560164e-07,9.3941306281347581e-01,-1.6674581864939197e+00,4.1686454662347988e-01
1.5755195533034191e-01,-2.6065395489851767e+03,1.3402629645970189e-09,4.7979269711829918e-08,2.1686629909747121e-07,9.6078943915232318e-01,-1.3643210035962989e+00,2.7286420071925976e-01
1.5590631453285717e-01,-2.5939692611976775e+03,9.3208230039199454e-10,3.3662338695116962e-08,1.5350026444973333e-07,9.7775123719333634e-01,-1.0413050676109032e+00,1.5619576014163550e-01
1.5427786256447112e-01,-2.5813771964287307e+03,6.4614317731061084e-10,2.3540288235780177e-08,1.0828532588458881e-07,9.9004983374916811e-01,-7.0293538196190941e-01,7.0293538196190941e-02
1.5266641988670487e-01,-2.5687651810136963e+03,4.4649183609539241e-10,1.6408039186302359e-08,7.6133301824442927e-08,9.9750312239746008e-01,-3.5411360845109835e-01,1.7705680422554916e-02
1.5107180883637084e-01,-2.5561350055113944e+03,3.0754490709848989e-10,1.1399336508549788e-08,5.3348894860013009e-08,1.0000000000000000e+00,0.0000000000000000e+00,0.0000000000000000e+00
1.4949385360598549e-01,-2.5434884252522370e+03,2.1116105072910061e-10,7.8937068627755294e-09,3.7258296392300501e-08,9.9750312239746008e-01,3.5411360845109835e-01,1.7705680422554916e-02
1.4793238022438640e-01,-2.5308271608788027e+03,1.4452046385923381e-10,5.4483058711220273e-09,2.5933935946540851e-08,9.9004983374916811e-01,7.0293538196190941e-01,7.0293538196190941e-02
1.4638721653755149e-01,-2.5181528988789605e+03,9.8595055759915160e-11,3.7481896397689347e-09,1.7991310270890886e-08,9.7775123719333634e-01,1.0413050676109032e+00,1.5619576014163550e-01
1.4485819218961923e-01,-2.5054672921116544e+03,6.7048827051027446e-11,2.5701692775816251e-09,1.2439619303495065e-08,9.6078943915232318e-01,1.3643210035962989e+00,2.7286420071925976e-01
1.4334513860410644e-01,-2.4927719603254109e+03,4.5450377023178790e-11,1.7566388917950509e-09,8.5723977919598475e-09,9.3941306281347581e-01,1.6674581864939197e+00,4.1686454662347988e-01
1.4184788896532272e-01,-2.4800684906697024e+03,3.0711006735623437e-11,1.1966973728629971e-09,5.8877510744859453e-09,9.1393118527122819e-01,1.9466734246277162e+00,5.8400202738831486e-01
1.4036627819997879e-01,-2.4673584381992273e+03,2.0685254758342638e-11,8.1258299972292554e-10,4.0304116786257109e-09,8.8470590494348356e-01,2.1984941737845567e+00,7.6947296082459482e-01
1.3890014295898698e-01,-2.4546433263712179e+03,1.3887943864964021e-11,5.4996257705257520e-10,2.7498128852628763e-09,8.5214378896621135e-01,2.4200883606640402e+00,9.6803534426561610e-01
1.3744932159945192e-01,-2.4419246475358627e+03,9.2944840930669515e-12,3.7100606264613488e-10,1.8698705557365199e-09,8.1668648259811083e-01,2.6093133119009644e+00,1.1741909903554340e+00
1.3601365416684916e-01,-2.4292038634199262e+03,6.2004453240327726e-12,2.4946623698900500e-10,1.2672884839041452e-09,7.7880078307140488e-01,2.7647427799034872e+00,1.3823713899517434e+00
1.3459298237738998e-01,-2.4164824056036596e+03,4.1231651797749123e-12,1.6719599730594460e-10,8.5604350620643638e-10,7.3896848825894423e-01,2.8856719466511773e+00,1.5871195706581476e+00
1.3318714960057060e-01,-2.4037616759910979e+03,2.7330579647641813e-12,1.1169242645761075e-10,5.7633292052127143e-10,6.9767632607103103e-01,2.9721011490625919e+00,1.7832606894375553e+00
1.3179600084190335e-01,-2.3910430472738108e+03,1.8058314375132171e-12,7.4371361922544341e-11,3.8673108199723056e-10,6.5540625432684052e-01,3.0246998637183693e+00,1.9660549114169399e+00
1.3041938272582848e-01,-2.3783278633882082e+03,1.1893668609685343e-12,4.9359676223682949e-11,2.5864470341209862e-10,6.1262639418441611e-01,3.0447531790965479e+00,2.1313272253675835e+00
1.2905714347880418e-01,-2.3656174399664806e+03,7.8084478782555441e-13,3.2653054999373906e-11,1.7240813039669421e-10,5.6978282473092301e-01,3.0340935416921648e+00,2.2755701562691240e+00
1.2770913291257377e-01,-2.3529130647812590e+03,5.1100347721709863e-13,2.1530824910456119e-11,1.1454398852362656e-10,5.2729242404304855e-01,2.9950209685645159e+00,2.3960167748516130e+00
1.2637520240760683e-01,-2.3402159981840632e+03,3.3334446838486542e-13,1.4150872696299600e-11,7.5848677652165862e-11,4.8553689515407944e-01,2.9302151622548696e+00,2.4906828879166394e+00
1.2505520489671398e-01,-2.3275274735376406e+03,2.1675688826189617e-13,9.2702585971847745e-12,5.0059396424797783e-11,4.4485806622294111e-01,2.8426430431645939e+00,2.5583787388481345e+00
1.2374899484883264e-01,-2.3148486976422632e+03,1.4049563138015151e-13,6.0532261788875516e-12,3.2929550413148283e-11,4.0555450506332058e-01,2.7354651366520972e+00,2.5986918798194925e+00
1.2245642825298191e-01,-2.3021808511560598e+03,9.0774317157641975e-14,3.9397506035491141e-12,2.1589833307449143e-11,3.6787944117144233e-01,2.6119440323172403e+00,2.6119440323172403e+00
1.2117736260238531e-01,-2.2895250890094680e+03,5.8461966348473660e-14,2.5558636296091106e-12,1.4108367235442291e-11,3.3203994534466064e-01,2.4753577925444450e+00,2.5991256821716675e+00
1.1991165687875927e-01,-2.2768825408138810e+03,3.7531342913619564e-14,1.6527001914698204e-12,9.1890130645722017e-12,2.9819727942988739e-01,2.3289207523474205e+00,2.5618128275821626e+00
1.1865917153676570e-01,-2.2642543112645631e+03,2.4017347816209608e-14,1.0652174103445284e-12,5.9652174979293586e-12,2.6646829781352410e-01,2.1757136516474245e+00,2.5020706993945381e+00
1.1741976848862692e-01,-2.2516414805379100e+03,1.5320263975039259e-14,6.8433780744823366e-13,3.8596652340080380e-12,2.3692775868212176e-01,2.0186245039716777e+00,2.4223494047660132e+00
1.1619331108890156e-01,-2.2390451046831331e+03,9.7413176896005042e-15,4.3821902105729250e-13,2.4890840396054219e-12,2.0961138715109781e-01,1.8603010609659933e+00,2.3253763262074916e+00
1.1497966411941893e-01,-2.2264662160084281e+03,6.1741819432416489e-15,2.7970526006551049e-13,1.5999140875747202e-12,1.8451952399298926e-01,1.7031152064552910e+00,2.2140497683918783e+00
1.1377869377437130e-01,-2.2139058234617169e+03,3.9007794608046582e-15,1.7795043837833986e-13,1.0249945250592376e-12,1.6162119246533926e-01,1.5491391297802766e+00,2.0913378252033734e+00
1.1259026764556165e-01,-2.2013649130060217e+03,2.4565953687921429e-15,1.1284616486083590e-13,6.5450775619284822e-13,1.4085842092104500e-01,1.4001327039551874e+00,1.9601857855372622e+00
1.1141425470780550e-01,-2.1888444479895470e+03,1.5421482238081433e-15,7.1328673366153288e-14,4.1655945245833522e-13,1.2215066953999000e-01,1.2575411429141972e+00,1.8234346572255860e+00
1.1025052530448522e-01,-2.1763453695105381e+03,9.6500344752061301e-16,4.4939824549655940e-14,2.6424616835197691e-13,1.0539922456186433e-01,1.1225017415838552e+00,1.6837526123757827e+00
1.0909895113325534e-01,-2.1638685967769866e+03,6.0192429036872329e-16,2.8222063047944107e-14,1.6707461324382912e-13,9.0491441663695923e-02,9.9585831550897363e-01,1.5435803890389093e+00
1.0795940523189702e-01,-2.1514150274612439e+03,3.7425286324541488e-16,1.7665932754345968e-14,1.0528895921590197e-13,7.7304740443299741e-02,8.7818185143588512e-01,1.4050909622974161e+00
1.0683176196432037e-01,-2.1389855380496224e+03,2.3195228302435696e-16,1.1022372489317443e-14,6.6134234935904666e-14,6.5710273227502849e-02,7.6979585086019597e-01,1.2701631539193234e+00
1.0571589700671287e-01,-2.1265809841870359e+03,1.4329875889248572e-16,6.8549540693880600e-15,4.1403922579103888e-14,5.5576212611483058e-02,6.7080488622060042e-01,1.1403683065750208e+00
1.0461168733383273e-01,-2.1142022010167598e+03,8.8246291643425142e-17,4.2493766292808368e-15,2.5836209906027488e-14,4.6770622383958980e-02,5.8112498312069027e-01,1.0169687204612081e+00
1.0351901120544502e-01,-2.1018500035153556e+03,5.4170239660690883e-17,2.6256531844495516e-15,1.6068997488831255e-14,3.9163895098987066e-02,5.0051457936505472e-01,9.0092624285709844e-01
1.0243774815289976e-01,-2.0895251868228493e+03,3.3146319137570861e-17,1.6171161010284968e-15,9.9614351823355407e-15,3.2630755992896034e-02,4.2860497996668945e-01,7.9291921293837553e-01
1.0136777896585017e-01,-2.0772285265682017e+03,2.0217158486953467e-17,9.9274335034336297e-16,6.1550087721288508e-15,2.7051846866350416e-02,3.6492941422706709e-01,6.9336588703142743e-01
1.0030898567910958e-01,-2.0649607791901499e+03,1.2291791401915346e-17,6.0747016451577791e-16,3.7906138265784535e-15,2.2314914776966403e-02,3.0894999508709986e-01,6.0245249041984472e-01
9.9261251559645658e-02,-2.0527226822534722e+03,7.4493864544507702e-18,3.7051460371689066e-16,2.3268317113420730e-15,1.8315638888734179e-02,2.6008207222002538e-01,5.2016414444005066e-01
9.8224461093710441e-02,-2.0405149547607407e+03,4.5002442536531029e-18,2.2525702597005385e-16,1.4236244041307404e-15,1.4958134700577493e-02,2.1771565056690542e-01,4.4631708366215611e-01
9.7198499974104874e-02,-2.0283382974596204e+03,2.7099540360830936e-18,1.3650363674234871e-16,8.6816312968133788e-16,1.2155178329914935e-02,1.8123370889903168e-01,3.8059078868796647e-01
9.6183255087576275e-02,-2.0161933931457738e+03,1.6266646214532430e-18,8.2452376332221966e-17,5.2769520852622062e-16,9.8281948353796892e-03,1.5002739416207095e-01,3.2255889744845251e-01
9.5178614502347589e-02,-2.0040809069614309e+03,9.7329473781182391e-19,4.9642703443144513e-17,3.1969901017385062e-16,7.9070540515934415e-03,1.2350818428588956e-01,2.7171800542895697e-01
9.4184467455776646e-02,-1.9920014866896761e+03,5.8049834658569024e-19,2.9792103944132163e-17,1.9305283355797640e-16,6.3297154274857470e-03,1.0111720395408481e-01,2.2751370889669081e-01
9.3200704342144572e-02,-1.9799557630445192e+03,3.4511819510791769e-19,1.7821351406260698e-17,1.1619521116881977e-16,5.0417602596909790e-03,8.2331945040753696e-02,1.8936347359373348e-01
9.2227216700571588e-02,-1.9679443499567965e+03,2.0452433232415462e-19,1.0626102590767918e-17,6.9707232995437542e-17,3.9958458300846326e-03,6.6670687674962092e-02,1.5667611603616091e-01
9.1263897203059149e-02,-1.9559678448559637e+03,1.2081820198999709e-19,6.3154090544211278e-18,4.1681699759179442e-17,3.1511115984444414e-03,5.3694941637493283e-02,1.2886785992998387e-01
9.0310639642656884e-02,-1.9440268289478322e+03,7.1142645486457712e-20,3.7413063549582269e-18,2.4842274196922629e-17,2.4725630358741922e-03,4.3010234009031575e-02,1.0537507332212737e-01
8.9367338921753192e-02,-1.9321218674883039e+03,4.1757828924830450e-20,2.2092229939655100e-18,1.4757609599689607e-17,1.9304541362277093e-03,3.4265560918041837e-02,8.5663902295104594e-02
8.8433891040488072e-02,-1.9202535100531579e+03,2.4431833970432744e-20,1.3003208403079598e-18,8.7381560468694898e-18,1.4996852893298456e-03,2.7151802163316856e-02,6.9237095516457986e-02
8.7510193085287125e-02,-1.9084222908039417e+03,1.4249003192649910e-20,7.6288023173192211e-19,5.1570703665077934e-18,1.1592291739045914e-03,2.1399370550278754e-02,5.5638363430724758e-02
8.6596143217515117e-02,-1.8966287287500161e+03,8.2836770076828591e-21,4.4612570892576798e-19,3.0336548206952226e-18,8.9159371999521957e-04,1.6775335841710055e-02,4.4454639980531646e-02
8.5691640662248311e-02,-1.8848733280068138e+03,4.8003409799239409e-21,2.6004791183722371e-19,1.7787277169666102e-18,6.8232805275637658e-04,1.3080228771339740e-02,3.5316617682617298e-02
8.4796585697163793e-02,-1.8731565780503481e+03,2.7728812799886128e-21,1.5109319179406752e-19,1.0395211595431846e-18,5.1957468215483844e-04,1.0144695669073221e-02,2.7897913089951355e-02
8.3910879641545005e-02,-1.8614789539680344e+03,1.5966168995342771e-21,8.7504824442635398e-20,6.0553338514303702e-19,3.9366904065507829e-04,7.8261405282229572e-03,2.1913193479024280e-02
8.3034424845402174e-02,-1.8498409167058696e+03,9.1639017741557746e-22,5.0514359027714361e-20,3.5157993883289196e-19,2.9678576779321067e-04,6.0054600112956179e-03,1.7115561032192510e-02
8.2167124678706252e-02,-1.8382429133120163e+03,5.2428856633634639e-22,2.9066558117687045e-20,2.0346590682380930e-19,2.2262985691888897e-04,4.5839487539599232e-03,1.3293451386483777e-02
8.1308883520735342e-02,-1.8266853771768401e+03,2.9899959888172606e-22,1.6671260834928625e-20,1.1736567627789753e-19,1.6616986660727734e-04,3.4804278560894237e-03,1.0267262175463801e-02
8.0459606749532439e-02,-1.8151687282694518e+03,1.6997344719105975e-22,9.5310230884126080e-21,6.7479643465961251e-20,1.2340980408667956e-04,2.6286288270462748e-03,7.8858864811388249e-03
7.9619200731473258e-02,-1.8036933733707951e+03,9.6316749283422618e-23,5.4313400187919146e-21,3.8671140933798428e-20,9.1195956362266043e-05,1.9748484350248711e-03,6.0232877268258569e-03
7.8787572810943021e-02,-1.7922597063033318e+03,5.4404247608759132e-23,3.0851125499994259e-21,2.2089405857995889e-20,6.7054824302811120e-05,1.4758766829048727e-03,4.5752177170051058e-03
7.7964631300121170e-02,-1.7808681081573677e+03,3.0631908645774301e-23,1.7467539586166338e-21,1.2576628502039764e-20,4.9058357456207724e-05,1.0971901645080858e-03,3.4561490182004706e-03
7.7150285468872537e-02,-1.7695189475140605e+03,1.7191966862742254e-23,9.8580113348313097e-22,7.1372002064178691e-21,3.5712849641635212e-05,8.1139594385795199e-04,2.5964670203454461e-03
7.6344445534744343e-02,-1.7582125806651622e+03,9.6180566405844454e-24,5.5455406256016173e-22,4.0371535754379767e-21,2.5868100222654120e-05,5.9690641263774387e-04,1.9399458410726675e-03
7.5547022653067605e-02,-1.7469493518295353e+03,5.3636366894759297e-24,3.1095361889035335e-22,2.2761804902773864e-21,1.8643742331516821e-05,4.3682288282743910e-04,1.4415155133305491e-03
7.4757928907161875e-02,-1.7357295933664843e+03,2.9815468167036669e-24,1.7379794180183679e-22,1.2791528516615187e-21,1.3369962120843802e-05,3.1800454904426983e-04,1.0653152392983039e-03
7.3977077298642363e-02,-1.7245536259859507e+03,1.6520917823142719e-24,9.6825795177874839e-23,7.1651088431627383e-22,9.5401628730792307e-06,2.3029953175613267e-04,7.8301840797085113e-04
7.3204381737828325e-02,-1.7134217589556097e+03,9.1250860070214282e-25,5.3769386794653636e-23,4.0004423775222299e-22,6.7734499977037491e-06,1.6591565769375334e-04,5.7240901904344896e-04
7.2439757034251456e-02,-1.7023342903049092e+03,5.0240044999246746e-25,2.9763006498273762e-23,2.2262728860708772e-22,4.7851173921290088e-06,1.1891016719440586e-04,4.1618558518042052e-04
