djean032/levmar/conformance/nist_nls/corpus/gauss3/jacobian_certified.csv
j1,j2,j3,j4,j5,j6,j7,j8
9.8911380882390898e-01,-9.7863285198359591e+01,1.6162971095482633e-10,-6.6332770195393638e-09,3.1496342404229027e-08,6.5875045152628395e-25,-3.6840918692796161e-23,2.7490201964400658e-22
9.7834612680614030e-01,-1.9359585353313986e+02,2.4250708813526993e-10,-9.8625245869339967e-09,4.6406285848628698e-08,1.4032323010069012e-24,-7.7941684686984493e-23,5.7762762819865717e-22
9.6769566383334049e-01,-2.8723249809101935e+02,3.6251652708319862e-10,-1.4608716598530184e-08,6.8111644691437972e-08,2.9736706743584578e-24,-1.6403757262702473e-22,1.2073460110679016e-21
9.5716114383657636e-01,-3.7880750693975239e+02,5.3992236548967409e-10,-2.1557548009471111e-08,9.9584662541264991e-08,6.2691811094648928e-24,-3.4343994378982862e-22,2.5103180325965773e-21
9.4674130463844541e-01,-4.6835467000033481e+02,8.0118896337644530e-10,-3.1691975065759097e-08,1.4504030453627805e-07,1.3148718029565336e-23,-7.1530606961291047e-22,5.1920439678373245e-21
9.3643489780184941e-01,-5.5590728582939528e+02,1.1845100002037843e-09,-4.6415302848219792e-08,2.1043050396025162e-07,2.7435359638519247e-23,-1.4820619452995572e-21,1.0682182857835945e-20
9.2624068848041519e-01,-6.4149816831295368e+02,1.7447878899637402e-09,-6.7722703062330784e-08,3.0412420020906127e-07,5.6949845797580473e-23,-3.0547371064730914e-21,2.1862160665934156e-20
9.1615745527054326e-01,-7.2515965327267054e+02,2.5606291087510595e-09,-9.8439147706922874e-08,4.3783861523705891e-07,1.1760589652553484e-22,-6.2634563465426920e-21,4.4507885921440309e-20
9.0618399006506700e-01,-8.0692360498570088e+02,3.7441294118312720e-09,-1.4254799123330814e-07,6.2790855768872256e-07,2.4161299617759687e-22,-1.2775758240063619e-20,9.0134495487464809e-20
8.9631909790850572e-01,-8.8682142261925105e+02,5.4545026557542209e-09,-2.0564268353155965e-07,8.9700820898307551e-07,4.9381711112050569e-22,-2.5923367026358558e-20,1.8157440773004409e-19
8.8656159685389224e-01,-9.6488404658092122e+02,7.9169808973283087e-09,-2.9554492909311285e-07,1.2764754815254811e-06,1.0040760950061332e-21,-5.2327248332114119e-20,3.6385397267206681e-19
8.7691031782116025e-01,-1.0411419647859066e+03,1.1448910747553719e-08,-4.2314675121872608e-07,1.8094346469853313e-06,2.0310554025924468e-21,-1.0507413315686075e-19,7.2528352899200478e-19
8.6736410445707235e-01,-1.1156252188421126e+03,1.6495628819224741e-08,-6.0355227786164482e-07,2.5549709169461939e-06,4.0872533858353735e-21,-2.0989148487004178e-19,1.4381229964408757e-18
8.5792181299667358e-01,-1.1883634101542311e+03,2.3679564713938109e-08,-8.5761875123662225e-07,3.5936838769792425e-06,8.1826882218639250e-21,-4.1708498826012288e-19,2.8365540759141696e-18
8.4858231212625324e-01,-1.2593857059478080e+03,3.3867152792184583e-08,-1.2140266369518109e-06,5.0350384832901605e-06,1.6297278799121512e-20,-8.2448863578802166e-19,5.5653464661606779e-18
8.3934448284779739e-01,-1.3287208452143184e+03,4.8259608298450501e-08,-1.7120474162489804e-06,7.0270466146181355e-06,3.2291545845966319e-20,-1.6213426156602397e-18,1.0861722756351813e-17
8.3020721834491906e-01,-1.3963971445782620e+03,6.8515531545147833e-08,-2.4052266593183596e-06,9.7689533649925234e-06,6.3652758036853032e-20,-3.1717179156411545e-18,2.1086759162289073e-17
8.2116942385024549e-01,-1.4624425040872609e+03,9.6915759439991349e-08,-3.3662616367565110e-06,1.3527775338206438e-05,1.2482462382333882e-19,-6.1722507643622024e-18,4.0721597942247787e-17
8.1223001651425120e-01,-1.5268844129261549e+03,1.3658402550443129e-07,-4.6934297700446920e-06,1.8659748629052015e-05,2.4352186170647006e-19,-1.1948721130419331e-17,7.8224509509787381e-17
8.0338792527551750e-01,-1.5897499550560497e+03,1.9178098583770197e-07,-6.5190198208659625e-06,2.5637997815387582e-05,4.7263980463433321e-19,-2.3010589383726871e-17,1.4947313538978908e-16
7.9464209073240499e-01,-1.6510658147792838e+03,2.6829422109041843e-07,-9.0203354903282351e-06,3.5088040245956951e-05,9.1259331372538212e-19,-4.4082082445947165e-17,2.8410892427761763e-16
7.8599146501612338e-01,-1.7108582822312540e+03,3.7395317342251513e-07,-1.2433985104410919e-05,4.7833098300936843e-05,1.7529879083085510e-18,-8.4008665008045533e-17,5.3716437154821283e-16
7.7743501166518203e-01,-1.7691532588000352e+03,5.1930590507075020e-07,-1.7074345778965939e-05,6.4951611900078250e-05,3.3499259564078501e-18,-1.5926239913001322e-16,1.0102509155853971e-15
7.6897170550120819e-01,-1.8259762624747129e+03,7.1850440026656779e-07,-2.3357300716405729e-05,8.7849829322651194e-05,6.3686318566552297e-18,-3.0035106169980908e-16,1.8899492887995505e-15
7.6060053250611726e-01,-1.8813524331233430e+03,9.9045725283540025e-07,-3.1830599159350225e-05,1.1835290999135306e-04,1.2045136652187199e-17,-5.6347075966272215e-16,3.5169726409749780e-15
7.5232048970061904e-01,-1.9353065377014284e+03,1.3603234167955375e-06,-4.3212485161403794e-05,1.5881859974651720e-04,2.2663760259185685e-17,-1.0515730018204672e-15,6.5100577435812845e-15
7.4413058502404761e-01,-1.9878629753918131e+03,1.8614387261179451e-06,-5.8440588715783293e-05,2.1227823576091179e-04,4.2423534923761696e-17,-1.9522382899655767e-15,1.1986620432536016e-14
7.3602983721549942e-01,-2.0390457826768552e+03,2.5377886393520456e-06,-7.8733475406310571e-05,2.8261059898429059e-04,7.9001691170649288e-17,-3.6053804041138041e-15,2.1953499201617264e-14
7.2801727569626429e-01,-2.0888786383437555e+03,3.4471667024668311e-06,-1.0566771220336377e-04,3.7475494588740127e-04,1.4635938398050963e-16,-6.6235944007488854e-15,3.9994920799097441e-14
7.2009194045353775e-01,-2.1373848684238887e+03,4.6651891454172837e-06,-1.4127382947423328e-04,4.9497040059564581e-04,2.6974872902324231e-16,-1.2104872617472769e-14,7.2476797222191724e-14
7.1225288192539826e-01,-2.1845874510669873e+03,6.2903724426665113e-06,-1.8815514278163357e-04,6.5114974732583843e-04,4.9459860922490979e-16,-2.2006452996785537e-14,1.3064270366272420e-13
7.0449916088703657e-01,-2.2305090213510011e+03,8.4505231703918711e-06,-2.4963403981461676e-04,8.5319649562120691e-04,9.0219626345477475e-16,-3.9798130007511218e-14,2.3424064863927794e-13
6.9682984833822448e-01,-2.2751718760284712e+03,1.1310738633006116e-05,-3.2993103128298222e-04,1.1134748501086757e-03,1.6372078069243136e-15,-7.1597444971478795e-14,4.1776225152040589e-13
6.8924402539200813e-01,-2.3185979782102131e+03,1.5083372970698304e-05,-4.3438259848663582e-04,1.4473428424559712e-03,2.9557060409548936e-15,-1.2813095264858658e-13,7.4111367058658214e-13
6.8174078316461217e-01,-2.3608089619871221e+03,2.0040387118996853e-05,-5.6970462733803610e-04,1.8737793019532446e-03,5.3085183274438209e-15,-2.2810335677229809e-13,1.3077598055718464e-12
6.7431922266654409e-01,-2.4018261369908923e+03,2.6528572186977992e-05,-7.4430897460128905e-04,2.4161154639582463e-03,9.4850593450399933e-15,-4.0395202568541059e-13,2.2953952651794123e-12
6.6697845469488304e-01,-2.4416704928944296e+03,3.4988214387785754e-05,-9.6868143449455274e-04,3.1028817386181506e-03,1.6860149973096850e-14,-7.1161940595240351e-13,4.0074866620400872e-12
6.5971759972674071e-01,-2.4803627038527270e+03,4.5975855059964903e-05,-1.2558300206631620e-03,3.9687793677569893e-03,2.9815181940341822e-14,-1.2470533210171542e-12,6.9593797635147475e-12
6.5253578781388355e-01,-2.5179231328849751e+03,6.0191890559854295e-05,-1.6218129975370335e-03,5.0557852548689256e-03,5.2452735687100265e-14,-2.1739065124336010e-12,1.2021302800622615e-11
6.4543215847850044e-01,-2.5543718361986539e+03,7.8513852308324827e-05,-2.0863564227165858e-03,6.4143960213645275e-03,9.1802281254610812e-14,-3.7697681232512696e-12,2.0654455738161177e-11
6.3840586061010640e-01,-2.5897285674563468e+03,1.0203630477554440e-04,-2.6735710231597905e-03,8.1050141759642473e-03,1.5984293761064526e-13,-6.5028788223194691e-12,3.5298465275312594e-11
6.3145605236356783e-01,-2.6240127819860236e+03,1.3211839561770027e-04,-3.4127779359223258e-03,1.0199475038842980e-02,2.7687776529025585e-13,-1.1158690448098126e-11,6.0003465298193909e-11
6.2458190105823830e-01,-2.6572436409355037e+03,1.7044018355726975e-04,-4.3394521016089822e-03,1.2782707602382783e-02,4.7713069774285363e-13,-1.9047440261219253e-11,1.0145508859401987e-10
6.1778258307819189e-01,-2.6894400153718229e+03,2.1906895092609316e-04,-5.4962907988881206e-03,1.5954515720012129e-02,8.1797736647142014e-13,-3.2342611703701976e-11,1.7062664051797766e-10
6.1105728377354329e-01,-2.7206204903262164e+03,2.8053677297611509e-04,-6.9344128380964881e-03,1.9831457808702796e-02,1.3950824136669181e-12,-5.4629580224004523e-11,2.8542618713723502e-10
6.0440519736284160e-01,-2.7508033687853999e+03,3.5793065787053003e-04,-8.7146911748266324e-03,2.4548793589440638e-02,2.3670808437070294e-12,-9.1789744513147873e-11,4.7491204507013714e-10
5.9782552683652668e-01,-2.7800066756298575e+03,4.5499658131265485e-04,-1.0909218046106537e-02,3.0262455293889427e-02,3.9955904556705055e-12,-1.5341688743225878e-10,7.8596520680107129e-10
5.9131748386143690e-01,-2.8082481615198039e+03,5.7625870856543588e-04,-1.3602897066259539e-02,3.7150988331531666e-02,6.7097060277755959e-12,-2.5507273906711225e-10,1.2937863120049806e-09
5.8488028868635611e-01,-2.8355453067295011e+03,7.2715501369357226e-04,-1.6895150956575122e-02,4.5417392829611367e-02,1.1209356153800810e-11,-4.2185765513495072e-10,2.1183082313003280e-09
5.7851317004858926e-01,-2.8619153249305887e+03,9.1419035997547299e-04,-2.0901726657212807e-02,5.5290783026438334e-02,1.8629984477629762e-11,-6.9402952238927435e-10,3.4497001668719929e-09
5.7221536508155380e-01,-2.8873751669250810e+03,1.1451078848523791e-03,-2.5756571450994858e-02,6.7027766637194827e-02,3.0803422128657945e-11,-1.1357929308487010e-09,5.5877543909529821e-09
5.6598611922337927e-01,-2.9119415243286967e+03,1.4290792256943642e-03,-3.1613744432681404e-02,8.0913431572688488e-02,5.0668738451258903e-11,-1.8489647857888093e-09,9.0023344134555824e-09
5.5982468612649972e-01,-2.9356308332051271e+03,1.7769137176875710e-03,-3.8649317257335704e-02,9.7261813465427310e-02,8.2915526892931789e-11,-2.9940938325402459e-09,1.4425567319113106e-08
5.5373032756823137e-01,-2.9584592776519080e+03,2.2012861819670970e-03,-4.7063206740014213e-02,1.1641570517030979e-01,1.3498524149213437e-10,-4.8229022143690039e-09,2.2991567361191100e-08
5.4770231336232411e-01,-2.9804427933384995e+03,2.7169822922221876e-03,-5.7080869778782434e-02,1.3874565971262198e-01,2.1862074018815999e-10,-7.7278156347879233e-09,3.6446858254979380e-08
5.4173992127147463e-01,-3.0015970709971930e+03,3.3411597555191054e-03,-6.8954778545865375e-02,1.6464803211576279e-01,3.5225006541459898e-10,-1.2317121436128669e-08,5.7465252233910160e-08
5.3584243692079281e-01,-3.0219375598674496e+03,4.0936226657268850e-03,-8.2965581345788617e-02,1.9454190429558452e-01,5.6463195616097587e-10,-1.9528314593576128e-08,9.0116024588003501e-08
5.3000915371221058e-01,-3.0414794710942865e+03,4.9971053879459540e-03,-9.9422842482727036e-02,2.2886474193503953e-01,9.0039790360194285e-10,-3.0797979684798416e-08,1.4055552915382361e-07
5.2423937273982113e-01,-3.0602377810812764e+03,6.0775612175223053e-03,-1.1866524351898367e-01,2.6806664411326059e-01,1.4284273132237962e-09,-4.8314828024538555e-08,2.1804226436628406e-07
5.1853240270614143e-01,-3.0782272347987755e+03,7.3644498418706629e-03,-1.4106011914225167e-01,3.1260306653730191e-01,2.2544284998235417e-09,-7.5394240532258051e-08,3.3641691882194588e-07
5.1288755983928447e-01,-3.0954623490479271e+03,8.8910163390758783e-03,-1.6700219427062274e-01,3.6292592843584415e-01,3.5397242876852398e-09,-1.1702918025843458e-07,5.1624617102299346e-07
5.0730416781103527e-01,-3.1119574156810427e+03,1.0694553103801746e-02,-1.9691138585086804e-01,4.1947305220555525e-01,5.5291332324698199e-09,-1.8069540430612110e-07,7.8790727875606028e-07
5.0178155765581656e-01,-3.1277265047788924e+03,1.2816634736643047e-02,-2.3122953391954937e-01,4.8265593410738772e-01,8.5921000168772726e-09,-2.7752087092080019e-07,1.1959965558132335e-06
4.9631906769053857e-01,-3.1427834677854903e+03,1.5303314614626782e-02,-2.7041593276769305e-01,5.5284590362977848e-01,1.3283002125761752e-08,-4.2397318452496075e-07,1.8055872923494682e-06
4.9091604343532008e-01,-3.1571419406009022e+03,1.8205270633466917e-02,-3.1494154530244794e-01,6.3035879800518702e-01,2.0429033002215896e-08,-6.4427884770532957e-07,2.7110522627847837e-06
4.8557183753507299e-01,-3.1708153466326266e+03,2.1577886539530383e-02,-3.6528180266322408e-01,7.1543835564804037e-01,3.1257484710088156e-08,-9.7386912380197230e-07,4.0484158796409775e-06
4.8028580968194040e-01,-3.1838168998060873e+03,2.5481254420960647e-02,-4.2190791740605277e-01,8.0823861620820581e-01,4.7578954469675512e-08,-1.4642559563180264e-06,6.0125272491301251e-06
4.7505732653857907e-01,-3.1961596075347575e+03,2.9980083377501819e-02,-4.8527667249237827e-01,9.0880570307546005e-01,7.2049407014353310e-08,-2.1898857701986019e-06,8.8807667911470247e-06
4.6988576166227741e-01,-3.2078562736504491e+03,3.5143499214183770e-02,-5.5581869001593576e-01,1.0170594534359179e+00,1.0854268909059595e-07,-3.2577091171296830e-06,1.3045537666292347e-05
4.6477049542989868e-01,-3.2189195012942710e+03,4.1044720281616508e-02,-6.3392523286155589e-01,1.1327754476549567e+00,1.6267671440347103e-07,-4.8204521890808924e-06,1.9058473843689590e-05
4.5971091496364225e-01,-3.2293616957687727e+03,4.7760595387733105e-02,-7.1993364872945464e-01,1.2555680695799385e+00,2.4255199853736168e-07,-7.0948967299892887e-06,2.7690146458292902e-05
4.5470641405761231e-01,-3.2391950673517745e+03,5.5370991097145182e-02,-8.1411162818391281e-01,1.3848752976338670e+00,3.5978161919363486e-07,-1.0386884817120621e-05,4.0010097766590923e-05
4.4975639310518634e-01,-3.2484316340723753e+03,6.3958017767543437e-02,-9.1664051516592981e-01,1.5199459783674292e+00,5.3091835014159187e-07,-1.5125283808236935e-05,5.7493305963474818e-05
4.4486025902717413e-01,-3.2570832244496401e+03,7.3605086384081489e-02,-1.0275979778708821e+00,1.6598303644687435e+00,7.7941928957930509e-07,-2.1907796128993844e-05,8.2160710282431869e-05
4.4001742520075893e-01,-3.2651614801944347e+03,8.4395791657949193e-02,-1.1469404177295284e+00,1.8033747033229770e+00,1.1383327034656584e-06,-3.1562301871945742e-05,1.1676322422570290e-04
4.3522731138921211e-01,-3.2726778588748994e+03,9.6412620945009395e-02,-1.2744855617466297e+00,1.9492206357812478e+00,1.6539482836382557e-06,-4.5228403522674660e-05,1.6502074523859744e-04
4.3048934367237301e-01,-3.2796436365460245e+03,1.0973549327660898e-01,-1.4098957456212118e+00,2.0958101043398618e+00,2.3907231556989153e-06,-6.4465024964888352e-05,2.3193002547712622e-04
4.2580295437788562e-01,-3.2860699103437978e+03,1.2444013810834109e-01,-1.5526624486349760e+00,2.2413963730336879e+00,3.4378846413205035e-06,-9.1391321919863223e-05,3.2415787140756220e-04
4.2116758201318361e-01,-3.2919676010443823e+03,1.4059632918142037e-01,-1.7020926828712555e+00,2.3840616269721111e+00,4.9182201084881471e-06,-1.2886980320337592e-04,4.5053892950362078e-04
4.1658267119821607e-01,-3.2973474555887751e+03,1.5826599501964428e-01,-1.8572978655598489e+00,2.5217414481797622e+00,6.9996975015979733e-06,-1.8074244735630308e-04,6.2270019036898448e-04
4.1204767259890562e-01,-3.3022200495734037e+03,1.7750123388431460e-01,-2.0171858110608945e+00,2.6522562586611063e+00,9.9107205901241862e-06,-2.5213271904253213e-04,8.5583715257975062e-04
4.0756204286133058e-01,-3.3065957897070939e+03,1.9834226728175869e-01,-2.1804564653898990e+00,2.7733495857553065e+00,1.3960013629880824e-05,-3.4982871618779966e-04,1.1696691177433096e-03
4.0312524454662391e-01,-3.3104849162348487e+03,2.2081537213960123e-01,-2.3456019689713541e+00,2.8827327452437332e+00,1.9562353466220750e-05,-4.8276515803367237e-04,1.5896030563847968e-03
3.9873674606658088e-01,-3.3138975053288755e+03,2.4493083729587162e-01,-2.5109115709309107e+00,2.9781352625979411e+00,2.7271624642241950e-05,-6.6262446846381906e-04,2.1481365285908370e-03
3.9439602161996762e-01,-3.3168434714472737e+03,2.7068099472534574e-01,-2.6744818300166973e+00,3.0573600722336698e+00,3.7822964865380462e-05,-9.0457968919864724e-04,2.8865298194173509e-03
3.9010255112952291e-01,-3.3193325696608226e+03,2.9803837970437086e-01,-2.8342324235192651e+00,3.1183422601315534e+00,5.2186092217469302e-05,-1.2282041957823995e-03,3.8567752305679456e-03
3.8585582017964609e-01,-3.3213743979482656e+03,3.2695407664186682e-01,-2.9879277478025053e+00,3.1592098591921154e+00,7.1632256963364874e-05,-1.6585749516334930e-03,5.1238867566467186e-03
3.8165531995476304e-01,-3.3229783994605136e+03,3.5735630835371485e-01,-3.1332043349168366e+00,3.1783449822172867e+00,9.7817631329860639e-05,-2.2275970261324499e-03,6.7685255100248124e-03
3.7750054717836329e-01,-3.3241538647541697e+03,3.8914932593609536e-01,-3.2676039330887221e+00,3.1744433973685888e+00,1.3288632735100354e-04,-2.9755769617171744e-03,8.8899645596175036e-03
3.7339100405270065e-01,-3.3249099339947670e+03,4.2221265395025576e-01,-3.3886119096601321e+00,3.1465705275057436e+00,1.7959659765096986e-04,-3.9530708789333562e-03,1.1609380647872649e-02
3.6932619819915041e-01,-3.3252555991301269e+03,4.5640074127124081e-01,-3.4937004393140043e+00,3.0942117986790043e+00,2.4147410256544085e-04,-5.2230294773682800e-03,1.5073438952444123e-02
3.6530564259921555e-01,-3.3251997060342187e+03,4.9154306164513639e-01,-3.5803757450504752e+00,3.0173152828319236e+00,3.2299638816627260e-04,-6.8632558012224542e-03,1.9458110215818947e-02
3.6132885553617566e-01,-3.3247509566219051e+03,5.2744469978387443e-01,-3.6462284718799358e+00,2.9163246813149684e+00,4.2981287515900566e-04,-8.9691822464769925e-03,2.4972626962291480e-02
3.5739536053737070e-01,-3.3239179109349616e+03,5.6388744882058528e-01,-3.6889861014138092e+00,2.7922008816705910e+00,5.6900466251570366e-04,-1.1656960257888002e-02,3.1863447274121000e-02
3.5350468631711290e-01,-3.3227089891997298e+03,6.0063143334702218e-01,-3.7065661673086825e+00,2.6464305891852646e+00,7.4938824938447642e-04,-1.5066839016131598e-02,4.0418051262933428e-02
3.4965636672022071e-01,-3.3211324738567932e+03,6.3741725932933824e-01,-3.6971289143475619e+00,2.4810208818310477e+00,9.8186681568069581e-04,-1.9366787770643708e-02,5.0968348048782829e-02
3.4584994066616698e-01,-3.3191965115630273e+03,6.7396867829224305e-01,-3.6591279645950361e+00,2.2984789533644214e+00,1.2798319131448761e-03,-2.4756290121318730e-02,6.3893421490267929e-02
3.4208495209383533e-01,-3.3169091151663861e+03,7.0999573867920263e-01,-3.5913575182281625e+00,2.1017767816084283e+00,1.6596172405483642e-03,-3.1470207518957634e-02,7.9621293555781486e-02
3.3836094990687793e-01,-3.3142781656537923e+03,7.4519838269250893e-01,-3.4929946285899383e+00,1.8943009709556669e+00,2.1410045475382051e-03,-3.9782573879722470e-02,9.8629338310055756e-02
3.3467748791966789e-01,-3.3113114140724661e+03,7.7927043268042939e-01,-3.3636351532974453e+00,1.6797885506671402e+00,2.7477795768932486e-03,-5.0010144220899194e-02,1.2144294098689726e-01
3.3103412480384042e-01,-3.3080164834250527e+03,8.1190389777400807e-01,-3.2033220964912212e+00,1.4622500422875966e+00,3.5083332731849471e-03,-6.2515478810354713e-02,1.4863197018611568e-01
3.2743042403541589e-01,-3.3044008705388951e+03,8.4279351948414449e-01,-3.0125652200916240e+00,1.2458816179798076e+00,4.4563002350032589e-03,-7.7709302181288270e-02,1.8080462206198589e-01
3.2386595384249778e-01,-3.3004719479097648e+03,8.7164146482621541e-01,-2.7923510106643148e+00,1.0349686342209869e+00,5.6312225728068210e-03,-9.6051835747314379e-02,2.1859820895204182e-01
3.2034028715354129e-01,-3.2962369655204207e+03,8.9816206767476858e-01,-2.5441423375515146e+00,8.3378322053265486e-01,7.0792229941623111e-03,-1.1805276646241125e-01,2.6266650668767971e-01
3.1685300154618395e-01,-3.2917030526342992e+03,9.2208651382910156e-01,-2.2698674197429023e+00,6.4647891127517554e-01,8.8536661532941929e-03,-1.4426948532121797e-01,3.1366334984059030e-01
3.1340367919663387e-01,-3.2868772195646693e+03,9.4316736297266701e-01,-1.9718980243229152e+00,4.7698551373953046e-01,1.1015782201115551e-02,-1.7530321222877732e-01,3.7222227645000200e-01
3.0999190682960903e-01,-3.2817663594195856e+03,9.6118280151768887e-01,-1.6530171377077116e+00,3.2890749561080085e-01,1.3635221236766183e-02,-2.1179262190829679e-01,4.3893217589568406e-01
3.0661727566882085e-01,-3.2763772498229287e+03,9.7594052431418332e-01,-1.3163766708510045e+00,2.0542914199236892e-01,1.6790502229036663e-02,-2.5440460316226832e-01,5.1430908598929415e-01
3.0327938138799793e-01,-3.2707165546118831e+03,9.8728115032689689e-01,-9.6544606931770205e-01,1.0922957454580098e-01,2.0569315237522236e-02,-3.0382182487311193e-01,5.9876451585283452e-01
2.9997782406244150e-01,-3.2647908255111274e+03,9.9508108748420099e-01,-6.0395298686585552e-01,4.2410446492322153e-02,2.5068631760669757e-02,-3.6072685004009064e-01,6.9257093438603157e-01
2.9671220812110999e-01,-3.2586065037840717e+03,9.9925477470556467e-01,-2.3581743583592826e-01,6.4387363670207459e-03,3.0394575153733019e-02,-4.2578263645626629e-01,7.9582535122676945e-01
2.9348214229922348e-01,-3.2521699218614158e+03,9.9975624423968124e-01,1.3491896075003271e-01,2.1065748705542185e-03,3.6662001703427892e-02,-4.9960939064937254e-01,9.0841221552813489e-01
2.9028723959138536e-01,-3.2454873049473536e+03,9.9657996442296803e-01,5.0416683030663911e-01,2.9509471893692001e-02,4.3993743534464454e-02,-5.8275790014088713e-01,1.0299671514614033e+00
2.8712711720521378e-01,-3.2385647726036964e+03,9.8976094125369285e-01,8.6786413760480330e-01,8.8043687520093977e-02,5.2519467455728490e-02,-6.7567965564908605e-01,1.1598433187495900e+00
2.8400139651547790e-01,-3.2314083403122149e+03,9.7937407617373340e-01,1.2220505696672692e+00,1.7642283695303007e-01,6.2374109484529788e-02,-7.7869428505896932e-01,1.2970824099115539e+00
2.8090970301873358e-01,-3.2240239210154882e+03,9.6553279653272384e-01,1.5629393139649972e+00,2.9271316174732126e-01,7.3695853392298033e-02,-8.9195504786711433e-01,1.4403924500367860e+00
2.7785166628845276e-01,-3.2164173266365324e+03,9.4838699374937929e-01,1.8869844110179181e+00,4.3438626552247239e-01,8.6623633359816252e-02,-1.0154133729878754e+00,1.5881346266373226e+00
2.7482691993064118e-01,-3.2085942695775011e+03,9.2812032157523650e-01,2.1909420074643799e+00,5.9838752742408274e-01,1.0129415573648504e-01,-1.1487836525634056e+00,1.7383213249998679e+00
2.7183510153993995e-01,-3.2005603641977295e+03,9.0494692254611309e-01,2.4719240340105517e+00,7.8121789455593671e-01,1.1783845281524177e-01,-1.2915097160510918e+00,1.8886273606987036e+00
2.6887585265620401e-01,-3.1923211282713814e+03,8.7910766418360209e-01,2.7274430765309390e+00,9.7902633551060025e-01,1.3637800211519271e-01,-1.4427345872199844e+00,2.0364160733620964e+00
2.6594881872155413e-01,-3.1838819844249911e+03,8.5086597737723690e-01,2.9554474883830166e+00,1.1877099266645870e+00,1.5702046734911831e-01,-1.6012752559269678e+00,2.1787814697682384e+00
2.6305364903789563e-01,-3.1752482615551421e+03,8.2050339733374800e-01,3.1543460968778012e+00,1.4030183516725823e+00,1.7985514126961585e-01,-1.7656042610535343e+00,2.3126069844087200e+00
2.6018999672490079e-01,-3.1664251962265671e+03,7.8831491233118955e-01,3.3230221752011948e+00,1.6206595276969238e+00,2.0494819495840916e-01,-1.9338398664693714e+00,2.4346406767105861e+00
2.5735751867844703e-01,-3.1574179340509027e+03,7.5460422718773679e-01,3.4608366710488814e+00,1.8364031288334952e+00,2.3233786169248785e-01,-2.1037465065345518e+00,2.5415858320572386e+00
2.5455587552950898e-01,-3.1482315310463764e+03,7.1967904688956297e-01,3.5676209932346534e+00,2.0461789519915725e+00,2.6202970499563649e-01,-2.2727469733011532e+00,2.6302050153401373e+00
2.5178473160349757e-01,-3.1388709549786709e+03,6.8384648137297166e-01,3.6436599467384352e+00,2.2461673522037291e+00,2.9399213849243250e-01,-2.4379475108293756e+00,2.6974346875807047e+00
2.4904375488004107e-01,-3.1293410866831987e+03,6.4740866527826046e-01,3.6896656654630338e+00,2.4328793477212378e+00,3.2815237834332778e-01,-2.5961765751791224e+00,2.7405065926597310e+00
2.4633261695320541e-01,-3.1196467213690648e+03,6.1065867692989306e-01,3.7067436123302144e+00,2.6032244415973307e+00,3.6439301604685131e-01,-2.7440375203023994e+00,2.7570713119461328e+00
2.4365099299214604e-01,-3.1097925699049256e+03,5.7387682926354400e-01,3.6963518920865575e+00,2.7545647046713122e+00,4.0254939910312643e-01,-2.8779748955086424e+00,2.7453187307008831e+00
2.4099856170218908e-01,-3.0997832600870070e+03,5.3732739238088278e-01,3.6602552491662745e+00,2.8847541925264548e+00,4.4240799854824225e-01,-2.9943534111713284e+00,2.7040897199540082e+00
2.3837500528633609e-01,-3.0896233378895085e+03,5.0125579336364978e-01,3.6004751991498889e+00,2.9921633034954920e+00,4.8370592513429894e-01,-3.0895479735502960e+00,2.6329731623699559e+00
2.3578000940718730e-01,-3.0793172686976277e+03,4.6588632442530764e-01,3.5192377678387721e+00,3.0756882043988996e+00,5.2613172979721468e-01,-3.1600425394749330e+00,2.5323825800588913e+00
2.3321326314928015e-01,-3.0688694385234348e+03,4.3142037591631582e-01,3.4189202887894861e+00,3.1347459355418104e+00,5.6932758933997130e-01,-3.2025349328550585e+00,2.4036070802622977e+00
2.3067445898183705e-01,-3.0582841552048235e+03,3.9803519659342423e-01,3.3019986421473146e+00,3.1692562393578827e+00,6.1289293577441439e-01,-3.2140442345164502e+00,2.2488321261750417e+00
2.2816329272191938e-01,-3.0475656495877706e+03,3.6588317033415352e-01,3.1709962101177838e+00,3.1796115240801970e+00,6.5638953881896722e-01,-3.1920169406709640e+00,2.0711267483900841e+00
2.2567946349798218e-01,-3.0367180766921124e+03,3.3509158648554443e-01,3.0284356839292932e+00,3.1666366647977986e+00,6.9934799741948206e-01,-3.1344278160120367e+00,1.8743951989467040e+00
2.2322267371382545e-01,-3.0257455168610659e+03,3.0576287057302148e-01,2.8767946910029858e+00,3.1315405530484814e+00,7.4127554002820284e-01,-3.0398712717745378e+00,1.6632926547194749e+00
2.2079262901293856e-01,-3.0146519768947123e+03,2.7797523337710167e-01,2.7184660270438643e+00,3.0758614305049354e+00,7.8166497723550032e-01,-2.9076391959255381e+00,1.4431063209415078e+00
2.1838903824323194e-01,-3.0034413911676443e+03,2.5178368955095382e-01,2.5557230837768410e+00,3.0014080839155284e+00,8.2000459688510596e-01,-2.7377814609529261e+00,1.2196050751547838e+00
2.1601161342215347e-01,-2.9921176227310011e+03,2.2722139206142622e-01,2.3906908667005049e+00,2.9101989422613932e+00,8.5578874374820402e-01,-2.5311458323741904e+00,9.9886252355139149e-01
2.1366006970218407e-01,-2.9806844643990912e+03,2.0430122577786233e-01,2.2253228055989305e+00,2.8044010109961000e+00,8.8852878580912942e-01,-2.2893946842495221e+00,7.8705990939220283e-01
2.1133412533670912e-01,-2.9691456398208038e+03,1.8301760242800902e-01,2.0613833799171388e+00,2.6862704124508170e+00,9.1776413958261116e-01,-2.0149967712168619e+00,5.9027661519525321e-01
2.0903350164626175e-01,-2.9575048045360304e+03,1.6334839975224019e-01,1.9004364167573204e+00,2.5580960878551737e+00,9.4307300957777118e-01,-1.7111932737968607e+00,4.1427694655523267e-01
2.0675792298513276e-01,-2.9457655470172626e+03,1.4525698983277102e-01,1.7438387753576243e+00,2.4221479677193436e+00,9.6408249343342223e-01,-1.3819383799518659e+00,2.6430240413903827e-01
2.0450711670834512e-01,-2.9339313896966050e+03,1.2869430503461868e-01,1.5927390114527009e+00,2.2806306465906476e+00,9.8047771510096859e-01,-1.0318157396322738e+00,1.4487869420083702e-01
2.0228081313898694e-01,-2.9220057899783569e+03,1.1360089452722545e-01,1.4480805196699256e+00,2.1356433181268790e+00,9.9200967374754156e-01,-6.6593317527255480e-01,5.9646277955732269e-02
2.0007874553590074e-01,-2.9099921412373837e+03,9.9908929705388685e-02,1.3106085827255278e+00,1.9891464488099484e+00,9.9850153504294015e-01,-2.8979899464736675e-01,1.1222328196208591e-02
1.9790065006172447e-01,-2.8978937738034610e+03,8.7544122739895286e-02,1.1808807122363756e+00,1.8429354039072399e+00,9.9985314269772230e-01,9.0815918885069735e-02,1.1005903494959155e-03
1.9574626575127982e-01,-2.8857139559317634e+03,7.6427528715319409e-02,1.0592796461212670e+00,1.6986209962528132e+00,9.9604358938906357e-01,4.7002541546511367e-01,2.9593906176109481e-02
1.9361533448030549e-01,-2.8734558947597079e+03,6.6477208125256579e-02,9.4602836973309978e-01,1.5576167139593267e+00,9.8713175484203486e-01,8.4197953199848707e-01,9.5822147302311339e-02
1.9150760093453004e-01,-2.8611227372503095e+03,5.7609732688183438e-02,8.4120654935546779e-01,1.4211322021945176e+00,9.7325479171192941e-01,1.2010146432288180e+00,1.9774613677658531e-01
1.8942281257908219e-01,-2.8487175711222512e+03,4.9741523343327564e-02,7.4476780442174551e-01,1.2901724296001063e+00,9.5462461368477325e-01,1.5417969243821836e+00,3.3224593450000506e-01
1.8736071962823347e-01,-2.8362434257668274e+03,4.2790014740588488e-02,6.5655729544890828e-01,1.1655418628640504e+00,9.3152251147444620e-01,1.8594540472886876e+00,4.9523975361169492e-01
1.8532107501547049e-01,-2.8237032731519457e+03,3.6674645440288645e-02,5.7632916483397600e-01,1.0478529027594532e+00,9.0429208788345239e-01,2.1496905706975236e+00,6.8183788030806414e-01
1.8330363436389341e-01,-2.8111000287133656e+03,3.1317677309343359e-02,5.0376343403227908e-01,9.3753779956913064e-01,8.7333075987136755e-01,2.4088832248820347e+00,8.8652439534107397e-01
1.8130815595693572e-01,-2.7984365522333255e+03,2.6644851194192343e-02,4.3848203012413939e-01,8.3486326199000216e-01,8.3908012118577535e-01,2.6341531896774666e+00,1.1033583264197779e+00
1.7933440070940401e-01,-2.7857156487067550e+03,2.2585888850752033e-02,3.8006368458622453e-01,7.3994699725407809e-01,8.0201549171393005e-01,2.8234134747745299e+00,1.3261851550797408e+00
1.7738213213883175e-01,-2.7729400691952064e+03,1.9074853326858130e-02,3.2805751479899303e-01,6.5277546664227026e-01,7.6263499817106928e-01,2.9753905773989100e+00,1.5488493874231022e+00
1.7545111633714575e-01,-2.7601125116686994e+03,1.6050381554238120e-02,2.8199516244826539e-01,5.7322220485129227e-01,7.2144853466215753e-01,3.0896206598615152e+00,1.7653991725012437e+00
1.7354112194264101e-01,-2.7472356218356263e+03,1.3455803863657389e-02,2.4140142096559772e-01,5.0106612882756785e-01,6.7896694139218905e-01,3.1664215041243207e+00,1.9702746821043835e+00
1.7165192011226008e-01,-2.7343119939608719e+03,1.1239165550405019e-02,2.0580333538788650e-01,4.3600934693128146e-01,6.3569171640885425e-01,3.2068424137591593e+00,2.1584730917447708e+00
1.6978328449417490e-01,-2.7213441716723273e+03,9.3531655585376780e-03,1.7473780180989507e-01,3.7769406824624252e-01,5.9210554040473429e-01,3.2125950044795686e+00,2.3256844434207253e+00
1.6793499120066668e-01,-2.7083346487559293e+03,7.7550268970240539e-03,1.4775772964540021e-01,3.2571830063234236e-01,5.4866385044016541e-01,3.1859684216278854e+00,2.4683943297609918e+00
1.6610681878130104e-01,-2.6952858699393955e+03,6.4063126262288578e-03,1.2443685823013774e-01,2.7965011146047669e-01,5.0578764747652694e-01,3.1297329266209299e+00,2.5839511116122718e+00
1.6429854819639550e-01,-2.6822002316648054e+03,5.2727002344373922e-03,1.0437334020017537e-01,2.3904030426393083e-01,4.6385766752851681e-01,3.0470359961719904e+00,2.6705971614145323e+00
1.6250996279077531e-01,-2.6690800828501660e+03,4.3237260325345271e-03,8.7192218093055399e-02,2.0343343583947021e-01,4.2320998978124397e-01,2.9412950814148551e+00,2.7274653132637545e+00
1.6074084826781551e-01,-2.6559277256401310e+03,3.5325098955695578e-03,7.2546928440856445e-02,1.7237716033105871e-01,3.8413309978403870e-01,2.8160909927292104e+00,2.7545432100314815e+00
1.5899099266376501e-01,-2.6427454161459914e+03,2.8754693303291710e-03,6.0119970057999586e-02,1.4542993881619051e-01,3.4686637418671368e-01,2.6750655329809532e+00,2.7526094979584439e+00
1.5726018632235078e-01,-2.6295353651751125e+03,2.3320304974630418e-03,4.9622871134010142e-02,1.2216719469856936e-01,3.1159990742443139e-01,2.5218265268942264e+00,2.7231467797530300e+00
1.5554822186965797e-01,-2.6162997389499346e+03,1.8843425057589124e-03,4.0795583997903805e-02,1.0218602704137562e-01,2.7847556184387900e-01,2.3598628218686293e+00,2.6682368703493968e+00
1.5385489418928383e-01,-2.6030406598166965e+03,1.5170000568413855e-03,3.3405427877949118e-02,8.5108616455278258e-02,2.4758909206964425e-01,2.1924712024825976e+00,2.5904441989958631e+00
1.5218000039776206e-01,-2.5897602069440040e+03,1.2167783746543596e-03,2.7245689436506799e-02,7.0584472151225916e-02,2.1899317250884248e-01,2.0226965037998554e+00,2.4926931815314970e+00
1.5052333982025437e-01,-2.5764604170113898e+03,9.7238332179410357e-04,2.2133979037422549e-02,5.8291675325034133e-02,1.9270114387372769e-01,1.8532855617881616e+00,2.3781450794401655e+00
1.4888471396650738e-01,-2.5631432848880122e+03,7.7421869355995504e-04,1.7910428236219064e-02,4.7937274304978614e-02,1.6869129011502171e-01,1.6866550330048533e+00,2.2500793132622845e+00
1.4726392650707038e-01,-2.5498107643015887e+03,6.1417189414684234e-04,1.4435801406410591e-02,3.9256982043936933e-02,1.4691146047549486e-01,1.5248725751602759e+00,2.1117834624291789e+00
1.4566078324977255e-01,-2.5364647684977376e+03,4.8541853656431890e-04,1.1589582163879753e-02,3.2014317729265378e-02,1.2728386146939868e-01,1.3696504239509351e+00,1.9664553217889831e+00
1.4407509211645639e-01,-2.5231071708898412e+03,3.8224596364250533e-04,9.2680836629690320e-03,2.5999322603202826e-02,1.0970985923508159e-01,1.2223500417480286e+00,1.8171194578608714e+00
1.4250666311996371e-01,-2.5097398056995407e+03,2.9989525399717871e-04,7.3826211587841809e-03,2.1026966519496152e-02,9.4074652542603512e-02,1.0839962558771432e+00,1.6665597727280885e+00
1.4095530834137299e-01,-2.4963644685880254e+03,2.3442094417047642e-04,5.8577756234761335e-03,1.6935347170411050e-02,8.0251699379189481e-02,9.5529914780722625e-01,1.5172686914654194e+00
1.3942084190748391e-01,-2.4829829172782092e+03,1.8256745518271521e-04,4.6297687610473010e-03,1.3583769029832198e-02,6.8106804140636718e-02,8.3668189378629143e-01,1.3714127821661011e+00
1.3790307996854750e-01,-2.4695968721679387e+03,1.4166104667407523e-04,3.6449625158171016e-03,1.0850774462316646e-02,5.7501796792712355e-02,7.2831278227271545e-01,1.2308139276363552e+00
1.3640184067623812e-01,-2.4562080169343358e+03,1.0951602288444999e-04,2.8584900951975321e-03,8.6321856000754569e-03,4.8297758858220977e-02,6.3013973076880536e-01,1.0969446152968003e+00
1.3491694416186586e-01,-2.4428179991294210e+03,8.4353870502779123e-05,2.2330205710436751e-03,6.8392028201176387e-03,4.0357772850535968e-02,5.4192577930344055e-01,9.7093550661375605e-01
1.3344821251482580e-01,-2.4294284307671060e+03,6.4734008210055175e-05,1.7376552011962234e-03,5.3965941800620879e-03,3.3549191141673755e-02,4.6328423398378654e-01,8.5359318945311968e-01
1.3199546976128179e-01,-2.4160408889016940e+03,4.9494861774723248e-05,1.3469506213443475e-03,4.2410001140832298e-03,2.7745436765672996e-02,3.9371235612344330e-01,7.4542589765017453e-01
1.3055854184308249e-01,-2.4026569161979960e+03,3.7704038142617269e-05,1.0400618842366291e-03,3.3193690898250649e-03,2.2827362064799388e-02,3.3262272591597114e-01,6.4667498672797841e-01
1.2913725659690703e-01,-2.3892780214931795e+03,2.8616449545511017e-05,7.9999685225022317e-04,2.5875327579476786e-03,1.8684201321755713e-02,2.7937164164852296e-01,5.5735006330172943e-01
1.2773144373363718e-01,-2.3759056803504491e+03,2.1639327832506310e-05,6.1297256585864297e-04,2.0089233142052336e-03,1.5214160679918440e-02,2.3328413540204715e-01,4.7726585578238068e-01
1.2634093481795472e-01,-2.3625413356046970e+03,1.6303164718080023e-05,4.6786380586431034e-04,1.5534312306696859e-03,1.2324692958074215e-02,1.9367538583292759e-01,4.0607916214657852e-01
1.2496556324816041e-01,-2.3491863979002037e+03,1.2237711189991248e-05,3.5573404125547974e-04,1.1963980666492902e-03,9.9325067335472340e-03,1.5986848220695057e-01,3.4332449405954146e-01
1.2360516423621300e-01,-2.3358422462205172e+03,9.1522656233808802e-06,2.6943921752076513e-04,9.1773659803550582e-04,7.9633586774541087e-03,1.3120863794465853e-01,2.8844733475814804e-01
1.2225957478798545e-01,-2.3225102284106092e+03,6.8195727328475129e-06,2.0329531391061670e-04,7.0116886021947037e-04,6.3516759891747475e-03,1.0707406524555291e-01,2.4083422292481269e-01
1.2092863368373585e-01,-2.3091916616914114e+03,5.0627426103549958e-06,1.5280121581418943e-04,5.3357174199882159e-04,5.0400523099421411e-03,8.6883805402531225e-02,1.9983915184440401e-01
1.1961218145879124e-01,-2.2958878331668434e+03,3.7446795970588831e-06,1.1440915480656540e-04,4.0441936232623151e-04,3.9786560964897152e-03,7.0102864153222880e-02,1.6480602164701327e-01
1.1831006038444156e-01,-2.2826000003234271e+03,2.7595839708082777e-06,8.5335719351530324e-05,3.0531148660712482e-04,3.1245854695747060e-03,5.6245030854360868e-02,1.3508709524182930e-01
1.1702211444904161e-01,-2.2693293915225977e+03,2.0261551420167013e-06,6.3407198647443788e-05,2.2957758681695301e-04,2.4411983376150534e-03,4.4873768105977423e-02,1.1005758184770525e-01
1.1574818933931894e-01,-2.2560772064858024e+03,1.4821832863940943e-06,4.6933764280030545e-05,1.7194672715919752e-04,1.8974413984786838e-03,3.5601548735244563e-02,8.9126604959569547e-02
1.1448813242188474e-01,-2.2428446167724837e+03,1.0802673757761737e-06,3.4607700184050336e-05,1.2827418641930401e-04,1.4671966530072030e-03,2.8087993868550896e-02,7.1744905685362168e-02
1.1324179272494649e-01,-2.2296327662510630e+03,7.8444182711790906e-07,2.5421548103637278e-05,9.5316545953217388e-05,1.1286594779727846e-03,2.2037133085377639e-02,5.7409690987255894e-02
1.1200902092021946e-01,-2.2164427715629922e+03,5.6753200494635012e-07,1.8602635533748084e-05,7.0547827916627549e-05,8.6375820889727508e-04,1.7194068911304004e-02,4.5667064041682727e-02
1.1078966930503513e-01,-2.2032757225799960e+03,4.0909117061866458e-07,1.3560992301702334e-05,5.2010123203688406e-05,6.5762163446331462e-04,1.3341286248319288e-02,3.6112475976275316e-02
1.0958359178464462e-01,-2.1901326828545812e+03,2.9379877990415533e-07,9.8481398799185557e-06,3.8192974170160510e-05,4.9809782591291702e-04,1.0294805299397247e-02,2.8389620168953852e-02
1.0839064385471427e-01,-2.1770146900639024e+03,2.1022289028469901e-07,7.1246558645115737e-06,2.7936553773879991e-05,3.7532530794814125e-04,7.9003361068713928e-03,2.2188157488124655e-02
1.0721068258401226e-01,-2.1639227564470957e+03,1.4986842761792810e-07,5.1347780665394645e-06,2.0354397612545206e-05,2.8135569004115541e-04,6.0295554403983582e-03,1.7240618274400873e-02
1.0604356659728349e-01,-2.1508578692361489e+03,1.0644871717812536e-07,3.6866226400931956e-06,1.4772091515691550e-05,2.0982547026429058e-04,4.5765934000343966e-03,1.3318778859268677e-02
1.0488915605831088e-01,-2.1378209910804048e+03,7.5330499396928279e-08,2.6368535013761397e-06,1.0678892315136901e-05,1.5567373924973160e-04,3.4547882767770673e-03,1.0229760605311430e-02
1.0374731265316127e-01,-2.1248130604647931e+03,5.3113068696438644e-08,1.8788611052325450e-06,7.6897639367743525e-06,1.1490188640768284e-04,2.5937441176992703e-03,7.8120506925909742e-03
1.0261789957361328e-01,-2.1118349921218582e+03,3.7310586428879571e-08,1.3336925525405367e-06,5.5157481362986118e-06,8.4371080303260416e-05,1.9367059798507007e-03,5.9315982773937527e-03
1.0150078150076602e-01,-2.0988876774376904e+03,2.6113368009758275e-08,9.4312691265491383e-07,3.9409637169322183e-06,6.1633199103330649e-05,1.4382527277479664e-03,4.4780986380433142e-03
1.0039582458882605e-01,-2.0859719848518280e+03,1.8209324548194256e-08,6.6441414143417479e-07,2.8048455285656043e-06,4.4790969288681033e-05,1.0622959987798076e-03,3.3615423255158429e-03
9.9302896449070754e-02,-2.0730887602512207e+03,1.2651001784250747e-08,4.6629723646475249e-07,1.9885010111215595e-06,3.2383281906575745e-05,7.8036611624746381e-04,2.5090764871541975e-03
9.8221866133986604e-02,-2.0602388273583392e+03,8.7570157474578766e-09,3.2601903633537317e-07,1.4042836455009500e-06,2.3291953252340502e-05,5.7016072731888297e-04,1.8622013755063304e-03
9.7152604121579611e-02,-2.0474229881134966e+03,6.0393121542607765e-09,2.2708063136820880e-07,9.8786536347885094e-07,1.6666546125905660e-05,4.1432924527905153e-04,1.3743062530152685e-03
9.6094982299857010e-02,-2.0346420230514827e+03,4.1497215648779307e-09,1.5757056389525229e-07,6.9223933052263422e-07,1.1864240916167461e-05,2.9946527735297040e-04,1.0085349287658003e-03
9.5048873951477653e-02,-2.0218966916725774e+03,2.8408648351422802e-09,1.0892530126260661e-07,4.8320566639860661e-07,8.4021214491443681e-06,2.1527966687497326e-04,7.3596137812344318e-04
9.4014153738569695e-02,-2.0091877328080204e+03,1.9376811639363599e-09,7.5013932417197771e-08,3.3599019060035645e-07,5.9196032805815958e-06,1.5392817806633672e-04,5.3404961840949666e-04
9.2990697687713217e-02,-1.9965158649800153e+03,1.3167829581849482e-09,5.1465400148655433e-08,2.3272420762909438e-07,4.1490713101973410e-06,1.0946987393064185e-04,3.8536856876685699e-04
9.1978383175086692e-02,-1.9838817867563514e+03,8.9155103844366202e-10,3.5176269988834892e-08,1.6057517784963315e-07,2.8931026666009771e-06,7.7434617026374592e-05,2.7653137765726353e-04
9.0977088911774945e-02,-1.9712861770997044e+03,6.0142067859035975e-10,2.3952230454181557e-08,1.1036684218869063e-07,2.0069263800749215e-06,5.4480652608013772e-05,1.9732909048522968e-04
8.9986694929237110e-02,-1.9587296957117003e+03,4.0421333395258215e-10,1.6248175164587929e-08,7.5565506732113113e-08,1.3850124812266151e-06,3.8125760193396234e-05,1.4003006485546678e-04
8.9007082564932852e-02,-1.9462129833718138e+03,2.7067182315332034e-10,1.0980607566049341e-08,5.1538852283958162e-08,9.5089066124611493e-07,2.6537874754159431e-05,9.8818817194582377e-05
8.8038134448104877e-02,-1.9337366622711638e+03,1.8058247206726663e-10,7.3928512802811278e-09,3.5016553254502512e-08,6.4947453370004460e-07,1.8373311727363654e-05,6.9350678352687626e-05
8.7079734485716417e-02,-1.9213013363412904e+03,1.2003510395480603e-10,4.9586338943144790e-09,2.3699591829298945e-08,4.4131462589242832e-07,1.2652740149401412e-05,4.8401498816613604e-05
8.6131767848541665e-02,-1.9089075915779733e+03,7.9495232722213665e-11,3.3134256737105905e-09,1.5978589179542753e-08,2.9832466704305831e-07,8.6668176232662918e-06,3.3594494008201043e-05
8.5194120957407721e-02,-1.8965559963601640e+03,5.2453446653787862e-11,2.2057594845778969e-09,1.0731670508346695e-08,2.0062481892954937e-07,5.9049285850597546e-06,2.3189030653676718e-05
8.4266681469586366e-02,-1.8842471017641039e+03,3.4483164109230212e-11,1.4628689295953328e-09,7.1800715605396261e-09,1.3422542894556103e-07,4.0017641293616849e-06,1.5918646067804987e-05
8.3349338265333681e-02,-1.8719814418726819e+03,2.2586051849347603e-11,9.6653949072544676e-10,4.7854626978113138e-09,8.9338692631111819e-08,2.6975656290425464e-06,1.0867819065446317e-05
8.2441981434576581e-02,-1.8597595340801165e+03,1.4739191645062132e-11,6.3621117052132351e-10,3.1772688463368089e-09,5.9156031916075831e-08,1.8087478444665810e-06,7.3789568693791041e-06
8.1544502263744045e-02,-1.8475818793920125e+03,9.5831247999393202e-12,4.1720647072211378e-10,2.1014544316508595e-09,3.8968449477298456e-08,1.2063441487502504e-06,4.9827290463186727e-06
8.0656793222741704e-02,-1.8354489627208636e+03,6.2078434362014007e-12,2.7256455828621508e-10,1.3845959656873834e-09,2.5537705052561973e-08,8.0030081028201450e-07,3.3462824810573360e-06
7.9778747952068504e-02,-1.8233612531770689e+03,4.0065862839376926e-12,1.7740132731066430e-10,9.0879154894662768e-10,1.6649655702545534e-08,5.2811161726989823e-07,2.2350340215760246e-06
7.8910261250073110e-02,-1.8113192043555080e+03,2.5763708558833124e-12,1.1503076196929227e-10,5.9421644310652756e-10,1.0798993931283447e-08,3.4664915780014820e-07,1.4846871680411897e-06
7.8051229060349531e-02,-1.7993232546177617e+03,1.6506020826367938e-12,7.4308977116609148e-11,3.8704835637741225e-10,6.9681258627991289e-09,2.2633307354516408e-07,9.8088480951325734e-07
7.7201548459269700e-02,-1.7873738273700221e+03,1.0536018704458852e-12,4.7823264293243372e-11,2.5114639594713367e-10,4.4730456001282951e-09,1.4699439121000770e-07,6.4451963957258974e-07
7.6361117643651805e-02,-1.7754713313367542e+03,6.7005555248166294e-13,3.0662550532491315e-11,1.6234196315772766e-10,2.8565729153769897e-09,9.4961978916890706e-08,4.2120367509764652e-07
7.5529835918563049e-02,-1.7636161608301800e+03,4.2456600864009041e-13,1.9586143518605897e-11,1.0453884415564515e-10,1.8148550831289053e-09,6.1023389925898171e-08,2.7377176779565172e-07
7.4707603685254781e-02,-1.7518086960156224e+03,2.6802775258311454e-13,1.2464120540413292e-11,6.7060774665367418e-11,1.1470787642163621e-09,3.9006929909136298e-08,1.7698165559117405e-07
7.3894322429229470e-02,-1.7400493031727942e+03,1.6858325768446261e-13,7.9021787051285624e-12,4.2855276537718439e-11,7.2127217244988303e-10,2.4802035266188704e-08,1.1379244206467183e-07
7.3089894708437159e-02,-1.7283383349530620e+03,1.0564507410272015e-13,4.9912001719692984e-12,2.7282601088983535e-11,4.5119030962123493e-10,1.5686793658913796e-08,7.2769025271119635e-08
7.2294224141600721e-02,-1.7166761306327655e+03,6.5960538949623382e-14,3.1407725599613641e-12,1.7302698106142354e-11,2.8078570887556670e-10,9.8692357353719912e-09,4.6283905558465431e-08
7.1507215396668086e-02,-1.7050630163626288e+03,4.1031677457344057e-14,1.9689820799081363e-12,1.0931740276989452e-11,1.7383806752989681e-10,6.1764148978339946e-09,2.9279657449267355e-08
7.0728774179390053e-02,-1.6934993054133276e+03,2.5430475576320129e-14,1.2297624281692801e-12,6.8803892485937153e-12,1.0707039892288529e-10,3.8449800509992268e-09,1.8422845683436699e-08
6.9958807222022648e-02,-1.6819852984172692e+03,1.5703260132762181e-14,7.6520051708299197e-13,4.3140555653575647e-12,6.5606762263777220e-11,2.3809894136494432e-09,1.1529335485161772e-08
6.9197222272152387e-02,-1.6705212836066296e+03,9.6610716125765502e-15,4.7435584329208993e-13,2.6946865714669098e-12,3.9992857887664638e-11,1.4666537743503473e-09,7.1764674903438899e-09
6.8443928081643277e-02,-1.6591075370477126e+03,5.9218978370435417e-15,2.9296018345839992e-13,1.6768002768608717e-12,2.4253304746060119e-11,8.9868087635254940e-10,4.4430175612884175e-09
6.7698834395703886e-02,-1.6477443228716677e+03,3.6165681514664300e-15,1.8025555512645665e-13,1.0394550461551707e-12,1.4632349205747426e-11,5.4776226646825183e-10,2.7359497701176084e-09
6.6961851942073727e-02,-1.6364318935016315e+03,2.2005565285747873e-15,1.1049555133846497e-13,6.4192177384326109e-13,8.7823722281684519e-12,3.3211490728185965e-10,1.6757254004405658e-09
6.6232892420327219e-02,-1.6251704898763378e+03,1.3340390376357457e-15,6.7480355154268641e-14,3.9492191188178982e-13,5.2440191934781086e-12,2.0030656171477357e-10,1.0208549368019396e-09
6.5511868491294034e-02,-1.6139603416702444e+03,8.0575810126617544e-16,4.1056951845637607e-14,2.4204369593067267e-13,3.1150954220416420e-12,1.2017479974097208e-10,6.1857649429468465e-10
6.4798693766594875e-02,-1.6028016675102340e+03,4.8488746391527212e-16,2.4887035255086610e-14,1.4778502173690900e-13,1.8409122433825940e-12,7.1720599627910944e-11,3.7281441053607267e-10
