djean032/levmar/conformance/nist_nls/corpus/hahn1/jacobian_certified.csv
j1,j2,j3,j4,j5,j6,j7
9.9909405518796668e-01,2.4387885887138268e+01,5.9530829450504518e+02,1.4531475468868151e+04,-1.2105268060910342e+01,-2.9548959336682151e+02,-7.2129009740841129e+03
9.2094710698249982e-01,3.2067378265130642e+01,1.1165861111918489e+03,3.8879528391700180e+04,-5.0196356952276219e+01,-1.7478371490782579e+03,-6.0859689530904936e+04
8.3123401649548678e-01,3.6649107787286013e+01,1.6158591623414404e+03,7.1243230467634115e+04,-1.0630344652944997e+02,-4.6869189574834490e+03,-2.0664625683544527e+05
8.2123199210483844e-01,3.7012925884165064e+01,1.6681725695993196e+03,7.5184537711841345e+04,-1.1301187459937150e+02,-5.0934451881936739e+03,-2.2956157463188891e+05
7.1948081078580028e-01,3.9557054977003297e+01,2.1748468826356411e+03,1.1957308160730754e+05,-1.8349182008402275e+02,-1.0088380268219571e+04,-5.5465914714671194e+05
6.1718606388080288e-01,4.0431859044831405e+01,2.6486910860269054e+03,1.7351575304562258e+05,-2.5393075875159394e+02,-1.6635004005816922e+04,-1.0897591124210665e+06
5.7240319428263764e-01,4.0371597292754437e+01,2.8474087570579704e+03,2.0082773963529867e+05,-2.8311297089182017e+02,-1.9967957837000078e+04,-1.4083400662436155e+06
5.2941711356557586e-01,4.0076875496914099e+01,3.0338194751163974e+03,2.2966013426631130e+05,-3.0951913568906230e+02,-2.3430598571662016e+04,-1.7736963118748148e+06
4.3005657189814833e-01,3.8520167144917139e+01,3.4502513711702281e+03,3.0903901531571726e+05,-3.6191775759337634e+02,-3.2416973547638710e+04,-2.9035883206619988e+06
4.2021408629091916e-01,3.8298311824554368e+01,3.4905081396898859e+03,3.1812491185133619e+05,-3.6627350631348554e+02,-3.3382167365411078e+04,-3.0424507336835661e+06
3.8916165301759714e-01,3.7515183350896365e+01,3.6164636750264099e+03,3.4862709827254596e+05,-3.7881019998048180e+02,-3.6517303278118452e+04,-3.5202680360106188e+06
3.8474450314850411e-01,3.7393318261003110e+01,3.6342566017868926e+03,3.5321339912766812e+05,-3.8043498902571264e+02,-3.6974476583409014e+04,-3.5935493791415216e+06
3.0318166898630983e-01,3.4641537498375762e+01,3.9581420745644145e+03,4.5225731343973003e+05,-4.0204482936826008e+02,-4.5937642203617397e+04,-5.2488349981853236e+06
2.8001014189186796e-01,3.3671219562497122e+01,4.0489641523902787e+03,4.8688793932493101e+05,-4.0478466624859431e+02,-4.8675356116393457e+04,-5.8532115729963137e+06
2.5643096573543817e-01,3.2587247125659481e+01,4.1411873647288066e+03,5.2626209030973678e+05,-4.0571017842601947e+02,-5.1557649474378552e+04,-6.5519460952040274e+06
2.3655064716557142e-01,3.1591338928962067e+01,4.2190233139628845e+03,5.6345056357974326e+05,-4.0486705734231941e+02,-5.4069995508066771e+04,-7.2210479001023173e+06
2.3637649783468262e-01,3.1582263875691947e+01,4.2197062764312013e+03,5.6379495559397293e+05,-4.0485261975112434e+02,-5.4092358524947726e+04,-7.2272800225182669e+06
1.7699783977840322e-01,2.8084247237639236e+01,4.4561275091962170e+03,7.0705375188416371e+05,-3.9166181203149353e+02,-6.2144979715037080e+04,-9.8605439313849322e+06
1.5272937407441159e-01,2.6382472077613858e+01,4.5573082266870179e+03,7.8722942307791556e+05,-3.8063877852211891e+02,-6.5751542601910827e+04,-1.1357921469054079e+07
1.5496527944934524e-01,2.6547102022467332e+01,4.5477840474688792e+03,7.7908088517189363e+05,-3.8181708770316061e+02,-6.5409085294428434e+04,-1.1205230401788536e+07
1.1564906082882100e-01,2.3377301155937875e+01,4.7254876556612817e+03,9.5521007471537136e+05,-3.5543147952209779e+02,-7.1846919270596845e+04,-1.4523136261358444e+07
9.8925648112226414e-02,2.1818051691151535e+01,4.8119713004834721e+03,1.0612802703216297e+06,-3.3991511080399420e+02,-7.4968277687820912e+04,-1.6534253644048905e+07
9.8523849928720625e-02,2.1778697026743696e+01,4.8141809777616945e+03,1.0641747051342227e+06,-3.3950445743728039e+02,-7.5047460316510842e+04,-1.6589241102964722e+07
9.8252048292658628e-02,2.1752020971511691e+01,4.8156799228829732e+03,1.0661433781270615e+06,-3.3922559139897442e+02,-7.5101153679818948e+04,-1.6626644413175117e+07
7.8370812856311686e-02,1.9670290318805673e+01,4.9370461671170360e+03,1.2391492174847049e+06,-3.1626511293130147e+02,-7.9379380694627354e+04,-1.9923430760544524e+07
6.9166692899089929e-02,1.8605148722926202e+01,5.0045989549799187e+03,1.3461870729000485e+06,-3.0368184589917189e+02,-8.1687379728418236e+04,-2.1973088273147222e+07
6.7882844659420669e-02,1.8450557178430540e+01,5.0148614410974205e+03,1.3630393396902790e+06,-3.0181323672214899e+02,-8.2032837741080089e+04,-2.2296525298025567e+07
6.7806374185578874e-02,1.8441299587251887e+01,5.0154802487448969e+03,1.3640601632511497e+06,-3.0170101046879898e+02,-8.2053623817199288e+04,-2.2316124069563694e+07
5.0258630997607676e-02,1.6148600725841323e+01,5.1887068992200757e+03,1.6671834137884025e+06,-2.7287898612230418e+02,-8.7678747030957558e+04,-2.8172058208516970e+07
5.0152581195690549e-02,1.6133583844841695e+01,5.1900125870471238e+03,1.6695751491271893e+06,-2.7268415822512372e+02,-8.7719766859440046e+04,-2.8218571801013269e+07
4.7884154824403689e-02,1.5808474873728635e+01,5.2190098948127716e+03,1.7230039266734882e+06,-2.6844975784798817e+02,-8.8626003055934809e+04,-2.9258988648886316e+07
4.7146012542860168e-02,1.5701036557148720e+01,5.2289162046272377e+03,1.7413859636270087e+06,-2.6704373456157975e+02,-8.8933574921042891e+04,-2.9617548455954913e+07
4.7035240607424360e-02,1.5684841685357801e+01,5.2304241568162661e+03,1.7441895435735204e+06,-2.6683151775913228e+02,-8.8980306227137844e+04,-2.9672262717563663e+07
4.5257055577338515e-02,1.5422246829089646e+01,5.2554390519488788e+03,1.7908959657326192e+06,-2.6338066776025437e+02,-8.9752230152661898e+04,-3.0584867469122589e+07
4.4128175872045240e-02,1.5252903990172436e+01,5.2721662642031024e+03,1.8223242692218020e+06,-2.6114587112012060e+02,-9.0265070352669674e+04,-3.1200121567400269e+07
3.8550910322124654e-02,1.4383730150287930e+01,5.3667135563739303e+03,2.0023744950186771e+06,-2.4957564782785028e+02,-9.3119169961049221e+04,-3.4743693504167072e+07
3.8427635607029664e-02,1.4363865913551619e+01,5.3690694398264595e+03,2.0069044659127325e+06,-2.4930955516544665e+02,-9.3189418625292310e+04,-3.4833272787948012e+07
3.2445577359122568e-02,1.3361737668033854e+01,5.5026308064497016e+03,2.2660934187121158e+06,-2.3582577037329671e+02,-9.7117768755131037e+04,-3.9995039528738059e+07
3.1423405521308671e-02,1.3182432850244201e+01,5.5301624050059445e+03,2.3199584305240433e+06,-2.3340697569449014e+02,-9.7916560373595566e+04,-4.1076976242327072e+07
3.1156198551945982e-02,1.3135141747514906e+01,5.5376444093348082e+03,2.3346155065314616e+06,-2.3276908394199759e+02,-9.8133118099106752e+04,-4.1371941259402409e+07
3.1101435759981637e-02,1.3125427919427450e+01,5.5391930905567724e+03,2.3376502680767691e+06,-2.3263806517492108e+02,-9.8177916265120191e+04,-4.1433044222206026e+07
3.1044299336396453e-02,1.3115285140647410e+01,5.5408145133693124e+03,2.3408279074631333e+06,-2.3250126393288164e+02,-9.8224808973724517e+04,-4.1497035047129400e+07
3.1026559632112642e-02,1.3112134366127124e+01,5.5413191044689838e+03,2.3418168667396372e+06,-2.3245876839155196e+02,-9.8239400109953771e+04,-4.1516952880467564e+07
2.8753253329383256e-02,1.2701749658255054e+01,5.6109979115341703e+03,2.4786583274202198e+06,-2.2692927330443453e+02,-1.0024600648223396e+05,-4.4283673363526851e+07
2.8134688301071433e-02,1.2587740892782371e+01,5.6318811528397609e+03,2.5197599465920376e+06,-2.2539636208299481e+02,-1.0084458635955272e+05,-4.5118876383127488e+07
2.7996881300009605e-02,1.2562200639314309e+01,5.6366594268603303e+03,2.5291690848322306e+06,-2.2505324055595611e+02,-1.0098138903745750e+05,-4.5310349261107184e+07
2.5612584853482671e-02,1.2111935251363420e+01,5.7276130610172477e+03,2.7085309404244460e+06,-2.1902788434495830e+02,-1.0357609622788733e+05,-4.8980100145205639e+07
2.5269814710657253e-02,1.2045867974423206e+01,5.7421448047277981e+03,2.7372230069656940e+06,-2.1814870387752413e+02,-1.0398930565137698e+05,-4.9570662110954888e+07
2.1697764186552823e-02,1.1336430854548254e+01,5.9229450285758257e+03,3.0945610890800119e+06,-2.0884186861685615e+02,-1.0911361109624883e+05,-5.7008588389457129e+07
2.1687547108025756e-02,1.1334345869596421e+01,5.9235558383684811e+03,3.0957687522481354e+06,-2.0881500097752544e+02,-1.0913089581087435e+05,-5.7033988768679157e+07
2.1564937333409070e-02,1.1309300085759718e+01,5.9309362439749684e+03,3.1103608944277926e+06,-2.0849254190635671e+02,-1.0933974375195065e+05,-5.7341041815835476e+07
2.0149819202793635e-02,1.1016913649127419e+01,6.0234975376604161e+03,3.2933472787158326e+06,-2.0477243544164335e+02,-1.1195932907771850e+05,-6.1213763173242584e+07
1.9985323196345845e-02,1.0982534656087932e+01,6.0352322695600005e+03,3.3165411890913071e+06,-2.0434113827083027e+02,-1.1229158571396937e+05,-6.1707595097397581e+07
1.8571034573392136e-02,1.0683730479726762e+01,6.1462433076820089e+03,3.5358723124763831e+06,-2.0066133664157883e+02,-1.1543846035653388e+05,-6.6410591858510375e+07
1.8534682100540937e-02,1.0675976889911581e+01,6.1493626885890708e+03,3.5420329086273047e+06,-2.0056772719595219e+02,-1.1552701086486844e+05,-6.6543558258164227e+07
1.6292604588953558e-02,1.0191838800619898e+01,6.3755047617277769e+03,3.9881970036988105e+06,-1.9498581006364168e+02,-1.2197337348531102e+05,-7.6300443783736318e+07
1.0198128645404758e+00,2.0549229220490588e+01,4.1406696879288529e+02,8.3434494211766378e+03,-5.2990958973968505e+00,-1.0677678233254652e+02,-2.1515521640008119e+03
9.7040520776126460e-01,2.7928261879369195e+01,8.0377537688824543e+02,2.3132655346843705e+04,-2.4316460037352325e+01,-6.9982771987499996e+02,-2.0141041778002498e+04
9.6451950788342111e-01,2.8520841848112763e+01,8.4336129344869437e+02,2.4938193447277896e+04,-2.7118056494142053e+01,-8.0188093053178056e+02,-2.3711619115824753e+04
8.9712820703619922e-01,3.3561566225224212e+01,1.2555381924856376e+03,4.6969683780887703e+04,-6.4190434944331415e+01,-2.4013641712674380e+03,-8.9835033647114848e+04
8.8077039662581702e-01,3.4455737916001958e+01,1.3479084672739964e+03,5.2730179239758734e+04,-7.4235736255975269e+01,-2.9041020023337524e+03,-1.1360847033129638e+05
7.6800078204594080e-01,3.8584359289988072e+01,1.9384782107290007e+03,9.7389145307024999e+04,-1.4955456685894021e+02,-7.5136214389931565e+03,-3.7748434109501616e+05
6.5610829574155627e-01,4.0271927192616729e+01,2.4718908910828150e+03,1.5172466289466320e+05,-2.2756202488354882e+02,-1.3967757087352225e+04,-8.5734093002167973e+05
6.1040363321114133e-01,4.0439240700238116e+01,2.6790996963907751e+03,1.7749035488588884e+05,-2.5844070058155916e+02,-1.7121696413528298e+04,-1.1343123873962497e+06
5.4797324055553376e-01,4.0232195321587284e+01,2.9538477805109383e+03,2.1687150404511311e+05,-2.9834269464901195e+02,-2.1904320641130456e+04,-1.6082152214717981e+06
3.9415618840456013e-01,3.7649799116403578e+01,3.5963088115988699e+03,3.4351941768392402e+05,-3.7692371310029409e+02,-3.6003753075340086e+04,-3.4390784937564856e+06
3.3334176988642950e-01,3.5774238744211608e+01,3.8392913020287901e+03,4.1203274253372970e+05,-3.9605978378407661e+02,-4.2505135995707104e+04,-4.5616511950592855e+06
2.7355271152479194e-01,3.3384372914485610e+01,4.0742288704838243e+03,4.9721889135384589e+05,-4.0523363703631026e+02,-4.9454713063911317e+04,-6.0354531823197370e+06
2.3516246451278963e-01,3.1518825118649193e+01,4.2244681306525517e+03,5.6620546355136146e+05,-4.0474844352818769e+02,-5.4248433886082996e+04,-7.2709175937517053e+06
1.6862174789274523e-01,2.7517383038617091e+01,4.4905617380719232e+03,7.3281477003595722e+05,-3.8828276255652918e+02,-6.3363864021599999e+04,-1.0340348969684903e+07
1.6810419916600888e-01,2.7481674479659130e+01,4.4927041439346749e+03,7.3446727345044061e+05,-3.8805979494758367e+02,-6.3440015278030973e+04,-1.0371173697652504e+07
1.4824982921058230e-01,2.6047494992299306e+01,4.5765448701469877e+03,8.0409893368482566e+05,-3.7817145156690987e+02,-6.6444724040306042e+04,-1.1674338013881773e+07
1.4227553572069712e-01,2.5589677854724588e+01,4.6025594589507646e+03,8.2781634428688465e+05,-3.7465195424677887e+02,-6.7384900490825661e+04,-1.2119848202279903e+07
1.0686038036836872e-01,2.2576392560425262e+01,4.7697144562410449e+03,1.0076975731700456e+06,-3.4764910607551059e+02,-7.3447826640573126e+04,-1.5517322334353887e+07
1.0119756909421630e-01,2.2038806597338425e+01,4.7996113007683625e+03,1.0452593490813341e+06,-3.4220186643691227e+02,-7.4524722472630747e+04,-1.6229994060089525e+07
1.0007228306109911e-01,2.1929840110009255e+01,4.8057051617074285e+03,1.0531222291365657e+06,-3.4107667261837554e+02,-7.4743542037590800e+04,-1.6379299802117649e+07
7.2271341779739401e-02,1.8972672644017187e+01,4.9807060225073910e+03,1.3075349450286403e+06,-3.0808221441029912e+02,-8.0877742926991719e+04,-2.1232025073193863e+07
6.9623400354368620e-02,1.8659767528974335e+01,5.0010042954404107e+03,1.3403191612209845e+06,-3.0433956918926839e+02,-8.1566047938415824e+04,-2.1860516507974826e+07
6.9338570832526675e-02,1.8625726897033317e+01,5.0032427590810894e+03,1.3439710699443624e+06,-3.0392980236214237e+02,-8.1641623510518693e+04,-2.1930572907395530e+07
4.6344970662763371e-02,1.5583496385354183e+01,5.2399506595753437e+03,1.7619334092822094e+06,-2.6550187275047000e+02,-8.9275004712345530e+04,-3.0018720334526189e+07
4.6105530306940437e-02,1.5548167985409524e+01,5.2433086897196545e+03,1.7682009894341591e+06,-2.6503771775960996e+02,-8.9378669560073278e+04,-3.0141168735743511e+07
4.5599126221209298e-02,1.5473151500642949e+01,5.2505044987131714e+03,1.7816536915483405e+06,-2.6405103907267051e+02,-8.9600439088529281e+04,-3.0404116995910641e+07
3.0432205667936117e-02,1.3006116058362537e+01,5.5585538810229809e+03,2.3756147576716016e+06,-2.3102910426201967e+02,-9.8737218579501976e+04,-4.2198312476507552e+07
3.0285704368481648e-02,1.2979847178243865e+01,5.5629029036517550e+03,2.3841489264470693e+06,-2.3067495590892520e+02,-9.8862672603447165e+04,-4.2370564224385381e+07
2.9794049731466814e-02,1.2891289437811063e+01,5.5778031139520908e+03,2.4134038513447908e+06,-2.2948139629877974e+02,-9.9292010550556020e+04,-4.2961667125014581e+07
2.1261491570488931e-02,1.1247116425872941e+01,5.9496121181225262e+03,3.1472853143656347e+06,-2.0769431060911197e+02,-1.0986821336911414e+05,-5.8119186190127686e+07
2.1124966277298301e-02,1.1219047090547582e+01,5.9582115288480099e+03,3.1642869787406009e+06,-2.0733514887810867e+02,-1.1011155086618595e+05,-5.8478042434014037e+07
1.6181801439266952e-02,1.0167673116348997e+01,6.3887557259267296e+03,4.0143107728288015e+06,-1.9472428184417467e+02,-1.2235305525396872e+05,-7.6879318738278702e+07
7.7119141854101264e-02,1.9529651483132607e+01,4.9456889415885016e+03,1.2524462675678721e+06,-3.1463388523712581e+02,-7.9677885097449762e+04,-2.0177627622078177e+07
6.7288161777681987e-02,1.8378415626338281e+01,5.0196966600217747e+03,1.3710297487517474e+06,-3.0093772491098190e+02,-8.2195120804936480e+04,-2.2449953345452301e+07
6.7053456769575789e-02,1.8349848979562111e+01,5.0216196717469684e+03,1.3742164393702755e+06,-3.0059042799028634e+02,-8.2259576523821757e+04,-2.2511155711509068e+07
6.3482648133666122e-02,1.7908455038507213e+01,5.0519751663628858e+03,1.4251621944309701e+06,-2.9518102066722491e+02,-8.3270565930224155e+04,-2.3490626648916233e+07
4.3909224537236759e-02,1.5219815409097006e+01,5.2754924171012044e+03,1.8285911816156195e+06,-2.6070838417022549e+02,-9.0366740121083552e+04,-3.1322919460769981e+07
4.3781383636826120e-02,1.5200458584869660e+01,5.2774472160808973e+03,1.8322768989511267e+06,-2.6045233282146637e+02,-9.0426445432284905e+04,-3.1395157589635000e+07
4.3427951150429668e-02,1.5146800802246860e+01,5.2829011838076594e+03,1.8425702748884354e+06,-2.5974208673317384e+02,-9.0592845010796358e+04,-3.1596972482865557e+07
4.2903178296122543e-02,1.5066738154032315e+01,5.2911371049330683e+03,1.8581415285103950e+06,-2.5868108788617531e+02,-9.0843624443867055e+04,-3.1902464032197230e+07
2.7848624457124931e-02,1.2534665868151933e+01,5.6418531072551850e+03,2.5393980835755588e+06,-2.2468345115567860e+02,-1.0113002136517093e+05,-4.5518622616463438e+07
2.7822291338790456e-02,1.2529768904424284e+01,5.6427814261074764e+03,2.5412266152475020e+06,-2.2461769972629898e+02,-1.0115658107173875e+05,-4.5555866285657547e+07
2.7657889276972873e-02,1.2499153322049581e+01,5.6486173693006467e+03,2.5527231615343485e+06,-2.2420672666480257e+02,-1.0132350391435759e+05,-4.5790117888976485e+07
2.7283065770368559e-02,1.2429073442349100e+01,5.6621886973965566e+03,2.5794666829859754e+06,-2.2326669860161039e+02,-1.0171137721494962e+05,-4.6335635004042447e+07
1.9828472177585571e-02,1.0949678905906305e+01,6.0466316854195802e+03,3.3390709493224006e+06,-2.0393032338634842e+02,-1.1261440318040932e+05,-6.2187925724285640e+07
1.9751176020263314e-02,1.0933460997776958e+01,6.0523266699294118e+03,3.3503259514061250e+06,-2.0372805179086228e+02,-1.1277570034934970e+05,-6.2428116685386017e+07
1.9626598937697297e-02,1.0907286093635896e+01,6.0616151736772126e+03,3.3686820166193740e+06,-2.0340232798525398e+02,-1.1303880975452505e+05,-6.2820188132979758e+07
1.5277780331488919e-02,9.9701266665263546e+00,6.5064049613084344e+03,4.2460148137002718e+06,-1.9267132961290648e+02,-1.2573538299208666e+05,-8.2053653586805820e+07
1.5151722782123178e-02,9.9425604896292299e+00,6.5243081932947016e+03,4.2812510364399832e+06,-1.9239860919182763e+02,-1.2625196735167732e+05,-8.2846540976170659e+07
1.0349024078478302e+00,1.4623171022889840e+01,2.0662540655343349e+02,2.9196169946000155e+03,-2.3583039527795742e+00,-3.3322834852775387e+01,-4.7085165646971620e+02
1.0187746870114502e+00,2.0793191361903698e+01,4.2438903569645447e+02,8.6617802185646378e+03,-5.5839661211847140e+00,-1.1396874853338001e+02,-2.3261021575662862e+03
9.5097099139476882e-01,2.9765392030656262e+01,9.3165677055954109e+02,2.9160856918513637e+04,-3.3882044203947970e+01,-1.0605079835835716e+03,-3.3193899886165789e+04
9.2960458507486476e-01,3.1457819158933425e+01,1.0645326003383072e+03,3.6023783195448319e+04,-4.5325096653287062e+01,-1.5338012707472344e+03,-5.1903835002086416e+04
8.7512660294400113e-01,3.4742526136876847e+01,1.3792782876340109e+03,5.4757348019070239e+04,-7.7772998552728254e+01,-3.0875880425433115e+03,-1.2257724528896947e+05
7.8254432292282294e-01,3.8211639288321443e+01,1.8658743464487361e+03,9.1110644337091784e+04,-1.3946148469819391e+02,-6.8099042978128091e+03,-3.3252762686219951e+05
7.2435033547079186e-01,3.9477093283158155e+01,2.1515015839321195e+03,1.1725683632430052e+05,-1.8007975709353011e+02,-9.8143467615973914e+03,-5.3488189850705781e+05
6.6549563107557341e-01,4.0202591073275386e+01,2.4286385267365663e+03,1.4671405340015594e+05,-2.2110061562652177e+02,-1.3356688189998180e+04,-8.0687753355778998e+05
5.5337967321220549e-01,4.0269438819652194e+01,2.9304070629060902e+03,2.1324572196767616e+05,-2.9502041419090324e+02,-2.1468635540672032e+04,-1.5622726082947038e+06
5.3302910452040786e-01,4.0110440115160692e+01,3.0183106186658424e+03,2.2712787405460462e+05,-3.0737217213670027e+02,-2.3129755953286694e+04,-1.7405141354848237e+06
4.4782649708731642e-01,3.8889253007062557e+01,3.3771427311333127e+03,2.9327107477161690e+05,-3.5362561110921848e+02,-3.0708848068724536e+04,-2.6667563662880384e+06
3.9783825895732849e-01,3.7746894009871326e+01,3.5814253036565910e+03,3.3980563281093730e+05,-3.7550005207378325e+02,-3.5627444940760550e+04,-3.3803319759793608e+06
3.8916165301759714e-01,3.7515183350896365e+01,3.6164636750264099e+03,3.4862709827254596e+05,-3.7881019998048180e+02,-3.6517303278118452e+04,-3.5202680360106188e+06
2.9084142814332598e-01,3.4136058421182170e+01,4.0065491768941515e+03,4.7024867689206661e+05,-4.0371792598637245e+02,-4.7384372973020530e+04,-5.5615038558434211e+06
2.2122701040716758e-01,3.0768252607428870e+01,4.2792485726412078e+03,5.9515789148293925e+05,-4.0309840868456570e+02,-5.6062926679849406e+04,-7.7972318426334560e+06
1.9994304135199809e-01,2.9537585498930678e+01,4.3635875057570283e+03,6.4463278222548589e+05,-3.9885336488121663e+02,-5.8922607593902132e+04,-8.7046368198471628e+06
1.7707464347392615e-01,2.8089350694268905e+01,4.4558137006318766e+03,7.0682572733123449e+05,-3.9169083635216043e+02,-6.2133917370543197e+04,-9.8563033124892674e+06
1.7106189685081163e-01,2.7684657386335353e+01,4.4804849514045136e+03,7.2512168453530641e+05,-3.8931147690785474e+02,-6.3006169422767212e+04,-1.0196918459380645e+07
1.2662257698841811e-01,2.4325463265245006e+01,4.6731647478862187e+03,8.9776167971642141e+05,-3.6409736335341654e+02,-6.9946744473824860e+04,-1.3437469080866495e+07
1.1107049967819534e-01,2.2964936513463666e+01,4.7482302735237472e+03,9.8174409135377011e+05,-3.5147556395345265e+02,-7.2671087603015869e+04,-1.5025474072799562e+07
1.0888331238582392e-01,2.2764234120504206e+01,4.7593184275738140e+03,9.9503070365285734e+05,-3.4951081492599127e+02,-7.3072226076576990e+04,-1.5277210305829950e+07
1.0502625936726494e-01,2.2404201648224955e+01,4.7792642955993470e+03,1.0195126595372527e+06,-3.4592338040047446e+02,-7.3792375507029195e+04,-1.5741389543159470e+07
9.4346264219931170e-02,2.1363768069961214e+01,4.8376116417620169e+03,1.0954287801605912e+06,-3.3512080762586237e+02,-7.5884755678800269e+04,-1.7183344075907532e+07
8.6831307059827237e-02,2.0589439530026237e+01,4.8821679013598214e+03,1.1576596527704408e+06,-3.2668504492858909e+02,-7.7463557853467049e+04,-1.8368158838214107e+07
4.7688245404069844e-02,1.5780040404206710e+01,5.2216153697520003e+03,1.7278325258509368e+06,-2.6807795596905248e+02,-8.8706995630159465e+04,-2.9353144854019769e+07
4.1319907694282551e-02,1.4822277288093037e+01,5.3170473087847349e+03,1.9073312106072600e+06,-2.5543268928910354e+02,-9.1628814301787235e+04,-3.2869088266337119e+07
3.8980126662044805e-02,1.4452661562486350e+01,5.3586133275230632e+03,1.9868130634457262e+06,-2.5049852848580323e+02,-9.2877339406681262e+04,-3.4436131131815210e+07
3.8621905641312348e-02,1.4395156670629939e+01,5.3653627942771918e+03,1.9997780206829947e+06,-2.4972868400637469e+02,-9.3078875102855978e+04,-3.4692358328336485e+07
3.4695688190945533e-02,1.3747819488780257e+01,5.4474359942342899e+03,2.1584920383553947e+06,-2.4103104335343934e+02,-9.5506140618366800e+04,-3.7843353158621661e+07
3.1805085620073385e-02,1.3249680618466371e+01,5.5196844488469051e+03,2.2994453445451320e+06,-2.3431412539020397e+02,-9.7612921496305076e+04,-4.0664566966145724e+07
2.4630726023458765e-02,1.1921764009874511e+01,5.7703722160594607e+03,2.7929755600171001e+06,-2.1650167416385341e+02,-1.0479114032878833e+05,-5.0721007741940118e+07
2.3687262326148324e-02,1.1736327864736710e+01,5.8149983671410982e+03,2.8811572409674004e+06,-2.1405334770153090e+02,-1.0605701218567752e+05,-5.2548067827637650e+07
2.2233332414872204e-02,1.1445274860527912e+01,5.8917985927025584e+03,3.0329800795514230e+06,-2.1024931428317993e+02,-1.0823214200669537e+05,-5.5715742062206641e+07
2.2171562603956890e-02,1.1432766256730371e+01,5.8953059202830154e+03,3.0399144977939371e+06,-2.1008710023429319e+02,-1.0833141323581329e+05,-5.5861093235047117e+07
2.1903929528550001e-02,1.1378434272195870e+01,5.9107552513775881e+03,3.0704600304331160e+06,-2.0938389813334146e+02,-1.0876865356332688e+05,-5.6502052466541417e+07
2.0286581728336171e-02,1.1045435153627196e+01,6.0139080780953991e+03,3.2743925312806019e+06,-2.0513132316648341e+02,-1.1168785152445523e+05,-6.0810684519520126e+07
1.9381170878560065e-02,1.0855587620790280e+01,6.0803231822808430e+03,3.4056498176273233e+06,-2.0276174212593025e+02,-1.1356887938215480e+05,-6.3611065030738726e+07
1.6485912908609578e-02,1.0233960156277567e+01,6.3529354462124247e+03,3.9437117369452869e+06,-1.9544637865968105e+02,-1.2132724848057020e+05,-7.5316316039283574e+07
1.0241355173479634e+00,1.9427850764090866e+01,3.6854632899480373e+02,6.9913238610314256e+03,-4.1970141128651806e+00,-7.9617357721052457e+01,-1.5103412759683652e+03
9.6930287735937770e-01,2.8041932242006798e+01,8.1125309976125664e+02,2.3469552176093152e+04,-2.4834427326207969e+01,-7.1845998254719643e+02,-2.0785047295090393e+04
9.2899332834238679e-01,3.1502163764090330e+01,1.0682383732403030e+03,3.6223963236578667e+04,-4.5664891081051358e+01,-1.5484964565584514e+03,-5.2509514841897078e+04
8.7189607117056012e-01,3.4901999728957520e+01,1.3971270491501698e+03,5.5926995777481294e+04,-7.9812993894867418e+01,-3.1949141456115426e+03,-1.2789241324883007e+05
8.2542275255036046e-01,3.6863380128899095e+01,1.6463185565566334e+03,7.3524586735819248e+04,-1.1019336077257131e+02,-4.9212354921030355e+03,-2.1978237707732152e+05
7.7181553015933790e-01,3.8490440489046179e+01,1.9195182671887326e+03,9.5726375984702099e+04,-1.4690143773002768e+02,-7.3259746995964788e+03,-3.6534635826887639e+05
7.1765809879731912e-01,3.9586020729660120e+01,2.1835649034480521e+03,1.2044544007419454e+05,-1.8476874482442545e+02,-1.0191843964515308e+04,-5.6218211308266444e+05
6.6074263043456616e-01,4.0239226193465079e+01,2.4505688751820235e+03,1.4923964449858523e+05,-2.2437623607897621e+02,-1.3664512777209651e+04,-8.3216882813206769e+05
5.5917500108873075e-01,4.0305334078475717e+01,2.9052084803765292e+03,2.0940742726554023e+05,-2.9142797081034217e+02,-2.1006128136009462e+04,-1.5141217160435622e+06
4.5925371103254398e-01,3.9105453494421120e+01,3.3298293650499586e+03,2.8353497043400403e+05,-3.4801816474969735e+02,-2.9633746728436730e+04,-2.5233135339263878e+06
3.8546708054190409e-01,3.7413434837397212e+01,3.6313479853177737e+03,3.5245863545494317e+05,-3.8017203360184993e+02,-3.6899497581395561e+04,-3.5814652352502532e+06
2.8229512862180423e-01,3.3770966237026443e+01,4.0400206909354724e+03,4.8330767525661062e+05,-4.0459189287322260e+02,-4.8401328144423620e+04,-5.7902508859173972e+06
2.3736572296328079e-01,3.1633729899316435e+01,4.2158271836819013e+03,5.6184328876928706e+05,-4.0493294828728506e+02,-5.3965414018246483e+04,-7.1919707262117099e+06
2.0913675753993990e-01,3.0082231204544957e+01,4.3270281364617476e+03,6.2239972714865766e+05,-4.0095544064895637e+02,-5.7673430582945883e+04,-8.2957462550509358e+06
1.7093410860610925e-01,2.7675941524415148e+01,4.4810116922180569e+03,7.2552060308702546e+05,-3.8925852084995006e+02,-6.3024847110815419e+04,-1.0204352995712124e+07
1.4115384342502577e-01,2.5502264891599403e+01,4.6074941979652640e+03,8.3243597674638429e+05,-3.7396107563715924e+02,-6.7563547535365564e+04,-1.2206706133214494e+07
1.1952443777606292e-01,2.3718429432281926e+01,4.7066851365420252e+03,9.3399459849539946e+05,-3.5861968805333709e+02,-7.1164490897304204e+04,-1.4121881573661046e+07
9.4032169209166475e-02,2.1332137906791509e+01,4.8394088055347220e+03,1.0978682816236073e+06,-3.3478264736515996e+02,-7.5948791381260191e+04,-1.7229742812752690e+07
9.1985765545567366e-02,2.1124531057539546e+01,4.8512485573639569e+03,1.1140892311986329e+06,-3.3254931588844710e+02,-7.6369950393781895e+04,-1.7538359107932013e+07
7.4430814571844806e-02,1.9223246479470358e+01,4.9647878682528089e+03,1.2822557627336530e+06,-3.1104749285716622e+02,-8.0334235980220328e+04,-2.0747923126611501e+07
6.7004905348305291e-02,1.8343932937205537e+01,5.0220185202187595e+03,1.3748780102802895e+06,-3.0051846095845355e+02,-8.2272939056595831e+04,-2.2523862525524233e+07
4.5642179110138056e-02,1.5479545045203320e+01,5.2498877020807058e+03,1.7804994141606714e+06,-2.6413518944532018e+02,-8.9581449500380331e+04,-3.0381548598053996e+07
4.3131490887804505e-02,1.5101628904546990e+01,5.2875333283490381e+03,1.8513240442548487e+06,-2.5914364459171173e+02,-9.0733964280896020e+04,-3.1768682913670126e+07
4.0512369165939408e-02,1.4695861914944521e+01,5.3309239096461251e+03,1.9337926482241317e+06,-2.5374800941729606e+02,-9.2047090416124149e+04,-3.3390082048449036e+07
3.8932049188422822e-02,1.4444958210380520e+01,5.3595128447974839e+03,1.9885400508052106e+06,-2.5039543180314408e+02,-9.2904217061920543e+04,-3.4470251656484380e+07
3.5146408318970583e-02,1.3823785320017508e+01,5.4371712420692866e+03,2.1385481929306914e+06,-2.4205414352311755e+02,-9.5204735730512592e+04,-3.7445926657525204e+07
2.8014975832694831e-02,1.2565557110238611e+01,5.6360293306553240e+03,2.5279282356788325e+06,-2.2509832681367206e+02,-1.0096335252573634e+05,-4.5285092508368514e+07
2.5531583380239021e-02,1.2096353573889642e+01,5.7310103962374342e+03,2.7152381055293712e+06,-2.1882039526088056e+02,-1.0367272686670000e+05,-4.9118064534905113e+07
2.2496580476453903e-02,1.1498452213125120e+01,5.8770888951725110e+03,3.0038976761005740e+06,-2.1094020369307484e+02,-1.0781575691160442e+05,-5.5106789672659256e+07
2.1546753952519759e-02,1.1305581798887118e+01,5.9320387698760715e+03,3.1125407425539745e+06,-2.0844471548472850e+02,-1.0937094221483705e+05,-5.7386933380124994e+07
2.0031228825741727e-02,1.0992136818125774e+01,6.0319350789465179e+03,3.3100243745719017e+06,-2.0446145549315551e+02,-1.1219822370186908e+05,-6.1568775256400660e+07
1.9862100639107590e-02,1.0956729196557312e+01,6.0441700939888751e+03,3.3342059906480233e+06,-2.0401836167866406e+02,-1.1254468903641823e+05,-6.2084152260049753e+07
1.8636391811816994e-02,1.0697661627819190e+01,6.1406717276007712e+03,3.5248683850773950e+06,-2.0082979431511643e+02,-1.1528031853276314e+05,-6.6173208444176704e+07
1.6360444091587403e-02,1.0206626650977718e+01,6.3675061024789593e+03,3.9724323570925235e+06,-1.9514683521101193e+02,-1.2174430461474191e+05,-7.5951401876952887e+07
1.0142737922289937e+00,2.1766315581234203e+01,4.6710513237328604e+02,1.0024076140730718e+04,-6.8980281245576371e+00,-1.4803168355300693e+02,-3.1767599290475282e+03
9.9955290496977245e-01,2.4319122177914561e+01,5.9168424258866116e+02,1.4395677622182127e+04,-1.1932900136852220e+01,-2.9032746032961444e+02,-7.0636671098195202e+03
9.3316193128148905e-01,3.1195603362740176e+01,1.0428690204164043e+03,3.4863111352520398e+04,-4.3360540850684515e+01,-1.4495428806383836e+03,-4.8458218499741168e+04
8.7980053791440449e-01,3.4505777097002941e+01,1.3533165777444553e+03,5.3077076179137541e+04,-7.4841126793806225e+01,-2.9352689928530808e+03,-1.1512124989969780e+05
8.3031769094031460e-01,3.6683435585743098e+01,1.6206741841781300e+03,7.1601385456989796e+04,-1.0691533464901423e+02,-4.7235194847934481e+03,-2.0868509083817460e+05
7.1907560160179806e-01,3.9563539600130930e+01,2.1767859487992037e+03,1.1976676290293220e+05,-1.8377570907646123e+02,-1.0111339513386896e+04,-5.5632590002654714e+05
4.0103631544520812e-01,3.7829755635946483e+01,3.5684808491388317e+03,3.3661479849926598e+05,-3.7424124630698395e+02,-3.5302176764137803e+04,-3.3300543341611186e+06
3.8893649309259309e-01,3.7509035393849679e+01,3.6173713733828631e+03,3.4885929524904332e+05,-3.7889401947730869e+02,-3.6540539238391655e+04,-3.5239696041504908e+06
2.8531862793008178e-01,3.3901559370652315e+01,4.0281832844209080e+03,4.7862873785489221e+05,-4.0431006851423467e+02,-4.8040122340861359e+04,-5.7081273365411460e+06
2.5193770557977518e-01,3.2368956412889510e+01,4.1587635199280439e+03,5.3431793704035506e+05,-4.0565557730908864e+02,-5.2118628572671703e+04,-6.6962013990168599e+06
2.1384746017935524e-01,3.0353508497857682e+01,4.3083769961859189e+03,6.1153103083862935e+05,-4.0187212657152014e+02,-5.7041729645561558e+04,-8.0965031058910079e+06
1.8040377071099087e-01,2.8308959699968685e+01,4.4422419561190854e+03,6.9707660775420687e+05,-3.9291559420094984e+02,-6.1656315042013041e+04,-9.6751089563926831e+06
1.5442931856607336e-01,2.6507792531866492e+01,4.5500625880948837e+03,7.8101824324648676e+05,-3.8153781812781210e+02,-6.5490966481638949e+04,-1.1241524396573326e+07
1.2912953842186489e-01,2.4534612300154333e+01,4.6615763370293225e+03,8.8569950403557136e+05,-3.6592481377383189e+02,-6.9525714617028061e+04,-1.3209885777235331e+07
9.6777407391979625e-02,2.1606523974333371e+01,4.8238725425096673e+03,1.0769777838407082e+06,-3.3769738491301194e+02,-7.5394318155679051e+04,-1.6832535471436903e+07
9.6295946697860832e-02,2.1558736546717082e+01,4.8265699380790202e+03,1.0805724777371311e+06,-3.3719281376628771e+02,-7.5490727145996498e+04,-1.6900863993445694e+07
9.0666248521883000e-02,2.0989236532815916e+01,4.8590082573468844e+03,1.1248604115758038e+06,-3.3108113392242893e+02,-7.6645282503042297e+04,-1.7743382899454296e+07
7.1031865090108462e-02,1.8826995842133250e+01,4.9900952479574180e+03,1.3226247454711138e+06,-3.0634519776435451e+02,-8.1196794667442155e+04,-2.1521210426605549e+07
6.8958549421605064e-02,1.8580191556157267e+01,5.0062468128910141e+03,1.3488831412653548e+06,-3.0338087774600189e+02,-8.1742943699882744e+04,-2.2024818750496410e+07
6.7891850072970786e-02,1.8451647012831998e+01,5.0147886251474811e+03,1.3629192525425821e+06,-3.0182644595886467e+02,-8.2030391482700245e+04,-2.2294219797168266e+07
6.7141873604735114e-02,1.8360616755950865e+01,5.0208942580823223e+03,1.3730137438151918e+06,-3.0072137703579978e+02,-8.2235267764209799e+04,-2.2488056322800811e+07
4.6750185764222157e-02,1.5643079658566377e+01,5.2343308845528954e+03,1.7514594572802444e+06,-2.6628393908561623e+02,-8.9101268857438045e+04,-2.9814175572387345e+07
4.5489400143350664e-02,1.5456843274709122e+01,5.2520807763134126e+03,1.7846045269835347e+06,-2.6383634608485801e+02,-8.9648952036173912e+04,-3.0461817412371531e+07
4.3265038354491844e-02,1.5121996205661988e+01,5.2854401138029780e+03,1.8473670285764167e+06,-2.5941353110006406e+02,-9.0670217390094389e+04,-3.1691054382185787e+07
4.1430110581967480e-02,1.4839437008249114e+01,5.3151895476146674e+03,1.9037945921646215e+06,-2.5566112166104628e+02,-9.1572700556553566e+04,-3.2799509885346357e+07
3.7682149210083095e-02,1.4243098758427207e+01,5.3836064687103162e+03,2.0348955730431254e+06,-2.4769050499458257e+02,-9.3622057077852325e+04,-3.5387265134286627e+07
3.4921383620766980e-02,1.3785914611970179e+01,5.4422655113674673e+03,2.1484431559225353e+06,-2.4154416529895403e+02,-9.5354390135068097e+04,-3.7643052593620829e+07
3.0154869891089522e-02,1.2956341397405525e+01,5.5668216448092580e+03,2.3918405879087457e+06,-2.3035809565769566e+02,-9.8975659380285506e+04,-4.2525881809333473e+07
2.6045013853814133e-02,1.2194796386632854e+01,5.7098475641492350e+03,2.6734648264859547e+06,-2.2013262649976534e+02,-1.0307049837972013e+05,-4.8259668751352564e+07
2.4356324482374077e-02,1.1868106230526415e+01,5.7829721229486067e+03,2.8178688263491672e+06,-2.1579155543701108e+02,-1.0514875121779238e+05,-5.1235832005893700e+07
2.1899079118050772e-02,1.1377447564992098e+01,5.9110391079159945e+03,3.0710212581266752e+06,-2.0937114884464324e+02,-1.0877668667074594e+05,-5.6513839792919338e+07
2.1659664348418189e-02,1.1328654244153164e+01,5.9252260293194295e+03,3.0990709701149408e+06,-2.0874167583633502e+02,-1.0917815871267831e+05,-5.7103452351492129e+07
1.6810226991020367e-02,1.0304501043225576e+01,6.3165560944868448e+03,3.8719857203594912e+06,-1.9623026414435677e+02,-1.2028718961784923e+05,-7.3734844363845408e+07
1.5787103233592076e-02,1.0081486253939564e+01,6.4379363069032661e+03,4.1112017462253571e+06,-1.9380890445389369e+02,-1.2376442829521197e+05,-7.9034726265039414e+07
1.5683672454227394e-02,1.0058880165243281e+01,6.4513633827804306e+03,4.1376464191800570e+06,-1.9357361690098801e+02,-1.2415037493561766e+05,-7.9625084468707755e+07
1.6433712704638143e-02,1.0222590987920157e+01,6.3589627240357331e+03,3.9555927624864271e+06,-1.9532148944725125e+02,-1.2149973251066265e+05,-7.5578908608257696e+07
1.6058069669662885e-02,1.0140670996392114e+01,6.4038337342216191e+03,4.0440210031609526e+06,-1.9443450287323262e+02,-1.2278538856444639e+05,-7.7538972878447890e+07
1.4887383178089545e-02,9.8847758087561157e+00,6.5631945937397977e+03,4.3577643144054143e+06,-1.9183970785807048e+02,-1.2737581082652305e+05,-8.4573717114486501e+07
1.5480788203685196e-02,1.0014521888963953e+01,6.4783942099707810e+03,4.1908732144300984e+06,-1.9311822468844025e+02,-1.2492817955095200e+05,-8.0816039351510838e+07
1.2534776880888013e-02,9.3796481921996904e+00,7.0186969457411060e+03,5.2520207375286128e+06,-1.8808951547659950e+02,-1.4074550353598464e+05,-1.0531845284094194e+08
1.2513516388525390e-02,9.3752516134471087e+00,7.0240322613107073e+03,5.2624752104965951e+06,-1.8807080073346651e+02,-1.4090452461752045e+05,-1.0556707888869248e+08
1.2492107711193667e-02,9.3708296784748164e+00,7.0294341750110998e+03,5.2730597520428263e+06,-1.8805235148543599e+02,-1.4106559094328494e+05,-1.0581894239019577e+08
1.5475728720148518e-02,1.0013415511084897e+01,6.4790803722923711e+03,4.1922241640880555e+06,-1.9310697696474361e+02,-1.2494793837526769e+05,-8.0846314046333194e+07
1.5481149721406720e-02,1.0014600943280794e+01,6.4783452041989121e+03,4.1907767291442342e+06,-1.9311902858617034e+02,-1.2492676840210773e+05,-8.0813877211639464e+07
1.2567054273847888e-02,9.3863328371369867e+00,7.0106519960576161e+03,5.2362559758554334e+06,-1.8811866707722740e+02,-1.4050583243998111e+05,-1.0494380624942191e+08
1.2531536311491917e-02,9.3789777216098944e+00,7.0195082961844928e+03,5.2536105941133602e+06,-1.8808663780196594e+02,-1.4076968233012536e+05,-1.0535625334633569e+08
1.2556584201101008e-02,9.3841632026928377e+00,7.0132543695324939e+03,5.2413556530701090e+06,-1.8810911402469074e+02,-1.4058334636635263e+05,-1.0506496390689364e+08
1.2512132672218110e-02,9.3749656473128624e+00,7.0243805105621086e+03,5.2631575851488709e+06,-1.8806959623707789e+02,-1.4091490637255536e+05,-1.0558331189776453e+08
1.5455163351742225e-02,1.0008918338221783e+01,6.4818756050158090e+03,4.1977274605642883e+06,-1.9306131448615938e+02,-1.2502843787438166e+05,-8.0969666651828319e+07
1.2546597870089195e-02,9.3820949552952975e+00,7.0157429656707172e+03,5.2462322748692492e+06,-1.8810008887776189e+02,-1.4065748446101276e+05,-1.0518085373025613e+08
1.2483613373584831e-02,9.3690766730091504e+00,7.0315857338600972e+03,5.2772754091193415e+06,-1.8804514246125953e+02,-1.4112975986859988e+05,-1.0591929607898289e+08
1.0587412634808519e-02,9.0138054948969284e+00,7.6740835841903991e+03,6.5334845410721796e+06,-1.8880473899854493e+02,-1.6074269064119121e+05,-1.3685150453119096e+08
1.0670643874732851e-02,9.0270445987077501e+00,7.6366089191687961e+03,6.4603420473492267e+06,-1.8862754022467124e+02,-1.5957324020386513e+05,-1.3499417401526380e+08
1.0646260893649267e-02,9.0231319578034999e+00,7.6474652595167772e+03,6.4815327060508486e+06,-1.8867745995122738e+02,-1.5991169440706325e+05,-1.3553155747776234e+08
1.0609433462577162e-02,9.0172757828482073e+00,7.6640532061161766e+03,6.5139087414743220e+06,-1.8875596884943306e+02,-1.6042936060419862e+05,-1.3635372645832655e+08
1.0583754716033641e-02,9.0132313537214088e+00,7.6757579531426891e+03,6.5367522304758448e+06,-1.8881297473206467e+02,-1.6079501741157359e+05,-1.3693464477787021e+08
1.0612194925862585e-02,9.0177126382517319e+00,7.6628013143544085e+03,6.5114654168726588e+06,-1.8874995021102271e+02,-1.6039027019181653e+05,-1.3629163209549609e+08
1.0593364188096012e-02,9.0147410567859438e+00,7.6713643445037023e+03,6.5281776298857611e+06,-1.8879142137548538e+02,-1.6065772376211055e+05,-1.3671650976708084e+08
1.0635592801710192e-02,9.0214288821946358e+00,7.6522466207439566e+03,6.4908651511136470e+06,-1.8869981370284916e+02,-1.6006084297716778e+05,-1.3576840883852300e+08
