djean032/levmar/conformance/nist_nls/corpus/hahn1/jacobian_start1.csv
j1,j2,j3,j4,j5,j6,j7
2.7715921393726890e+00,6.7654564122087336e+01,1.6514479102201519e+03,4.0311843488473911e+04,-2.8570951593971158e+03,-6.9741692840883610e+04,-1.7023947222459689e+06
2.3298319633659181e+00,8.1124748964401277e+01,2.8247637589404521e+03,9.8358274086306541e+04,-6.6869650754867589e+03,-2.3284012392844891e+05,-8.1074931151885912e+06
1.5297061825896012e+00,6.7444745590375533e+01,2.9736388330796572e+03,1.3110773615048209e+05,-6.4223031850172629e+03,-2.8315934742741118e+05,-1.2484495628074558e+07
1.4571864313467884e+00,6.5675392460799756e+01,2.9599899382082449e+03,1.3340674651504561e+05,-6.2760653720417577e+03,-2.8286226631792204e+05,-1.2748602342948748e+07
9.0284744486578150e-01,4.9638552518720658e+01,2.7291276174792620e+03,1.5004743640900980e+05,-4.6831903599317257e+03,-2.5748180598904629e+05,-1.4156349693277761e+07
5.7639545410729398e-01,3.7759666198568830e+01,2.4736357326682446e+03,1.6204787684709669e+05,-3.4008468487682239e+03,-2.2278947706280637e+05,-1.4594938642384447e+07
4.7684198718618021e-01,3.3631665356241292e+01,2.3720413575756984e+03,1.6730007694981401e+05,-2.9618002422113200e+03,-2.0889577108316444e+05,-1.4733418734495586e+07
3.9813800299831115e-01,3.0139046826972155e+01,2.2815258448017926e+03,1.7271150645149569e+05,-2.5977299673876487e+03,-1.9664815853124502e+05,-1.4886265600815248e+07
2.6139116174508126e-01,2.3412806357506931e+01,2.0970850654418955e+03,1.8783590931163056e+05,-1.9239941749044449e+03,-1.7233215824619110e+05,-1.5435791414111335e+07
2.5047306682468296e-01,2.2828115310401603e+01,2.0805544293900025e+03,1.8962173069460480e+05,-1.8675251857387914e+03,-1.7020624542823347e+05,-1.5512597208329199e+07
2.1847805904903328e-01,2.1061284892326810e+01,2.0303078636203045e+03,1.9572167805299736e+05,-1.6992596816589371e+03,-1.6380863331192153e+05,-1.5791152251269238e+07
2.1420847110696686e-01,2.0818921306886111e+01,2.0233909618162611e+03,1.9665336757892242e+05,-1.6764681591623964e+03,-1.6293594038899330e+05,-1.5835744046406260e+07
1.4597168687170078e-01,1.6678724941960532e+01,1.9057111118684104e+03,2.1774655164208458e+05,-1.2990905747224572e+03,-1.4843408906778795e+05,-1.6960079016885452e+07
1.2972288623392669e-01,1.5599177069629684e+01,1.8758010426229696e+03,2.2556507537541210e+05,-1.2047627125223339e+03,-1.4487271618081065e+05,-1.7420944120742481e+07
1.1437630030133106e-01,1.4534940242293152e+01,1.8471002059906136e+03,2.3472949417728718e+05,-1.1136168031234524e+03,-1.4151842334092833e+05,-1.7984161238165174e+07
1.0228967472469287e-01,1.3660786059482735e+01,1.8243979782439196e+03,2.4364834999447549e+05,-1.0402077414390694e+03,-1.3891974386918775e+05,-1.8552731793730024e+07
1.0218705293215713e-01,1.3653212142265517e+01,1.8242056743280957e+03,2.4373212014697690e+05,-1.0395777030308423e+03,-1.3889797690195084e+05,-1.8558158693869654e+07
7.0185455757117182e-02,1.1136326264981783e+01,1.7670008884646595e+03,2.8037003097268753e+05,-8.3647031748796167e+02,-1.3272274527581484e+05,-2.1059117992913544e+07
5.8658938802000168e-02,1.0132745088657510e+01,1.7503303866146982e+03,3.0235207098382304e+05,-7.5941725451064201e+02,-1.3118173654416829e+05,-2.2660333170639638e+07
5.9686663017400901e-02,1.0224922241510948e+01,1.7516314291932404e+03,3.0007198013509403e+05,-7.6638651136413989e+02,-1.3128967326179083e+05,-2.2491233926477384e+07
4.2564018979469806e-02,8.6038907965100258e+00,1.7391904856065366e+03,3.5155996476050530e+05,-6.4757764004548073e+02,-1.3090134415879348e+05,-2.6460397708258510e+07
3.5859333280512412e-02,7.9087759550170125e+00,1.7442805368790023e+03,3.8470107240866398e+05,-5.9961834975175520e+02,-1.3224582703774961e+05,-2.9166817153175674e+07
3.5702282489127206e-02,7.8919895442215697e+00,1.7445242887501781e+03,3.8562709402822691e+05,-5.9848884381744347e+02,-1.3229595892584589e+05,-2.9244021720558237e+07
3.5596149431729389e-02,7.8806315226905683e+00,1.7446930128084648e+03,3.8625758610566601e+05,-5.9772544879494842e+02,-1.3233043710871361e+05,-2.9296635471498109e+07
2.8062204547849808e-02,7.0433327194648241e+00,1.7678060792584763e+03,4.4370164783308498e+05,-5.4367891528450855e+02,-1.3645797094725881e+05,-3.4249586128052495e+07
2.4726046623289696e-02,6.6510592811986946e+00,1.7890684360496368e+03,4.8124151861299190e+05,-5.2036030708248018e+02,-1.3997171900211633e+05,-3.7650992694379278e+07
2.4268340024444401e-02,6.5961348186439883e+00,1.7928294437074362e+03,4.8729104279968113e+05,-5.1723663961472630e+02,-1.4058491864728261e+05,-3.8210980888331413e+07
2.4241136832007619e-02,6.5928619842011127e+00,1.7930606738431770e+03,4.8765871146512887e+05,-5.1705176734851761e+02,-1.4062256916577634e+05,-3.8245120136016205e+07
1.8180980403593519e-02,5.8417308134786339e+00,1.8770065276788198e+03,6.0310096740848164e+05,-4.7995307347988944e+02,-1.5421372203982327e+05,-4.9550411028615616e+07
1.8145513490542588e-02,5.8372302347726448e+00,1.8777785942240121e+03,6.0406259597592242e+05,-4.7977671331738560e+02,-1.5433937090706977e+05,-4.9649432227095276e+07
1.7390499184875681e-02,5.7412994008948575e+00,1.8954325842114281e+03,6.2575811335156078e+05,-4.7622157301037726e+02,-1.5721979011364593e+05,-5.1904541508119069e+07
1.7146346280039214e-02,5.7102477016414595e+00,1.9016837920776550e+03,6.3331775327562133e+05,-4.7516243272777365e+02,-1.5824334497133043e+05,-5.2699781175802164e+07
1.7109772817817493e-02,5.7055959415576005e+00,1.9026450786312132e+03,6.3447505437115068e+05,-4.7500800844592845e+02,-1.5840092057646377e+05,-5.2821954984633379e+07
1.6525087515172267e-02,5.6312540725452527e+00,1.9189624503012458e+03,6.5392483418915549e+05,-4.7270363404348620e+02,-1.6108321737299877e+05,-5.4892327984196797e+07
1.6156325715544366e-02,5.5844339835779095e+00,1.9302596064237043e+03,6.6719423296035337e+05,-4.7142768210691946e+02,-1.6294897832025672e+05,-5.6323314356396720e+07
1.4364817438631682e-02,5.3596570345278671e+00,1.9997416361526925e+03,7.4612360186493117e+05,-4.6795078167915841e+02,-1.7459711615231083e+05,-6.5143930007588692e+07
1.4325844555922182e-02,5.3548574365581532e+00,2.0015921612110722e+03,7.4817513393908669e+05,-4.6794095205935508e+02,-1.7491164847026634e+05,-6.5380225081700861e+07
1.2474768825818537e-02,5.1373592978485902e+00,2.1156673060400062e+03,8.7127410997339524e+05,-4.7293508693444653e+02,-1.9476412750134373e+05,-8.0207762987603381e+07
1.2167796983033106e-02,5.1045125123522181e+00,2.1413940440568790e+03,8.9833621542230120e+05,-4.7524800879973623e+02,-1.9937129217157737e+05,-8.3638250778898403e+07
1.2088096498897295e-02,5.0962206029701100e+00,2.1485156440061687e+03,9.0579271035656054e+05,-4.7594886144414590e+02,-2.0065528049623745e+05,-8.4594259704408735e+07
1.2071791399244681e-02,5.0945374063092403e+00,2.1499966762106255e+03,9.0734159729440825e+05,-4.7609775798677299e+02,-2.0092277582557793e+05,-8.4793429853910401e+07
1.2054790271124761e-02,5.0927872458420778e+00,2.1515498277509032e+03,9.0896525572992407e+05,-4.7625505235525571e+02,-2.0120347196852491e+05,-8.5002430802542731e+07
1.2049513996749054e-02,5.0922451101661181e+00,2.1520337060073034e+03,9.0947096449574642e+05,-4.7630429562379015e+02,-2.0129095837356997e+05,-8.5067571918254405e+07
1.1382894845338363e-02,5.0283937979282216e+00,2.2212929602347917e+03,9.8125616518371936e+05,-4.8442299567081062e+02,-2.1399385833758058e+05,-9.4531786920626223e+07
1.1205160437624422e-02,5.0133008313975429e+00,2.2430009249755744e+03,1.0035410438433220e+06,-4.8735995178115007e+02,-2.1804971602640438e+05,-9.7557623447373584e+07
1.1165803612019527e-02,5.0100960807131614e+00,2.2480301114159956e+03,1.0086911109923574e+06,-4.8806430345936104e+02,-2.1899445296221529e+05,-9.8262811044146001e+07
1.0500843120411987e-02,4.9657437032116247e+00,2.3482505398117451e+03,1.1104641977715760e+06,-5.0376054503446221e+02,-2.3822332414134682e+05,-1.1265342775320148e+08
1.0408103011703361e-02,4.9614386246488751e+00,2.3650681779838724e+03,1.1274043497631319e+06,-5.0667207396049486e+02,-2.4152551093622830e+05,-1.1513279580819066e+08
9.5029749818250717e-03,4.9650193387541455e+00,2.5940736539188783e+03,1.3553256619629965e+06,-5.5250951918483463e+02,-2.8866964848850050e+05,-1.5082123124578688e+08
9.5005924328403074e-03,4.9651996172510016e+00,2.5949126239677184e+03,1.3561532355380089e+06,-5.5269575924590742e+02,-2.8884985769709619e+05,-1.5095871262965640e+08
9.4721181796517170e-03,4.9674629369547487e+00,2.6050865880271790e+03,1.3661855593590934e+06,-5.5496362829785460e+02,-2.9103957558824384e+05,-1.5262988462574273e+08
9.1612807441106871e-03,5.0089302468425183e+00,2.7386326124611469e+03,1.4973473808631320e+06,-5.8624940046139750e+02,-3.2053185970226914e+05,-1.7525079429221565e+08
9.1275952595723710e-03,5.0158874229928045e+00,2.7563806155572356e+03,1.5147138396671677e+06,-5.9060710541204764e+02,-3.2455632263708249e+05,-1.7835343597875595e+08
8.8654902789548403e-03,5.1002279025799293e+00,2.9341101100752076e+03,1.6879642052251662e+06,-6.3658132680256949e+02,-3.6621887149625021e+05,-2.1068205458307782e+08
8.8595127920024531e-03,5.1030793681934128e+00,2.9393737160794058e+03,1.6930792604617376e+06,-6.3800437880028619e+02,-3.6749052218896488e+05,-2.1167454078084379e+08
8.6021816981681418e-03,5.3810947612890807e+00,3.3661438279243844e+03,2.1056912715580985e+06,-7.6387441392548362e+02,-4.7784163963108620e+05,-2.9891383767122597e+08
2.5618616142476478e+00,5.1621511527090099e+01,1.0401734572708654e+03,2.0959495164007934e+04,-1.3316379336873988e+03,-2.6832504363801083e+04,-5.4067496293059178e+05
2.7363504965516383e+00,7.8752167290756148e+01,2.2664873746279618e+03,6.5229506641792745e+04,-4.8262014619754591e+03,-1.3889807807565373e+05,-3.9974866870173146e+06
2.7024884135804355e+00,7.9912582389573473e+01,2.3630150612596876e+03,6.9874355361448965e+04,-5.1595008426392624e+03,-1.5256643991684300e+05,-4.5113896283410480e+06
2.0979644412819156e+00,7.8484849748356467e+01,2.9361182290860152e+03,1.0984018295010782e+05,-6.9225445996015751e+03,-2.5897239347109490e+05,-9.6881572397536617e+06
1.9436113509076263e+00,7.6034076047506332e+01,2.9744530549784472e+03,1.1636060351075685e+05,-6.9161419915548267e+03,-2.7055947470962477e+05,-1.0584286650640521e+07
1.1296257446221076e+00,5.6752397409814691e+01,2.8512404458690899e+03,1.4324632000046308e+05,-5.4296959040133706e+03,-2.7278792221763171e+05,-1.3704865212213818e+07
6.8154479874320906e-01,4.1833219746858177e+01,2.5677230280621548e+03,1.5760683946245507e+05,-3.8399679275538083e+03,-2.3569723139325276e+05,-1.4467096062917855e+07
5.5997716343130366e-01,3.7098487077323867e+01,2.4577747688727059e+03,1.6282757843781679e+05,-3.3300250191399250e+03,-2.2061415751802002e+05,-1.4615687935568826e+07
4.3034330794287429e-01,3.1595805669165834e+01,2.3197640522301554e+03,1.7031707671473801e+05,-2.7486031564530385e+03,-2.0180244374678205e+05,-1.4816335419888739e+07
2.2338685228744715e-01,2.1337912130496949e+01,2.0381973667050684e+03,1.9468861246766814e+05,-1.7253609268750861e+03,-1.6480647573510822e+05,-1.5742314562217535e+07
1.6904697609150374e-01,1.8142121474140179e+01,1.9470124766047240e+03,2.0895337898921897e+05,-1.4297704034393491e+03,-1.5344295969711096e+05,-1.6467498434693947e+07
1.2540557834539529e-01,1.5304496781272041e+01,1.8677607871864400e+03,2.2794152646823312e+05,-1.1793367151759776e+03,-1.4392625272007630e+05,-1.7564759881958116e+07
1.0147318261001216e-01,1.3600450665219929e+01,1.8228684026594271e+03,2.4431905200844305e+05,-1.0351916486859707e+03,-1.3874673667338063e+05,-1.8596225116333209e+07
6.6113223571163435e-02,1.0789016954578161e+01,1.7606596768176103e+03,2.8732205265986582e+05,-8.0952021029978619e+02,-1.3210560311882209e+05,-2.1558313372960579e+07
6.5864909528571908e-02,1.0767595409730935e+01,1.7602864975828131e+03,2.8777163662483828e+05,-8.0786751109084184e+02,-1.3207018071313080e+05,-2.1590833142982628e+07
5.6620188396070532e-02,9.9481671011895916e+00,1.7478929596790110e+03,3.0710479301560222e+05,-7.4553190619048621e+02,-1.3098995591766841e+05,-2.3014935254734337e+07
5.3942620209316762e-02,9.7021196708477131e+00,1.7450232439986698e+03,3.1385988066560077e+05,-7.2717260732219131e+02,-1.3078926515296934e+05,-2.3523757230413064e+07
3.8999318476767339e-02,8.2393860145866356e+00,1.7407350833017185e+03,3.6776510104915412e+05,-6.2215365121544266e+02,-1.3144240189228658e+05,-2.7769836247783389e+07
3.6750882960487972e-02,8.0036072911350704e+00,1.7430255958633959e+03,3.7959611426713038e+05,-6.0602690278348859e+02,-1.3198053888818814e+05,-2.8742721759069614e+07
3.6308547582827859e-02,7.9566551173008966e+00,1.7436214024053183e+03,3.8209719412310142e+05,-6.0284813700851953e+02,-1.3210814074404695e+05,-2.8950177962650448e+07
2.5840644563968240e-02,6.7836860109329420e+00,1.7808532515901156e+03,4.6750959560743714e+05,-5.2805763377531821e+02,-1.3862569001869651e+05,-3.6392016143708207e+07
2.4889321357135671e-02,6.6705870169259303e+00,1.7877840264063184e+03,4.7914399691715743e+05,-5.2148026121861108e+02,-1.3976192480919993e+05,-3.7457593468113676e+07
2.4787465783922970e-02,6.6584090588773890e+00,1.7885818413956442e+03,4.8044885423569800e+05,-5.2078126640279800e+02,-1.3989226378111963e+05,-3.7577859896884359e+07
1.6882261165216961e-02,5.6766603168042034e+00,1.9087770315254133e+03,6.4182627685042028e+05,-4.7407352013135784e+02,-1.5940722114416907e+05,-5.3600678109726854e+07
1.6803502122535039e-02,5.6666450207824921e+00,1.9109627003584799e+03,6.4443395144189021e+05,-4.7376090814754332e+02,-1.5976639105459605e+05,-5.3878020055341423e+07
1.6637205690618575e-02,5.6455030069976004e+00,1.9156885353644957e+03,6.5005059070523432e+05,-4.7312019344381019e+02,-1.6054387524128810e+05,-5.4477353185626283e+07
1.1873362330391960e-02,5.0744375927629157e+00,2.1687131383950150e+03,9.2686462108726148e+05,-4.7806939658182682e+02,-2.0431729871114116e+05,-8.7321127123167515e+07
1.1830134583997440e-02,5.0701590800096223e+00,2.1729687785105239e+03,9.3129095909404021e+05,-4.7854022956949626e+02,-2.0509277158889468e+05,-8.7898660047568485e+07
1.1685641948664635e-02,5.0561435583482144e+00,2.1876921948261056e+03,9.4657065885735932e+05,-4.8023057368291632e+02,-2.0778616462112422e+05,-8.9904917708268031e+07
9.4026119890987178e-03,4.9738877161133308e+00,2.6311368629467906e+03,1.3918450891302228e+06,-5.6084827053584206e+02,-2.9668312663075508e+05,-1.5694240715640312e+08
9.3718082054155012e-03,4.9771799017320646e+00,2.6432807022118650e+03,1.4037935153306772e+06,-5.6362898255762229e+02,-2.9933208005670208e+05,-1.5896928107651332e+08
8.5970836871567778e-03,5.4018915639880900e+00,3.3942245453162768e+03,2.1327270508040297e+06,-7.7283801691035046e+02,-4.8560503954544960e+05,-3.0512507054798782e+08
2.7602890168823741e-02,6.9901559063529239e+00,1.7701870817248146e+03,4.4828217657599202e+05,-5.4042576665270326e+02,-1.3685742114713058e+05,-3.4657773331299350e+07
2.4056967044206064e-02,6.5706794087840024e+00,1.7946496669211745e+03,4.9017266352618043e+05,-5.1580258463813220e+02,-1.4088115994221304e+05,-3.8478871215016656e+07
2.3973655367701199e-02,6.5606305279251114e+00,1.7953821502719861e+03,4.9132427924343181e+05,-5.1523892659192859e+02,-1.4100028465114717e+05,-3.8586137897632942e+07
2.2713966297833465e-02,6.4076098926188205e+00,1.8075867507077696e+03,5.0992022237466183e+05,-5.0683979648226756e+02,-1.4297950658764772e+05,-4.0334518808375411e+07
1.6085027412263243e-02,5.5753922016386852e+00,1.9325424449320012e+03,6.6985786226233025e+05,-4.7119870598772570e+02,-1.6332689546946547e+05,-5.6612368507626131e+07
1.6043432167850296e-02,5.5701192143559446e+00,1.9338896900322404e+03,6.7142716148229351e+05,-4.7106792294822867e+02,-1.6355007216839551e+05,-5.6782949556145236e+07
1.5928569313173113e-02,5.5555664050485172e+00,1.9376704507528218e+03,6.7582069981356908e+05,-4.7071777942033714e+02,-1.6417694710622518e+05,-5.7261635611709215e+07
1.5758385192654836e-02,5.5340297119565260e+00,1.9434405542448928e+03,6.8249745383972139e+05,-4.7022986551765632e+02,-1.6513532417249057e+05,-5.7992223142895229e+07
1.1123563755466220e-02,5.0067160463353453e+00,2.2535228924555390e+03,1.0143106538942382e+06,-4.8884352673668525e+02,-2.2002847138418202e+05,-9.9034814970020324e+07
1.1116072327559399e-02,5.0061231727163760e+00,2.2545075708328200e+03,1.0153174845245606e+06,-4.8898430085338720e+02,-2.2021407988932295e+05,-9.9173410878156587e+07
1.1069379221564538e-02,5.0024738578094459e+00,2.2607179858212448e+03,1.0216636721523370e+06,-4.8987967118707718e+02,-2.2138642100286394e+05,-1.0004895137961426e+08
1.0963432654822792e-02,4.9945013802310712e+00,2.2752950487780668e+03,1.0365334124213360e+06,-4.9203106224594467e+02,-2.2414967071676254e+05,-1.0211362399172835e+08
9.0960247283794447e-03,5.0230067755056966e+00,2.7738048015697559e+03,1.5317504875228510e+06,-5.9492838171027358e+02,-3.2853135094804736e+05,-1.8142158262053072e+08
9.0806712909751296e-03,5.0266963998321925e+00,2.7825780590911081e+03,1.5403239103904737e+06,-5.9712013012569196e+02,-3.3054181923237792e+05,-1.8297472945427513e+08
9.0562200681068069e-03,5.0329037406496768e+00,2.7969859248286516e+03,1.5543969578642747e+06,-6.0074241431975872e+02,-3.3385658933406277e+05,-1.8553746095651200e+08
8.5967310895062304e-03,5.6101407417008708e+00,3.6611217466265716e+03,2.3892114406310348e+06,-8.6194089868923413e+02,-5.6249401107560727e+05,-3.6707796668783063e+08
8.6036497062403992e-03,5.6457149372349500e+00,3.7047181418135747e+03,2.4310360446580676e+06,-8.7715140285537882e+02,-5.7558675055369968e+05,-3.7770002571333778e+08
2.0394189166764196e+00,2.8816989292637814e+01,4.0718405870497236e+02,5.7535107495012599e+03,-3.4231320337373688e+02,-4.8368855636709031e+03,-6.8345193014669872e+04
2.5802060596324159e+00,5.2662005677097611e+01,1.0748315358695622e+03,2.1937311647097766e+04,-1.4040880135591033e+03,-2.8657436356741298e+04,-5.8489827604108991e+05
2.6039923687087172e+00,8.1504961140582850e+01,2.5511052837002430e+03,7.9849595379817620e+04,-5.8106297466828246e+03,-1.8187271107117244e+05,-5.6926158565276973e+06
2.4131630929083956e+00,8.1661439064020115e+01,2.7634230979264412e+03,9.3514237633830766e+04,-6.5089233524138954e+03,-2.2026196624568626e+05,-7.4536649377540238e+06
1.8920787530781737e+00,7.5115526497203504e+01,2.9820864019389792e+03,1.1838883015697748e+05,-6.8900237101679013e+03,-2.7353394129366567e+05,-1.0859297469358528e+07
1.2100089521281379e+00,5.9084737132416976e+01,2.8851077141759206e+03,1.4087980968321022e+05,-5.6639775259524704e+03,-2.7657202259225916e+05,-1.3505011863180012e+07
9.2304451001393684e-01,5.0305925795759556e+01,2.7416729558688958e+03,1.4942117609485483e+05,-4.7546120238406202e+03,-2.5912635529931379e+05,-1.4122386363812601e+07
7.1002063399052295e-01,4.2892346499367491e+01,2.5911266520267900e+03,1.5652996104893839e+05,-3.9546268581819377e+03,-2.3889900850277088e+05,-1.4431889103652386e+07
4.4021421338256500e-01,3.2034388307849255e+01,2.3311424371621902e+03,1.6963723515229256e+05,-2.7943117472678455e+03,-2.0334206584868109e+05,-1.4797202131808525e+07
4.0421112454825386e-01,3.0416887122256103e+01,2.2888707559497716e+03,1.7223752438522031e+05,-2.6263882969648148e+03,-1.9763571934660230e+05,-1.4872087880831825e+07
2.8214243961519009e-01,2.4501249456183107e+01,2.1276885027749413e+03,1.8476846958097591e+05,-2.0300979529664376e+03,-1.7629370623560541e+05,-1.5309345449499978e+07
2.2706195712826951e-01,2.1543638492330210e+01,2.0440604201522901e+03,1.9394045266404928e+05,-1.7448321551088579e+03,-1.6554967487672842e+05,-1.5707353152303992e+07
2.1847805904903328e-01,2.1061284892326810e+01,2.0303078636203045e+03,1.9572167805299736e+05,-1.6992596816589371e+03,-1.6380863331192153e+05,-1.5791152251269238e+07
1.3716741859264778e-01,1.6099339920219069e+01,1.8895795264361122e+03,2.2177994901780650e+05,-1.2482383503640731e+03,-1.4650573518223126e+05,-1.7195378138338484e+07
9.3466786663411378e-02,1.2999360689147256e+01,1.8079510846466005e+03,2.5144983685264923e+05,-9.8559024803444549e+02,-1.3707589169663072e+05,-1.9064515017167397e+07
8.1876137374027699e-02,1.2095561774265112e+01,1.7868773409121850e+03,2.6397538957295706e+05,-9.1233572082663602e+02,-1.3477935603771894e+05,-1.9910954267452218e+07
7.0223266508430596e-02,1.1139516766232346e+01,1.7670615446274369e+03,2.8030897282425029e+05,-8.3671921890340820e+02,-1.3272876969464764e+05,-2.1054764736661956e+07
6.7289125699661639e-02,1.0890072103233239e+01,1.7624492691872674e+03,2.8523478972526733e+05,-8.1733187061512581e+02,-1.3227698994035198e+05,-2.1407708051946562e+07
4.7146033687747314e-02,9.0572245317531372e+00,1.7399834047950953e+03,3.3426821189518576e+05,-6.7993240235837550e+02,-1.3062181381706754e+05,-2.5093756652396843e+07
4.0695452525077482e-02,8.4141917640850199e+00,1.7397182891422187e+03,3.5970415346304519e+05,-6.3427553813259374e+02,-1.3114281026429508e+05,-2.7115087450245652e+07
3.9811675142757651e-02,8.3234269220963419e+00,1.7401788666026821e+03,3.6381919564062270e+05,-6.2796461645897875e+02,-1.3128856236307870e+05,-2.7448499733248860e+07
3.8266957321696132e-02,8.1631073358642183e+00,1.7413540568865551e+03,3.7146564741503994e+05,-6.1690731571452432e+02,-1.3159866858822232e+05,-2.8072627983239587e+07
3.4080437953010433e-02,7.7171743700796815e+00,1.7474769643608431e+03,3.9569868380986928e+05,-5.8681773123849518e+02,-1.3287900706164484e+05,-3.0089122359038856e+07
3.1213314289540776e-02,7.4013010843359091e+00,1.7549965131177307e+03,4.1614477319047635e+05,-5.6619368579462321e+02,-1.3425584677562106e+05,-3.1834746387435265e+07
1.7325624450978131e-02,5.7330491308286629e+00,1.8970659573912044e+03,6.2773912530074955e+05,-4.7593545866589068e+02,-1.5748704327254320e+05,-5.2112462618884549e+07
1.5247636477080724e-02,5.4696321570583981e+00,1.9620664473799886e+03,7.0383247600414953e+05,-4.6900915299881694e+02,-1.6824296336373565e+05,-6.0352115817839243e+07
1.4500740520847580e-02,5.3764395629146575e+00,1.9934224967418672e+03,7.3910125911698211e+05,-4.6801196752579318e+02,-1.7352479719953833e+05,-6.4337789057672821e+07
1.4387275698369109e-02,5.3624253982961347e+00,1.9986831944529356e+03,7.4494920023649815e+05,-4.6795803191009855e+02,-1.7441731765353194e+05,-6.5008822635824427e+07
1.3161007377882988e-02,5.2149175634123548e+00,2.0663589353265120e+03,8.1877406453377707e+05,-4.6958715320346147e+02,-1.8606921358533957e+05,-7.3728065191054955e+07
1.2282041608322204e-02,5.1165757136109464e+00,2.1315142765331843e+03,8.8796753246095916e+05,-4.7431825084054071e+02,-1.9759624011766084e+05,-8.2316617670616329e+07
1.0237468266909598e-02,4.9551393905495837e+00,2.3983865678138091e+03,1.1608670665532399e+06,-5.1264828095317682e+02,-2.4813202094695662e+05,-1.2010086077874596e+08
9.9916237710352580e-03,4.9505498298348396e+00,2.4528489241882680e+03,1.2153130564675613e+06,-5.2296955945954164e+02,-2.5911572762541907e+05,-1.2838406956656642e+08
9.6298713556328824e-03,4.9572651764526947e+00,2.5519009675343186e+03,1.3136675800673163e+06,-5.4330340475424441e+02,-2.7968172669938992e+05,-1.4397455927031192e+08
9.6150420136059261e-03,4.9579964143158959e+00,2.5565908510419918e+03,1.3183060723398030e+06,-5.4431183081453514e+02,-2.8067439555951505e+05,-1.4472975207026392e+08
9.5513648616847892e-03,4.9616475046993980e+00,2.5774270292661963e+03,1.3388960188929110e+06,-5.4883887759868537e+02,-2.8510533174618910e+05,-1.4810366668219283e+08
9.1897180650867862e-03,5.0035257948978025e+00,2.7242696895480062e+03,1.4832831178682030e+06,-5.8275576931534135e+02,-3.1729303371912392e+05,-1.7275653806905138e+08
9.0091547973702186e-03,5.0461176935550336e+00,2.8263809813371099e+03,1.5830842514567287e+06,-6.0821956819305080e+02,-3.4066986234060972e+05,-1.9081259659559891e+08
8.6132773620111892e-03,5.3468641880156857e+00,3.3191728819944969e+03,2.0604429499557239e+06,-7.4906082822038218e+02,-4.6499449033436651e+05,-2.8865462976486474e+08
2.4719780356516288e+00,4.6893423336311400e+01,8.8956824068982712e+02,1.6875109525886019e+04,-1.0380336611520893e+03,-1.9691498552055134e+04,-3.7354772753248591e+05
2.7305089957181043e+00,7.8993625246124751e+01,2.2852855783703890e+03,6.6113311782255361e+04,-4.8908595400252088e+03,-1.4149256649292927e+05,-4.0933799486404434e+06
2.4073449373069251e+00,8.1633066824077815e+01,2.7681772960044782e+03,9.3868892107511856e+04,-6.5233439561137466e+03,-2.2120659355181709e+05,-7.5011155873421179e+06
1.8630411667903066e+00,7.4577537906615973e+01,2.9853388424018376e+03,1.1950311386134556e+05,-6.8704396262924329e+03,-2.7502369824048609e+05,-1.1009198640566658e+07
1.4871203481541406e+00,6.6414794748563921e+01,2.9660847334708642e+03,1.3246534419680879e+05,-6.3383618179513569e+03,-2.8307123878970760e+05,-1.2641961524348339e+07
1.1501003206327085e+00,5.7355502989953173e+01,2.8603189341089642e+03,1.4264410524401406e+05,-5.4909294153845240e+03,-2.7383264994522621e+05,-1.3656034252768429e+07
8.9541998523427391e-01,4.9391366385522545e+01,2.7244277698254236e+03,1.5027943578357037e+05,-4.6566885339543460e+03,-2.5686293953292171e+05,-1.4168559744635960e+07
6.9543763031557992e-01,4.2352151686218818e+01,2.5792460376907256e+03,1.5707608369536520e+05,-3.8961339176102033e+03,-2.3727455558246141e+05,-1.4450020434971899e+07
4.5105330613524036e-01,3.2511922306228122e+01,2.3434593598329234e+03,1.6891655065675711e+05,-2.8442214224268187e+03,-2.0501148012852509e+05,-1.4777227487664089e+07
2.9624007571209343e-01,2.5224842446884761e+01,2.1478953343522376e+03,1.8289328772009304e+05,-2.1013149422911306e+03,-1.7892696733608979e+05,-1.5235631268668046e+07
2.1490236439313262e-01,2.0858423487997452e+01,2.0245185837450329e+03,1.9649977373829289e+05,-1.6801779588406421e+03,-1.6307807268507272e+05,-1.5828357734813161e+07
1.3127198395529852e-01,1.5704067440572359e+01,1.8786775879156712e+03,2.2474619984235175e+05,-1.2138469889054816e+03,-1.4521251528276273e+05,-1.7371773203276906e+07
1.0277071171496668e-01,1.3696252750253612e+01,1.8252996040262988e+03,2.4325767822858487e+05,-1.0431594466704023e+03,-1.3902185945776451e+05,-1.8527443209936280e+07
8.6791212216096258e-02,1.2484047965163287e+01,1.7957054593090872e+03,2.5829427326701910e+05,-9.4362167626619294e+02,-1.3573054191412919e+05,-1.9523481148928344e+07
6.7227333466353234e-02,1.0884777561537252e+01,1.7623543349884965e+03,2.8534279037798743e+05,-8.1692198117172757e+02,-1.3226783797151441e+05,-2.1415485645967897e+07
5.3445120020767983e-02,9.6559298341521522e+00,1.7445368431362692e+03,3.1518547144942975e+05,-7.2374582187717124e+02,-1.3075915763854852e+05,-2.3624257010556564e+07
4.4165364026551052e-02,8.7641748374287900e+00,1.7391628547393691e+03,3.4511947689448041e+05,-6.5892946127168204e+02,-1.3075796229475256e+05,-2.5947610037770700e+07
3.3959310470549030e-02,7.7040091733487541e+00,1.7477315210658985e+03,3.9649037286900979e+05,-5.8594579989566478e+02,-1.3292766416433052e+05,-3.0155969892320029e+07
3.3172905823713739e-02,7.6181578224158608e+00,1.7495099439178025e+03,4.0177495862072334e+05,-5.8028512850661036e+02,-1.3326247976154307e+05,-3.0603728477238372e+07
2.6622361650257376e-02,6.8757573434119719e+00,1.7758018490830098e+03,4.5863634356266895e+05,-5.3351885808246038e+02,-1.3779191547695705e+05,-3.5587518010233693e+07
2.3956429272031593e-02,6.5585516418040886e+00,1.7955346829767052e+03,4.9156353015853249e+05,-5.1512249431705754e+02,-1.4102508526918082e+05,-3.8608437594143629e+07
1.6651329081901006e-02,5.6472982581267255e+00,1.9152812042436790e+03,6.4956762041924370e+05,-4.7317356211507422e+02,-1.6047681359132740e+05,-5.4425711329498701e+07
1.5832373378230871e-02,5.5433888909199753e+00,1.9409067523778108e+03,6.7956968121004291e+05,-4.7043734588892113e+02,-1.6471422791608798e+05,-5.7671392620259881e+07
1.4988756738014381e-02,5.4371715067147166e+00,1.9723339640607635e+03,7.1546414546304196e+05,-4.6854701931510687e+02,-1.6996543125655502e+05,-6.1654960188315332e+07
1.4485498024432461e-02,5.3745543320051752e+00,1.9941208938038803e+03,7.3987867522805370e+05,-4.6800306971964113e+02,-1.7364317895807844e+05,-6.4426828688815847e+07
1.3300034728405557e-02,5.2311696593764729e+00,2.0575236504259542e+03,8.0926520218553639e+05,-4.6915934033348537e+02,-1.8452975173996645e+05,-7.2579241954363599e+07
1.1170966157948187e-02,5.0105134508244999e+00,2.2473655980983126e+03,1.0080108917150361e+06,-4.8797073431547199e+02,-2.1886951346251866e+05,-9.8169542873343483e+07
1.0478854109047080e-02,4.9646714997843251e+00,2.3521620631678175e+03,1.1144073422876485e+06,-5.0443121176278424e+02,-2.3898941950897194e+05,-1.1322840717496072e+08
9.6936047576588746e-03,4.9545952637346042e+00,2.5323927312000310e+03,1.2943565727709599e+06,-5.3915118680041974e+02,-2.7557095459743054e+05,-1.4084982631383869e+08
9.4679140451954715e-03,4.9678144995140636e+00,2.6066122678950296e+03,1.3676894569645219e+06,-5.5530520330675620e+02,-2.9136864017505501e+05,-1.5288112549985138e+08
9.1369375494422950e-03,5.0138944802564591e+00,2.7513745960407323e+03,1.5098168095773517e+06,-5.8937345188125028e+02,-3.2341868171983608e+05,-1.7747600159376007e+08
9.1027470190176655e-03,5.0214393655709051e+00,2.7700268116235338e+03,1.5280575903640061e+06,-5.9398783402758750e+02,-3.2766744876297837e+05,-1.8075447143560940e+08
8.8763462446621554e-03,5.0952002713609703e+00,2.9247468597666243e+03,1.6788631924432376e+06,-6.3405830955277315e+02,-3.6396215084948292e+05,-2.0892155383062017e+08
8.6057648232744869e-03,5.3687924426480214e+00,3.3493748532703949e+03,2.0895409959612684e+06,-7.5855989427369980e+02,-4.7323517564159044e+05,-2.9523249667576259e+08
2.6479643285949908e+00,5.6825314491648498e+01,1.2194712489907768e+03,2.6169853003342072e+04,-1.7255684508760785e+03,-3.7030698955800646e+04,-7.9467879959148192e+05
2.7697241641717176e+00,6.7387388914297887e+01,1.6395351722848675e+03,3.9889890741690826e+04,-2.8227035685367900e+03,-6.8676377822500101e+04,-1.6708962724214273e+06
2.4467543113760470e+00,8.1794996629301238e+01,2.7344067373175408e+03,9.1411217228525391e+04,-6.4191708239803856e+03,-2.1459288064566432e+05,-7.1738399999845596e+06
1.9346855327734003e+00,7.5878366595372754e+01,2.9759495378705196e+03,1.1671674087528177e+05,-6.9124280075176148e+03,-2.7110542645484093e+05,-1.0632754825558858e+07
1.5229075509354593e+00,6.7282055600328590e+01,2.9725212164225172e+03,1.3132598734154680e+05,-6.4092765633602794e+03,-2.8316183856925712e+05,-1.2510090027989781e+07
9.0119006600744056e-01,4.9583477431729385e+01,2.7280829282937507e+03,1.5009912271472218e+05,-4.6772876894834617e+03,-2.5734436867538007e+05,-1.4159087164519411e+07
2.3029341723889588e-01,2.1723578048145047e+01,2.0491851172815223e+03,1.9329963211316601e+05,-1.7619041720890225e+03,-1.6620042055315751e+05,-1.5677685670779347e+07
2.1825880537933609e-01,2.1048879190783172e+01,2.0299539091591291e+03,1.9576875499930640e+05,-1.6980913181836809e+03,-1.6376392672563420e+05,-1.5793393093420161e+07
1.3333922196615627e-01,1.5843366354018688e+01,1.8825087901845004e+03,2.2367969444972230e+05,-1.2259385919285028e+03,-1.4566602349294469e+05,-1.7308036911431685e+07
1.1157878919484064e-01,1.4335642835753125e+01,1.8418433915375613e+03,2.3664003894474584e+05,-1.0967614614193785e+03,-1.4091191256316175e+05,-1.8104362526115019e+07
8.9363080479428245e-02,1.2684195643250044e+01,1.8003947296029112e+03,2.5554802791983724e+05,-9.5985990628876232e+02,-1.3624251509862690e+05,-1.9338262593099106e+07
7.1870543720710153e-02,1.1277925720653835e+01,1.7697321040849997e+03,2.7770636177301814e+05,-8.4753974153932745e+02,-1.3299593624235128e+05,-2.0869722315149758e+07
5.9439693396147228e-02,1.0202823371448671e+01,1.7513146317091646e+03,3.0061315653287811e+05,-7.6471358554648862e+02,-1.3126308695905478e+05,-2.2531308876521751e+07
4.8213683043247677e-02,9.1605997782170583e+00,1.7405139578612411e+03,3.3069765199363581e+05,-6.8741377468853057e+02,-1.3060861719082081e+05,-2.4815637266255952e+07
3.5021820841705208e-02,7.8189717211191043e+00,1.7456636264570511e+03,3.8973686124280118e+05,-5.9359333901751711e+02,-1.3252564886905087e+05,-2.9587676366504297e+07
3.4834849962871138e-02,7.7988262096875909e+00,1.7460012118248578e+03,3.9089475130334916e+05,-5.9224781748946066e+02,-1.3259244137954045e+05,-2.9684795776051521e+07
3.2668374958607638e-02,7.5627288029176682e+00,1.7507717178754401e+03,4.0530365268816438e+05,-5.7665432248034585e+02,-1.3349547565420007e+05,-3.0904202613947317e+07
2.5394347706677912e-02,6.7307718596549808e+00,1.7839910814015525e+03,4.7284683612548158e+05,-5.2496155242610917e+02,-1.3914105947054023e+05,-3.6879337812666692e+07
2.4651713346473952e-02,6.6421576440739418e+00,1.7896629556192829e+03,4.8220678676205955e+05,-5.1985138659567770e+02,-1.4006875760433942e+05,-3.7740126048913211e+07
2.4271544001598793e-02,6.5965202287545193e+00,1.7928022677709032e+03,4.8724780033477605e+05,-5.1725841974367097e+02,-1.4058049331793489e+05,-3.8206966473948345e+07
2.4005032694128448e-02,6.5644162405363655e+00,1.7951052651370742e+03,4.9088948580438428e+05,-5.1545110835338073e+02,-1.4095526009031548e+05,-3.8545625424297675e+07
1.7015736692182620e-02,5.6936356545712270e+00,1.9051474263760783e+03,6.3748138033969956e+05,-4.7461622562338806e+02,-1.5881133525584187e+05,-5.3139860889957249e+07
1.6601222674861579e-02,5.6409294526912159e+00,1.9167314187299485e+03,6.5128616877024912e+05,-4.7298512049428808e+02,-1.6071561409275414e+05,-5.4609558512576930e+07
1.5875689895954292e-02,5.5488711324339439e+00,1.9394414382083119e+03,6.7787357148256921e+05,-4.7056215028297106e+02,-1.6447088276690405e+05,-5.7485862944688298e+07
1.5283051971701369e-02,5.4740835552239968e+00,1.9607072478101311e+03,7.0228612202063273e+05,-4.6908105224129065e+02,-1.6801545129178549e+05,-6.0179774343691722e+07
1.4090798090143401e-02,5.3260398621124025e+00,2.0131365470812461e+03,7.6092535206576949e+05,-4.6795886821992042e+02,-1.7687909300976555e+05,-6.6856759575831190e+07
1.3230563174095971e-02,5.2230294242378665e+00,2.0618953258063825e+03,8.1397441776858561e+05,-4.6936387431456171e+02,-1.8529077666315954e+05,-7.3147239903315485e+07
1.1791595643021223e-02,5.0663769839804997e+00,2.1768195349370617e+03,9.3529228138105781e+05,-4.7897321757127190e+02,-2.0579563266167272e+05,-8.8422151529414296e+07
1.0618967668914524e-02,4.9720130419391584e+00,2.3279959464967528e+03,1.0900142620687096e+06,-5.0035272187731920e+02,-2.3427515143739840e+05,-1.0969231140601867e+08
1.0165180474098926e-02,4.9531874896141836e+00,2.4135396680643030e+03,1.1760454740576928e+06,-5.1545342132425355e+02,-2.5116498860866899e+05,-1.2238516399934615e+08
9.5502196465258263e-03,4.9617211151560277e+00,2.5778125881681622e+03,1.3392767520568869e+06,-5.4892335892442691e+02,-2.8518764189559675e+05,-1.4816638747043830e+08
9.4940979812698102e-03,4.9656980671435482e+00,2.5972090600580900e+03,1.3584182546821828e+06,-5.5320614240434577e+02,-2.8934340866174496e+05,-1.5133528303235245e+08
8.6376584852267419e-03,5.2947982748591400e+00,3.2456583945059042e+03,1.9895561392481741e+06,-7.2633479708334369e+02,-4.4523596726411884e+05,-2.7292519557323223e+08
8.5871935484922810e-03,5.4836959281316853e+00,3.5018333827456131e+03,2.2362357798875212e+06,-8.0792107724352184e+02,-5.1593032071694068e+05,-3.2946794350663114e+08
8.5869394408689560e-03,5.5073194797957132e+00,3.5321744215617787e+03,2.2653953870128626e+06,-8.1802043078782208e+02,-5.2464558349007752e+05,-3.3648669142719620e+08
8.6100149263883992e-03,5.3558597849599039e+00,3.3316125792343078e+03,2.0724296049127011e+06,-7.5296197411902654e+02,-4.6837999600074039e+05,-2.9135577651226056e+08
8.5925457991793790e-03,5.4261926721817781e+00,3.4266406724827930e+03,2.1639235846728836e+06,-7.8328464355304516e+02,-4.9464425240374799e+05,-3.1236784539296687e+08
8.6249727164527477e-03,5.7267231345431311e+00,3.8023723596426025e+03,2.5246611756318989e+06,-9.1187490274008132e+02,-6.0545757917233184e+05,-4.0200566884305322e+08
8.5895783290129146e-03,5.5565982210384544e+00,3.5945633891897764e+03,2.3253230564668663e+06,-8.3906987166663566e+02,-5.4279429998114659e+05,-3.5113363265780371e+08
9.5668626951319665e-03,7.1587876861402986e+00,5.3568492376619242e+03,4.0084767160500409e+06,-1.5799056106571552e+03,-1.1822275693986425e+06,-8.8464906790531027e+08
9.5866389523811286e-03,7.1824057695134655e+00,5.3811302265771837e+03,4.0315965770538920e+06,-1.5920090128110155e+03,-1.1927490724881408e+06,-8.9361953259883988e+08
9.6069115505858366e-03,7.2065286305564600e+00,5.4059053869256231e+03,4.0551858669483867e+06,-1.6044107366524056e+03,-1.2035326699924355e+06,-9.0281799706812537e+08
8.5896999124845056e-03,5.5578794313739737e+00,3.5961703072762161e+03,2.3268660356200025e+06,-8.3961702172802688e+02,-5.4326579773890250e+05,-3.5151470176897943e+08
8.5895697487335856e-03,5.5565067747582688e+00,3.5944486675233761e+03,2.3252128985341964e+06,-8.3903081888319423e+02,-5.4276064642734954e+05,-3.5110643456738812e+08
9.5375010797604069e-03,7.1235595564730483e+00,5.3205866327297199e+03,3.9739461559858276e+06,-1.5619236753324035e+03,-1.1666007931057722e+06,-8.7133413237070119e+08
9.5698544002289655e-03,7.1623661287633640e+00,5.3605296817503640e+03,4.0119812297124248e+06,-1.5817369659983838e+03,-1.1838193974621703e+06,-8.8600595164261210e+08
9.5469389852101631e-03,7.1349048505968149e+00,5.3322711400935304e+03,3.9850728365489002e+06,-1.5677055037784628e+03,-1.1716247082488341e+06,-8.7561372570976627e+08
9.5879382879696835e-03,7.1839545210270455e+00,5.3827216039699342e+03,4.0331118162065526e+06,-1.5928040320209682e+03,-1.1934402770723510e+06,-8.9420899640200043e+08
8.5902230844174497e-03,5.5631143716995846e+00,3.6027284982563683e+03,2.3331630027558068e+06,-8.4185265039995716e+02,-5.4519219492551626e+05,-3.5307191735571361e+08
9.5560178141883625e-03,7.1457990010937733e+00,5.3434855770379017e+03,3.9957516447974015e+06,-1.5732657242791781e+03,-1.1764566433014837e+06,-8.7973074872798347e+08
9.6150564329518361e-03,7.2161960034946828e+00,5.4158272625827940e+03,4.0646325188410124e+06,-1.6093920595692209e+03,-1.2078648346272958e+06,-9.0651463703613174e+08
1.5114161821083298e-02,1.2867743949615686e+01,1.0955211166384308e+04,9.3269381307246070e+06,-5.6846421104398760e+03,-4.8397337535651978e+06,-4.1204041257728014e+09
1.4506331327337205e-02,1.2271921112987457e+01,1.0381677103954000e+04,8.7825873796319645e+06,-5.1435440848374419e+03,-4.3512839894499313e+06,-3.6810557165549588e+09
1.4675950986811700e-02,1.2438455499362387e+01,1.0542088573929597e+04,8.9348417499482892e+06,-5.2921189512752144e+03,-4.4852824959637951e+06,-3.8014563266291547e+09
1.4945177188184687e-02,1.2702354447553811e+01,1.0796112115609410e+04,9.1759395704199057e+06,-5.5317903501399223e+03,-4.7016345722944243e+06,-3.9960602720302000e+09
1.5142841728304766e-02,1.2895795444241623e+01,1.0982188358270609e+04,9.3525414277868327e+06,-5.7107693683081343e+03,-4.8633483017448904e+06,-4.1416760472489657e+09
1.4924420167638416e-02,1.2682026037450743e+01,1.0776551625323769e+04,9.1573747436188739e+06,-5.5131437004187455e+03,-4.6847938594308291e+06,-3.9809035820513468e+09
1.5067874648965172e-02,1.2822459968776382e+01,1.0911656984229325e+04,9.2856018604394719e+06,-5.6425882547943165e+03,-4.8017297530648671e+06,-4.0861759852631407e+09
1.4752281630423471e-02,1.2513327847374102e+01,1.0614180079978136e+04,9.0032659692398533e+06,-5.3595901984391621e+03,-4.5461651940220511e+06,-3.8561937025253243e+09
