djean032/levmar/conformance/nist_nls/corpus/gauss2/jacobian_certified.csv
j1,j2,j3,j4,j5,j6,j7,j8
9.8906527809307765e-01,-9.7935590521192069e+01,1.6503638298363576e-09,-6.4135254357688256e-08,2.8841096957032612e-07,3.8796613618608510e-27,-2.2326492476954958e-25,1.7410949758070605e-24
9.7825012432933700e-01,-1.9372938414810523e+02,2.4124381477910884e-09,-9.2866259507843347e-08,4.1367335413503533e-07,8.6011032765927089e-27,-4.9172162031503003e-25,3.8094276284100278e-24
9.6755323126438342e-01,-2.8741651081086951e+02,3.5137456898464193e-09,-1.3397302478382572e-07,5.9110172692359229e-07,1.8968645508789618e-26,-1.0772610150283234e-24,8.2905023766056055e-24
9.5697330575036321e-01,-3.7903158825825960e+02,5.0994356117639945e-09,-1.9256364120567429e-07,8.4144221145269964e-07,4.1614079597775715e-26,-2.3476057522751409e-24,1.7946729542730094e-23
9.4650906877963481e-01,-4.6860872905839562e+02,7.3741428641941021e-09,-2.7575789197819955e-07,1.1932795067384639e-06,9.0816776312405697e-26,-5.0889913190796586e-24,3.8643158818145753e-23
9.3615925533014943e-01,-5.5618154750758276e+02,1.0625237099909158e-08,-3.9343911983610843e-07,1.6858319412762780e-06,1.9715767377367876e-25,-1.0973377374067749e-23,8.2764143668087393e-23
9.2592261421252275e-01,-6.4178316644846325e+02,1.5254689100423111e-08,-5.5927090627917550e-07,2.3726786517916098e-06,4.2577788862149785e-25,-2.3536978472853472e-23,1.7631676048938325e-22
9.1579790791877824e-01,-7.2544622399863465e+02,2.1822562191055506e-08,-7.9206561217397113e-07,3.3267058806527981e-06,9.1469085670865382e-25,-5.0218371044523196e-23,3.7361661909985626e-22
9.0578391247274503e-01,-8.0720288019088048e+02,3.1106114542338987e-08,-1.1176181652633926e-06,4.6466393462691870e-06,1.9547327393020233e-24,-1.0658001268837798e-22,7.8747981378246493e-22
8.9587941728209153e-01,-8.8708482352614055e+02,4.4179769123049639e-08,-1.5711519886694588e-06,6.4656290649922999e-06,4.1554900916292128e-24,-2.2500380531094724e-22,1.6509455751440152e-21
8.8608322499197611e-01,-9.6512327744033382e+02,6.2522849824921223e-08,-2.2005663347867431e-06,8.9624757291878292e-06,8.7877750338645787e-24,-4.7250304892186384e-22,3.4427507500003017e-21
8.7639415134029997e-01,-1.0413490066861377e+03,8.8164091464272437e-08,-3.0707275242700587e-06,1.2376238089645106e-05,1.8486616204896845e-23,-9.8700584748785831e-22,7.1409716324661263e-21
8.6681102501454055e-01,-1.1157923236308063e+03,1.2387462586087252e-07,-4.2691130394503233e-06,1.7025143512429280e-05,3.8686348056628612e-23,-2.0508546863065656e-21,1.4732868947176817e-20
8.5733268751015224e-01,-1.1884830944711034e+03,1.7342456874949279e-07,-5.9131998075568948e-06,2.3330944116480645e-05,8.0534109285499364e-23,-4.2388670488266514e-21,3.0233958482138407e-20
8.4795799299051433e-01,-1.2594507453664110e+03,2.4192265426813789e-07,-8.1600894436305618e-06,3.1850124036689504e-05,1.6677225450825140e-22,-8.7149344497311762e-21,6.1713436622514963e-20
8.3868580814841098e-01,-1.3287242684910539e+03,3.3626378904092847e-07,-1.1218987210722802e-05,4.3313674850041622e-05,3.4354968531428544e-22,-1.7822866468351056e-20,1.2529704627685810e-19
8.2951501206902567e-01,-1.3963322280068830e+03,4.6571616654991892e-07,-1.5367301875426475e-05,5.8677521297974284e-05,7.0400724012016392e-22,-3.6256823161616824e-20,2.5303328445441328e-19
8.2044449609443348e-01,-1.4623027659571283e+03,6.4268797443001163e-07,-2.0971314698331331e-05,7.9186102816272949e-05,1.4351143634858824e-21,-7.3366934030128676e-20,5.0826418894919736e-19
8.1147316368957578e-01,-1.5266636080825340e+03,8.8372406498604000e-07,-2.8512581956176643e-05,1.0645210168041802e-04,2.9101656614415394e-21,-1.4767571172401540e-19,1.0154901492941740e-18
8.0259993030969978e-01,-1.5894420695607714e+03,1.2107956095072465e-06,-3.8621491216823445e-05,1.4255585777874616e-04,5.8704410043651230e-21,-2.9567560891795004e-19,2.0180668730947806e-18
7.9382372326924799e-01,-1.6506650606701091e+03,1.6529611314381664e-06,-5.2119691581854969e-05,1.9016862274173437e-04,1.1780007286297800e-20,-5.8886980966984133e-19,3.9890391739468536e-18
7.8514348161218106e-01,-1.7103590923783136e+03,2.2484958665910098e-06,-7.0073466452446741e-05,2.5270447871668362e-04,2.3514849602538729e-20,-1.1665948904743712e-18,7.8428374888179296e-18
7.7655815598371902e-01,-1.7685502818577340e+03,3.0476086228690943e-06,-9.3860517580676681e-05,3.3450647151802508e-04,4.6693955696957440e-20,-2.2988861401524351e-18,1.5337322109832686e-17
7.6806670850348457e-01,-1.8252643579275239e+03,4.1158917295289405e-06,-1.2525308367434043e-04,4.4107327077751391e-04,9.2236102572960296e-20,-4.5062063676228545e-18,2.9832970032504124e-17
7.5966811264003375e-01,-1.8805266664239266e+03,5.5386808154139598e-06,-1.6652082645213454e-04,5.7933345090172277e-04,1.8124374839622439e-19,-8.7861885193176972e-18,5.7718266743807731e-17
7.5136135308675844e-01,-1.9343621754995504e+03,7.4265375730619467e-06,-2.2055748037999717e-04,7.5797525786576382e-04,3.5428025003540165e-19,-1.7040619394964025e-17,1.1107059340640842e-16
7.4314542563914576e-01,-1.9867954808525467e+03,9.9221108594464896e-06,-2.9103587496073644e-04,9.8784045042814121e-04,6.8889441638561004e-19,-3.2874960361158456e-17,2.1259502271469520e-16
7.3501933707338030e-01,-2.0378508108865865e+03,1.3208679901488470e-05,-3.8259659217820742e-04,1.2823914317795023e-03,1.3325398393489022e-18,-6.3086970841775386e-17,4.0473841768396353e-16
7.2698210502627247e-01,-2.0875520318025219e+03,1.7520738359280030e-05,-5.0107620354002613e-04,1.6582613585751171e-03,2.5640680947941027e-18,-1.2042266978272318e-16,7.6641188271436676e-16
7.1903275787650112e-01,-2.1359226526226180e+03,2.3157039741355350e-05,-6.5378172238926102e-04,2.1358971556335684e-03,4.9079566988995037e-18,-2.2864963877803453e-16,1.4434960453005365e-15
7.1117033462715407e-01,-2.1829858301482100e+03,3.0496593137156152e-05,-8.4981858224527957e-04,2.7403052900399497e-03,9.3453098521806139e-18,-4.3184313667737226e-16,2.7041676913078134e-15
7.0339388478955323e-01,-2.2287643738516513e+03,4.0018173116898551e-05,-1.1004800775558298e-03,3.5019096687495654e-03,1.7701436173828075e-17,-8.1128657264197055e-16,5.0386634868807042e-15
6.9570246826834969e-01,-2.2732807507033881e+03,5.2323988263776085e-05,-1.4197067373131248e-03,4.4575300078961771e-03,3.3353784371556399e-17,-1.5160545839001498e-15,9.3381283868083812e-15
6.8809515524787579e-01,-2.3165570899349982e+03,6.8168238003955467e-05,-1.8246244928889117e-03,5.6514873588190640e-03,6.2517779619691066e-17,-2.8180401583367336e-15,1.7213377444571150e-14
6.8057102607973974e-01,-2.3586151877390221e+03,8.8491375486532130e-05,-2.3361706875003260e-03,7.1368410376364873e-03,1.1656919272379914e-16,-5.2103968431906349e-15,3.1559716756739727e-14
6.7312917117164894e-01,-2.3994765119063850e+03,1.1446098288334726e-04,-2.9798168840385673e-03,8.9767578623136546e-03,2.1621501377344638e-16,-9.5826404298378226e-15,5.7551920255668986e-14
6.6576869087744983e-01,-2.4391622064022326e+03,1.4752025151752658e-04,-3.7863969788106315e-03,1.1246010228116514e-02,3.9894196426378335e-16,-1.7530318915176385e-14,1.0438670612240576e-13
6.5848869538836918e-01,-2.4776930958809535e+03,1.8944513873266666e-04,-4.7930482303951494e-03,1.4032594035713556e-02,7.3224330715638337e-16,-3.1899518673259890e-14,1.8831639467343158e-13
6.5128830462544518e-01,-2.5150896901411825e+03,2.4241134149781437e-04,-6.0442713674751800e-03,1.7439450734240865e-02,1.3369738569131676e-15,-5.7738775862831460e-14,3.3789946993842347e-13
6.4416664813313496e-01,-2.5513721885215600e+03,3.0907227753797272e-04,-7.5931138448572799e-03,2.1586269695465815e-02,2.4283553263717387e-15,-1.0395360818599000e-13,6.0303453332453515e-13
6.3712286497408488e-01,-2.5865604842379967e+03,3.9264929140513810e-04,-9.5024774697628246e-03,2.6611337781274939e-02,4.3875630399485648e-15,-1.8616564031476530e-13,1.0704119997243691e-12
6.3015610362505159e-01,-2.6206741686632104e+03,4.9703529748271061e-04,-1.1846547921696510e-02,3.2673392350639242e-02,7.8859917661217538e-15,-3.3162468254202020e-13,1.8897861284635025e-12
6.2326552187396189e-01,-2.6537325355492762e+03,6.2691302563820227e-04,-1.4712339049502355e-02,3.9953422192788308e-02,1.4099739351482734e-14,-5.8759880302961579e-13,3.3183791208657167e-12
6.1645028671809721e-01,-2.6857545851939176e+03,7.8788893849852796e-04,-1.8201339176414345e-02,4.8656348176613580e-02,2.5077697798976283e-14,-1.0356214924361133e-12,5.7954842075887983e-12
6.0970957426339234e-01,-2.7167590285512761e+03,9.8664373192019019e-04,-2.2431239931083837e-02,5.9012502078574260e-02,4.4369655832063286e-14,-1.8155434528957046e-12,1.0067056754914399e-11
6.0304256962483405e-01,-2.7467642912878568e+03,1.2311001016652825e-03,-2.7537720337222168e-02,7.1278808509818589e-02,7.8091950543917866e-14,-3.1658986374218844e-12,1.7392540484350635e-11
5.9644846682795061e-01,-2.7757885177843846e+03,1.5306081491617322e-03,-3.3676250068364111e-02,8.5739561643513151e-02,1.3672511468438005e-13,-5.4912527725009901e-12,2.9886142052462304e-11
5.8992646871137677e-01,-2.8038495750842389e+03,1.8961483976802555e-03,-4.1023865993357805e-02,1.0270667620226794e-01,2.3812891724776392e-13,-9.4739093038705432e-12,5.1076554125145629e-11
5.8347578683048518e-01,-2.8309650567891813e+03,2.3405518886106709e-03,-4.9780865552723305e-02,1.2251928167766316e-01,4.1257014088111883e-13,-1.6258094125720269e-11,8.6819395040709497e-11
5.7709564136207103e-01,-2.8571522869030373e+03,2.8787362189022225e-03,-6.0172349339404081e-02,1.4554252090082453e-01,7.1105838921533094e-13,-2.7751848273801201e-11,1.4677559237048923e-10
5.7078526101007976e-01,-2.8824283236240253e+03,3.5279556608666207e-03,-7.2449533813822520e-02,1.7216540983402065e-01,1.2190865819175386e-12,-4.7118915062463512e-11,2.4679212332070097e-10
5.6454388291236446e-01,-2.9068099630863753e+03,4.3080626735521434e-03,-8.6890743752598282e-02,2.0279761583621295e-01,2.0791491872372902e-12,-7.9575420454926050e-11,4.1271239551627122e-10
5.5837075254846358e-01,-2.9303137430519032e+03,5.2417771741662721e-03,-1.0380198329075298e-01,2.3786501771767624e-01,3.5274313439869713e-12,-1.3367249927805151e-10,6.8643725867325354e-10
5.5226512364838720e-01,-2.9529559465521947e+03,6.3549588970525442e-03,-1.2351697483245105e-01,2.7780392365749174e-01,5.9532387732747281e-12,-2.2334889672559822e-10,1.1355064436205567e-09
5.4622625810240000e-01,-2.9747526054820178e+03,7.6768770409423254e-03,-1.4639654731784107e-01,3.2305384344101157e-01,9.9947019772415061e-12,-3.7119600837722806e-10,1.8681512190433909e-09
5.4025342587179148e-01,-2.9957195041446189e+03,9.2404702136756178e-03,-1.7282725005198354e-01,3.7404874025371010e-01,1.6691993663715803e-11,-6.1362016659266566e-10,3.0567950324207536e-09
5.3434590490062128e-01,-3.0158721827495046e+03,1.1082588455593663e-02,-2.0321906628197273e-01,4.3120672498407975e-01,2.7731182484968702e-11,-1.0089551523314885e-09,4.9745135455510243e-09
5.2850298102843019e-01,-3.0352259408633386e+03,1.3244207894174275e-02,-2.3800210272759836e-01,4.9491820287469440e-01,4.5830055316102791e-11,-1.6501333944555188e-09,8.0512443418327178e-09
5.2272394790390486e-01,-3.0537958408145514e+03,1.5770607396642881e-02,-2.7762213809620417e-01,5.6553253826651895e-01,7.5344956993437414e-11,-2.6843565964941842e-09,1.2959895761006133e-08
5.1700810689948706e-01,-3.0715967110522661e+03,1.8711495495000903e-02,-3.2253492596178301e-01,6.4334336750084853e-01,1.2321960503695002e-10,-4.3434447933526740e-09,2.0747419152880459e-08
5.1135476702691673e-01,-3.0886431494601361e+03,2.2121074916556141e-02,-3.7319916588710966e-01,7.2857276165380891e-01,2.0045978057299246e-10,-6.9903720852171132e-09,3.3033045622133246e-08
5.0576324485369839e-01,-3.1049495266256772e+03,2.6058031325485981e-02,-4.3006808180028344e-01,8.2135451799728665e-01,3.2441169647603848e-10,-1.1190180238307628e-08,5.2306172405173221e-08
5.0023286442048054e-01,-3.1205299890656561e+03,3.0585432433947242e-02,-4.9357957869673885e-01,9.2171693964172718e-01,5.2226097196005657e-10,-1.7817367900900664e-08,8.2371088329368409e-08
4.9476295715933932e-01,-3.1353984624081386e+03,3.5770523543227309e-02,-5.6414498777611588e-01,1.0295655438765847e+00,8.3637387059498672e-10,-2.8217499705170341e-08,1.2900658636221987e-07
4.8935286181295540e-01,-3.1495686545317249e+03,4.1684405893997002e-02,-6.4213645590241453e-01,1.1446662178994496e+00,1.3324016302236466e-09,-4.4448880332604386e-08,2.0093786216027401e-07
4.8400192435467415e-01,-3.1630540586625480e+03,4.8401585003530492e-02,-7.2787308722600808e-01,1.2666294120649928e+00,2.1115028381854882e-09,-6.9641672872993723e-08,3.1125906013475450e-07
4.7870949790944051e-01,-3.1758679564295794e+03,5.5999377503096963e-02,-8.2160600199319156e-01,1.3948960212866268e+00,3.3286643046818978e-09,-1.0852813803263619e-07,4.7950151861689391e-07
4.7347494267559831e-01,-3.1880234208787801e+03,6.4557166905852170e-02,-9.2350253867385579e-01,1.5287256503824598e+00,5.2199956767397929e-09,-1.6822051860891280e-07,7.3462055066774607e-07
4.6829762584754459e-01,-3.1995333194466375e+03,7.4155501264849155e-02,-1.0336298888518114e+00,1.6671879845549447e+00,8.1431437793597874e-09,-2.5934487148740952e-07,1.1192793908543200e-06
4.6317692153922974e-01,-3.2104103168936081e+03,8.4875028833997210e-02,-1.1519385177610877e+00,1.8091579876204726e+00,1.2636764087046630e-08,-3.9768299070794330e-07,1.6959515304758880e-06
4.5811221070849384e-01,-3.2206668781979938e+03,9.6795271611511705e-02,-1.2782457844909487e+00,1.9533156243035465e+00,1.9507493363346369e-08,-6.0653455098561199e-07,2.5555530712830414e-06
4.5310288108223101e-01,-3.2303152714107682e+03,1.0999324098996566e-01,-1.4122202320161323e+00,2.0981507458345319e+00,2.9956348409047065e-08,-9.2009298503988525e-07,3.8295685486420226e-06
4.4814832708237157e-01,-3.2393675704718489e+03,1.2454190459620011e-01,-1.5533670654298459e+00,2.2419736881675187e+00,4.5761272591562843e-08,-1.3882380698706243e-06,5.7069634103682575e-06
4.4324794975267334e-01,-3.2478356579883330e+03,1.4050851868569847e-01,-1.7010153740610165e+00,2.3829320085127037e+00,6.9539110145838163e-08,-2.0832941180627872e-06,8.4576036332943440e-06
4.3840115668631430e-01,-3.2557312279751800e+03,1.5795284603772627e-01,-1.8543076765662965e+00,2.5190336291405830e+00,1.0511918368832172e-07,-3.1094954178056967e-06,1.2464450702183949e-05
4.3360736195427640e-01,-3.2630657885588366e+03,1.7692528502921334e-01,-2.0121923747903914e+00,2.6481764697567591e+00,1.5807261779702529e-07,-4.6161527657901289e-06,1.8267494348813458e-05
4.2886598603451215e-01,-3.2698506646442816e+03,1.9746494127046624e-01,-2.1734196896925666e+00,2.7681844350765008e+00,2.3645751800359434e-07,-6.8158417047067589e-06,2.6623254642201570e-05
4.2417645574188667e-01,-3.2760970005459740e+03,2.1959767866554988e-01,-2.3365416189248513e+00,2.8768493882053638e+00,3.5186123518449040e-07,-1.0009352156000604e-05,3.8584759447346192e-05
4.1953820415888515e-01,-3.2818157625831691e+03,2.4333419179892801e-01,-2.4999163993291176e+00,2.9719784904026998e+00,5.2084863982698335e-07,-1.4619670899190522e-05,5.5608213135064821e-05
4.1495067056707818e-01,-3.2870177416400693e+03,2.6866814592208205e-01,-2.6617178780767872e+00,3.0514460326465569e+00,7.6696131850381551e-07,-2.1237935562169639e-05,7.9694145466860454e-05
4.1041330037933621e-01,-3.2917135556912663e+03,2.9557443429195718e-01,-2.8199500936805304e+00,3.1132486342839742e+00,1.1234589354530378e-06,-3.0685126082934161e-05,1.1357268758877536e-04
4.0592554507278594e-01,-3.2959136522929371e+03,3.2400760497726888e-01,-2.9724672439204940e+00,3.1555624500099486e+00,1.6370530742459335e-06,-4.4094272506461578e-05,1.6094477622649351e-04
4.0148686212249918e-01,-3.2996283110402251e+03,3.5390051029645908e-01,-3.1169990741479285e+00,3.1768008200150244e+00,2.3729584390381886e-06,-6.3019181393173215e-05,2.2679353204198724e-04
3.9709671493590676e-01,-3.3028676459912599e+03,3.8516323160763699e-01,-3.2511815598058460e+00,3.1756706308719940e+00,3.4216794317901714e-06,-8.9577139117927423e-05,3.1778276421181776e-04
3.9275457278793013e-01,-3.3056416080582471e+03,4.1768233009932698e-01,-3.3725925857000889e+00,3.1512255374749962e+00,4.9080651810296464e-06,-1.2663475517254823e-04,4.4276245828785816e-04
3.8845991075682207e-01,-3.3079599873660636e+03,4.5132047044178158e-01,-3.4787921468420420e+00,3.1029141387614443e+00,7.0033065917650709e-06,-1.7804806870051412e-04,6.1340410308786150e-04
3.8421220966070835e-01,-3.3098324155787677e+03,4.8591645861825877e-01,-3.5673664176134237e+00,3.0306212098927272e+00,9.9407184209944894e-06,-2.4897024857193029e-04,8.4499164576668818e-04
3.8001095599482432e-01,-3.3112683681944704e+03,5.2128572799259254e-01,-3.6359748641921739e+00,2.9347001765373735e+00,1.4036351012644209e-05,-3.4624264223624517e-04,1.1573965085390110e-03
3.7585564186943715e-01,-3.3122771668089508e+03,5.5722129877896487e-01,-3.6823994165705325e+00,2.8159951755458068e+00,1.9715712814922400e-05,-4.7888751443326199e-04,1.5762671567854884e-03
3.7174576494844708e-01,-3.3128679813484514e+03,5.9349522572599733e-01,-3.7045945780798326e+00,2.6758512800766532e+00,2.7548157788818467e-05,-6.5872347099360398e-04,2.1344647939941911e-03
3.6768082838865968e-01,-3.3130498322720373e+03,6.2986053724165525e-01,-3.7007372388352020e+00,2.5161117721388280e+00,3.8290801354583894e-05,-9.0112714879847131e-04,2.8737764034927715e-03
3.6366034077972287e-01,-3.3128315927439312e+03,6.6605365666291505e-01,-3.6692748810666282e+00,2.3391017140499666e+00,5.2944172419120519e-05,-1.2259670815401519e-03,3.8469340022816460e-03
3.5968381608471994e-01,-3.3122219907762096e+03,7.0179728326571666e-01,-3.6089708241498362e+00,2.1475974915789426e+00,7.2822182056446838e-05,-1.6587374733692286e-03,5.1199639820934057e-03
3.5575077358141294e-01,-3.3112296113422522e+03,7.3680369731319584e-01,-3.5189451593334895e+00,1.9447824615313380e+00,9.9639382445771137e-05,-2.2319206142158801e-03,6.7748820912852687e-03
3.5186073780412769e-01,-3.3098628984613247e+03,7.7077844038310250e-01,-3.3987100712654059e+00,1.7341893186166020e+00,1.3561888873477881e-04,-2.9866064682324300e-03,8.9127372348002006e-03
3.4801323848627497e-01,-3.3081301572546786e+03,8.0342430984556479e-01,-3.2481983363754443e+00,1.5196302819847365e+00,1.8362472182534729e-04,-3.9743961098517994e-03,1.1656990133310969e-02
3.4420781050350013e-01,-3.3060395559735416e+03,8.3444559512720762e-01,-3.0677839261014932e+00,1.3051166710213795e+00,2.4732267522831598e-04,-5.2596116598736947e-03,1.5157190362965405e-02
3.4044399381745377e-01,-3.3035991279993532e+03,8.6355247372659039e-01,-2.8582938231109121e+00,1.0947698727209449e+00,3.3137408023554017e-04,-6.9218286311947749e-03,1.9592886930098526e-02
3.3672133342017785e-01,-3.3008167738166339e+03,8.9046547723262137e-01,-2.6210103764988073e+00,8.9272607974668439e-01,4.4166699895226217e-04,-9.0587365536493290e-03,2.5177673111543598e-02
3.3303937927910016e-01,-3.2977002629588333e+03,9.1491993218211232e-01,-2.3576637711378234e+00,7.0303748128252175e-01,5.8558936450490854e-04,-1.1789319846691479e-02,3.2163225962871834e-02
3.2939768628262911e-01,-3.2942572359275027e+03,9.3667027774558398e-01,-2.0704144590880582e+00,5.2957280268104978e-01,7.7234835480608508e-04,-1.5257332643275910e-02,4.0843155291847934e-02
3.2579581418634490e-01,-3.2904952060851724e+03,9.5549416213924854e-01,-1.7618256881824688e+00,3.7592020279653893e-01,1.0133397671761514e-03,-1.9635018250635402e-02,5.1556427230047733e-02
3.2223332755977790e-01,-3.2864215615222424e+03,9.7119622241952730e-01,-1.4348265546205918e+00,2.4529554191991013e-01,1.3225702882595663e-03,-2.5126995960283428e-02,6.4690075722044854e-02
3.1870979573376945e-01,-3.2820435668982582e+03,9.8361145791770621e-01,-1.0926662921799617e+00,1.4045892514782068e-01,1.7171342582970788e-03,-3.1974205047595475e-02,8.0680863970944039e-02
3.1522479274840864e-01,-3.2773683652578975e+03,9.9260811590641040e-01,-7.3886077998925481e-01,6.3642207435399903e-02,2.2177447452537261e-03,-4.0457758429594211e-02,1.0001551062608006e-01
3.1177789730153760e-01,-3.2724029798219935e+03,9.9809001894501892e-01,-3.7713249360389234e-01,1.6489824033553913e-02,2.8493164152683893e-03,-5.0902517399618145e-02,1.2322905656675597e-01
3.0836869269782025e-01,-3.2671543157539372e+03,9.9999827642124506e-01,-1.1345331139167268e-02,1.4894740099485808e-05,3.6415947688634340e-03,-6.3680155447360942e-02,1.5090092253186932e-01
3.0499676679836840e-01,-3.2616291619017761e+03,9.9831233769928285e-01,3.5456409053001281e-01,1.4572057902963525e-02,4.6298227869020587e-03,-7.9211435274985253e-02,1.8364820111961841e-01
3.0166171197091779e-01,-3.2558341925163245e+03,9.9305036053904505e-01,7.1665696134809309e-01,5.9847939492772041e-02,5.8554319060261373e-03,-9.7967381195009764e-02,2.2211574466215087e-01
2.9836312504054968e-01,-3.2497759689456147e+03,9.8426888555083336e-01,1.0710628586721109e+00,1.3486957562052820e-01,7.3667395681086623e-03,-1.2046899218916501e-01,2.6696265890609605e-01
2.9510060724095094e-01,-3.2434609413059893e+03,9.7206182484692627e-01,1.4140486143426072e+00,2.3803050713059493e-01,9.2196304560615613e-03,-1.4728511260244920e-01,3.1884489648784453e-01
2.9187376416620725e-01,-3.2368954501301491e+03,9.5655879018594736e-01,1.7420837548307759e+00,3.6713367647015199e-01,1.1478193086002977e-02,-1.7902806176079042e-01,3.7839376796863167e-01
2.8868220572312309e-01,-3.2300857279924539e+03,9.3792280222776192e-01,2.0519009109371869e+00,5.1944970351060293e-01,1.4215277878026969e-02,-2.1634662502183735e-01,4.4619035406930202e-01
2.8552554608406383e-01,-3.2230379011117925e+03,9.1634743750814607e-01,2.3405497538351208e+00,6.9178862031958976e-01,1.7512937439453181e-02,-2.5991603122518697e-01,5.2273601076521115e-01
2.8240340364031247e-01,-3.2157579909322931e+03,8.9205348293761000e-01,2.6054432187732393e+00,8.8058272433907292e-01,2.1462704888994901e-02,-3.1042458927777222e-01,6.0841940618311996e-01
2.7931540095593727e-01,-3.2082519156821927e+03,8.6528517863115695e-01,2.8443950185911553e+00,1.0819778807627929e+00,2.6165662004151567e-02,-3.6855673316856252e-01,7.0348080845613770e-01
2.7626116472216355e-01,-3.2005254919111403e+03,8.3630613837308632e-01,3.0556477171797196e+00,1.2919303796476009e+00,3.1732246205532964e-02,-4.3497233253946843e-01,8.0797464671229791e-01
2.7324032571224427e-01,-3.1925844360062142e+03,8.0539504279564611e-01,3.2378909180795250e+00,1.5063063382696544e+00,3.8281744344222025e-02,-5.1028226612943295e-01,9.2173167913679055e-01
2.7025251873682393e-01,-3.1844343656869487e+03,7.7284120328602213e-01,3.3902694150670571e+00,1.7209806363690734e+00,4.5941422378103919e-02,-5.9502042723389292e-01,1.0443224047181265e+00
2.6729738259979147e-01,-3.1760808014796457e+03,7.3894009471967381e-01,3.5123814393603148e+00,1.9319324782544267e+00,5.4845243732071128e-02,-6.8961253089363617e-01,1.1750236277414330e+00
2.6437456005461446e-01,-3.1675291681712292e+03,7.0398895243706527e-01,3.6042674119801164e+00,2.1353348836914150e+00,6.5132135800092403e-02,-7.9434231651101728e-01,1.3127903027891072e+00
2.6148369776115232e-01,-3.1587847962429410e+03,6.6828252361729423e-01,3.6663898606954981e+00,2.3276357073935876e+00,7.6943773937224305e-02,-9.0931597904840822e-01,1.4562349282457849e+00
2.5862444624294040e-01,-3.1498529232841138e+03,6.3210905562183350e-01,3.6996053809521814e+00,2.5056281596502696e+00,9.0421865551287464e-02,-1.0344259063513150e+00,1.6036167938134351e+00
2.5579645984494204e-01,-3.1407386953863142e+03,5.9574659432079768e-01,3.7051297028320507e+00,2.6665092304478626e+00,1.0570493351828551e-01,-1.1693150365062486e+00,1.7528433003849626e+00
2.5299939669176236e-01,-3.1314471685180993e+03,5.5945965426363586e-01,3.6844970667339338e+00,2.8079248869663167e+00,1.2292461789964909e-01,-1.3133433625438717e+00,1.9014853412671564e+00
2.5023291864631880e-01,-3.1219833098806471e+03,5.2349631024374954e-01,3.6395152062496785e+00,2.9280013994527616e+00,1.4220153740220284e-01,-1.4655582859251528e+00,2.0468083511755757e+00
2.4749669126896376e-01,-3.1123519992445176e+03,4.8808574677893379e-01,3.5722172866452957e+00,3.0253626333261150e+00,1.6364077653164152e-01,-1.6246706382949123e+00,2.1858200911458145e+00
2.4479038377705425e-01,-3.1025580302677927e+03,4.5343628873416786e-01,3.4848121522623283e+00,3.0991336072321571e+00,1.8732709005469547e-01,-1.7890382366923905e+00,2.3153355511941291e+00
2.4211366900496337e-01,-3.0926061117958407e+03,4.1973392318120861e-01,3.3796341985188976e+00,3.1489310408695914e+00,2.1331994209645169e-01,-1.9566587962495969e+00,2.4320585372132131e+00
2.3946622336452941e-01,-3.0825008691429580e+03,3.8714131001991398e-01,3.2590941079727953e+00,3.1748419885589265e+00,2.4164852166761455e-01,-2.1251738848643233e+00,2.5326785949623929e+00
2.3684772680593735e-01,-3.0722468453561182e+03,3.5579726723340260e-01,3.1256315802834118e+00,3.1773919636234234e+00,2.7230689822020765e-01,-2.2918853591381669e+00,2.6139809542033849e+00
2.3425786277902771e-01,-3.0618485024610713e+03,3.2581670621170428e-01,2.9816710489682565e+00,3.1575041969780910e+00,3.0524949848299804e-01,-2.4537853681428912e+00,2.6729662021062608e+00
2.3169631819502903e-01,-3.0513102226910287e+03,2.9729098359206763e-01,2.8295812202901649e+00,3.1164518366697789e+00,3.4038709786027593e-01,-2.6076005557513851e+00,2.7069754766751073e+00
2.2916278338870860e-01,-3.0406363096981695e+03,2.7028862869680170e-01,2.6716390984137250e+00,3.0558049827186147e+00,3.7758352472895323e-01,-2.7498505446747274e+00,2.7138161721044880e+00
2.2665695208093681e-01,-3.0298309897481827e+03,2.4485640000101391e-01,2.5099989830893432e+00,2.9773744659448771e+00,4.1665327288520193e-01,-2.8769201643993476e+00,2.6918825329043963e+00
2.2417852134166111e-01,-3.0188984128980906e+03,2.2102062016549257e-01,2.3466667482064905e+00,2.8831542258567917e+00,4.5736020532224098e-01,-2.9851442161098607e+00,2.6402651421711565e+00
2.2172719155328499e-01,-3.0078426541575641e+03,1.9878873699419064e-01,2.1834795376927443e+00,2.7752640288470785e+00,4.9941751100683984e-01,-3.0709028815545238e+00,2.5588432321478036e+00
2.1930266637444687e-01,-2.9966677146339475e+03,1.7815105713506210e-01,2.0220908547521921e+00,2.6558941034665566e+00,5.4248904537105502e-01,-3.1307252153975891e+00,2.4483539988737295e+00
2.1690465270419573e-01,-2.9853775226612265e+03,1.5908260030316451e-01,1.8639608757557538e+00,2.5272530652320850e+00,5.8619214537262110e-01,-3.1613975504026901e+00,2.3104337058189373e+00
2.1453286064655780e-01,-2.9739759349131291e+03,1.4154502409327635e-01,1.7103516946310353e+00,2.3915202707590901e+00,6.3010196226803872e-01,-3.1600731308301184e+00,2.1476263111552281e+00
2.1218700347549113e-01,-2.9624667375005952e+03,1.2548857286469683e-01,1.5623270997147802e+00,2.2508034915419604e+00,6.7375730128350597e-01,-3.1243789087664844e+00,1.9633566237345765e+00
2.0986679760022348e-01,-2.9508536470538133e+03,1.1085400850425678e-01,1.4207564040490739e+00,2.1071025425521972e+00,7.1666789924284058e-01,-3.0525152232263637e+00,1.7618665344094435e+00
2.0757196253096868e-01,-2.9391403117890218e+03,9.7574485877657033e-02,1.2863217923555157e+00,1.9622792502047179e+00,7.5832301140544323e-01,-2.9433440581738668e+00,1.5481146104961114e+00
2.0530222084501840e-01,-2.9273303125602965e+03,8.5577341238104843e-02,1.1595286128428339e+00,1.8180339071227045e+00,7.9820112005833432e-01,-2.7964617591869212e+00,1.3276411916699800e+00
2.0305729815320459e-01,-2.9154271638965151e+03,7.4785767558351979e-02,1.0407180282470563e+00,1.6758881449575838e+00,8.3578052271956782e-01,-2.6122524843251309e+00,1.1064029813580989e+00
2.0083692306672829e-01,-2.9034343150236909e+03,6.5120356487646983e-02,9.3008144608609311e-01,1.5371739670584337e+00,8.7055051005657602e-01,-2.3919192656591837e+00,8.9058287736874109e-01
1.9864082716435161e-01,-2.8913551508728901e+03,5.6500492230746692e-02,8.2767617056446008e-01,1.4030285240526861e+00,9.0202280552584624e-01,-2.1374903441282460e+00,6.8638231771051439e-01
1.9646874495994840e-01,-2.8791929930739066e+03,4.8845587949913075e-02,7.3344175509306930e-01,1.2743940896949357e+00,9.2974291266461739e-01,-1.8517993801264403e+00,4.9980462882049548e-01
1.9432041387040933e-01,-2.8669511009348939e+03,4.2076160179093665e-02,6.4721658202179322e-01,1.1520226023428304e+00,9.5330100375860338e-01,-1.5384391930292984e+00,3.3643866583192039e-01
1.9219557418389832e-01,-2.8546326724081468e+03,3.6114741118039785e-02,5.6875425191236673e-01,1.0364840783586695e+00,9.7234198646861580e-01,-1.2016897938195106e+00,2.0125236265067195e-01
1.9009396902845613e-01,-2.8422408450422085e+03,3.0886632477915840e-02,4.9773942558981338e-01,9.2817817560821281e-01,9.8657440337024416e-01,-8.4642258950432292e-01,9.8405626101870897e-02
1.8801534434094685e-01,-2.8297786969204953e+03,2.6320507741691319e-02,4.3380282558064981e-01,8.2734818504146634e-01,9.9577785288667220e-01,-4.7798369733678087e-01,3.1091307592868694e-02
1.8595944883634433e-01,-2.8172492475866120e+03,2.2348872270396326e-02,3.7653516693203803e-01,7.3409675237286864e-01,9.9980866760681097e-01,-1.0206025356626137e-01,1.4117950997387658e-03
1.8392603397735435e-01,-2.8046554589565494e+03,1.8908392640634174e-02,3.2549984870131266e-01,6.4840267594086631e-01,9.9860364554518222e-01,2.7546561677404169e-01,1.0297147447056343e-02
1.8191485394436885e-01,-2.7920002362179212e+03,1.5940107968922809e-02,2.8024429487729385e-01,5.7013818650779680e-01,9.9218169891120389e-01,6.4866992952946634e-01,5.7468730167351212e-02
1.7992566560574874e-01,-2.7792864287164339e+03,1.3389536808918450e-02,2.4030988580018078e-01,4.9908618564887258e-01,9.8064336027598453e-01,1.0117414992596425e+00,1.4145011915863262e-01
1.7795822848843199e-01,-2.7665168308297543e+03,1.1206693554081765e-02,2.0524046732804810e-01,4.3495699725338988e-01,9.6416816415805229e-01,1.3591324823663151e+00,2.5962474206865510e-01
1.7601230474886242e-01,-2.7536941828289305e+03,9.3460282041809162e-03,1.7458946446375687e-01,3.7740426764653900e-01,9.4300999933867846e-01,1.6856993552788204e+00,4.0833746205177063e-01
1.7408765914423713e-01,-2.7408211717275617e+03,7.7663029266216094e-03,1.4792565864906401e-01,3.2603973052100238e-01,9.1749060005389016e-01,1.9868293233568877e+00,5.8303520637248551e-01
1.7218405900406783e-01,-2.7279004321188590e+03,6.4304181314422653e-03,1.2483771348787868e-01,2.8044663036526857e-01,8.8799140923899789e-01,2.2585478299501904e+00,7.7843992422560215e-01
1.7030127420205321e-01,-2.7149345470007647e+03,5.3051998488166836e-03,1.0493755255770626e-01,2.4019167008811979e-01,8.5494410130991905e-01,2.4976036987030956e+00,9.8874572576523356e-01
1.6843907712825923e-01,-2.7019260485893046e+03,4.3611591132309436e-03,8.7862705681470546e-02,2.0483541334765351e-01,8.1882009324246763e-01,2.7015294475705436e+00,1.2078310834000183e+00
1.6659724266160308e-01,-2.6888774191203120e+03,3.5722328769079233e-03,7.3277747179077188e-02,1.7394112854263552e-01,7.8011939936524155e-01,2.8686754050166785e+00,1.4294765120473627e+00
1.6477554814263837e-01,-2.6757910916396945e+03,2.9155147477321003e-03,6.0874951912901869e-02,1.4708210887758658e-01,7.3935919651556181e-01,2.9982173790022828e+00,1.6475781994645480e+00
1.6297377334663793e-01,-2.6626694507823963e+03,2.3709826177771343e-03,5.0374293148924922e-02,1.2384754119375981e-01,6.9706246203709321e-01,3.0901387194217658e+00,1.8563486104271059e+00
1.6119170045697065e-01,-2.6495148335402032e+03,1.9212290538572411e-03,4.1522901153281298e-02,1.0384702557784987e-01,6.5374702832347920e-01,3.1451886202610986e+00,2.0504960885573511e+00
1.5942911403876972e-01,-2.6363295300185437e+03,1.5511991900465998e-03,3.4094093790479743e-02,8.6713868642956674e-02,6.0991536574503424e-01,3.1648193815613661e+00,2.2253768504743405e+00
1.5768580101288879e-01,-2.6231157841824415e+03,1.2479398153426139e-03,2.7886080896630114e-02,7.2107286581366170e-02,5.6604536293904639e-01,3.1511060555178108e+00,2.3771144126490258e+00
1.5596155063014255e-01,-2.6098757945917523e+03,1.0003624024081262e-03,2.2720433515747006e-02,5.9713660536538413e-02,5.2258232214911826e-01,3.1066524093522792e+00,2.5026833038200706e+00
1.5425615444582952e-01,-2.5966117151258468e+03,7.9902198445860819e-04,1.8440397778456498e-02,4.9246987545888639e-02,4.7993233039649547e-01,3.0344874359772711e+00,2.5999557827225543e+00
1.5256940629453314e-01,-2.5833256556978699e+03,6.3591306053858087e-04,1.4909121753588822e-02,4.0448666313467253e-02,4.3845710769495155e-01,2.9379567304199203e+00,2.6677120933273506e+00
1.5090110226519818e-01,-2.5700196829587189e+03,5.0428309401973981e-04,1.2007852409680816e-02,3.3086749412810527e-02,3.9847037415680914e-01,2.8206129357678176e+00,2.7056164493566071e+00
1.4925104067648015e-01,-2.5566958209908885e+03,3.9846366105758681e-04,9.6341491946825963e-03,2.6954783168851568e-02,3.6023572134098730e-01,2.6861091676530475e+00,2.7141623643431858e+00
1.4761902205236410e-01,-2.5433560519923167e+03,3.1371889823712828e-04,7.7001509063818066e-03,2.1870344311558546e-02,3.2396592187781409e-01,2.5380988799655690e+00,2.6945920712231839e+00
1.4600484909804962e-01,-2.5300023169503511e+03,2.4611058312331224e-04,6.1309236377059427e-03,1.7673369314518451e-02,2.8982356713679830e-01,2.3801450714940811e+00,2.6487955676134245e+00
1.4440832667610029e-01,-2.5166365163060050e+03,1.9237894811949054e-04,4.8629097298549910e-03,1.4224358793252701e-02,2.5792288683867703e-01,2.2156410918157574e+00,2.5791952643459237e+00
1.4282926178285316e-01,-2.5032605106085944e+03,1.4983816653579794e-04,3.8424908869495412e-03,1.1402525983762037e-02,2.2833257786807337e-01,2.0477446240759920e+00,2.4886223128596385e+00
1.4126746352508662e-01,-2.4898761211609180e+03,1.1628534957400459e-04,3.0246728885058617e-03,9.1039455760341757e-03,2.0107945240029382e-01,1.8793257397985474e+00,2.3801904690302256e+00
1.3972274309694352e-01,-2.4764851306550977e+03,8.9921843819568169e-05,2.3718946355123656e-03,7.2397473528450816e-03,1.7615270760043297e-01,1.7129292703688126e+00,2.2571728605888510e+00
1.3819491375710607e-01,-2.4630892837991960e+03,6.9285611144844839e-05,1.8529605113030091e-03,5.7343883930490707e-03,1.5350861993586346e-01,1.5507511498803672e+00,2.1228863179038830e+00
1.3668379080622098e-01,-2.4496902879347581e+03,5.3193497807408153e-05,1.4420921413836264e-03,4.5240281644969649e-03,1.3307547556246993e-01,1.3946278767745217e+00,1.9805870660338123e+00
1.3518919156457102e-01,-2.4362898136453855e+03,4.0692249035908949e-05,1.1180934981090006e-03,3.5550227044341444e-03,1.1475856303937579e-01,1.2460378322994343e+00,1.8333806242698731e+00
1.3371093534999076e-01,-2.4228894953564636e+03,3.1017192589545743e-05,8.6362181357132431e-04,2.7825472544661519e-03,9.8445074373840410e-02,1.1061128903795319e+00,1.6841477803367464e+00
1.3224884345602417e-01,-2.4094909319261801e+03,2.3557593724985685e-05,6.6455583474938208e-04,2.1693511264569984e-03,8.4008783609318988e-02,9.7565855745139130e-01,1.5354875565363830e+00
1.3080273913032042e-01,-2.3960956872279266e+03,1.7827769762971274e-05,5.0945248069464975e-04,1.6846441349909784e-03,7.1314397379479769e-02,8.5518078770330930e-01,1.3896772121183933e+00
1.2937244755326663e-01,-2.3827052907242301e+03,1.3443141003499187e-05,3.8908285112781039e-04,1.3031105289327133e-03,6.0221497690846379e-02,7.4491761957861169e-01,1.2486485670349903e+00
1.2795779581685379e-01,-2.3693212380323098e+03,1.0100482933709509e-05,2.9603870693524400e-04,1.0040438641812294e-03,5.0588022455416153e-02,6.4487386030791638e-01,1.1139793123360962e+00
1.2655861290377374e-01,-2.3559449914813749e+03,7.5617301074187274e-06,2.2440092317120770e-04,7.7059455229829075e-04,4.2273252960333102e-02,5.5485719114667598e-01,9.8689750547195210e-01
1.2517472966674512e-01,-2.3425779806617934e+03,5.6407630123069270e-06,1.6946194197890076e-04,5.8912076732740327e-04,3.5140298747077504e-02,4.7451426025866122e-01,8.6829713751619120e-01
1.2380597880806510e-01,-2.3292216029662204e+03,4.1926845046901686e-06,1.2749487411408536e-04,4.4863287423903422e-04,2.9058088722945585e-02,4.0336555610719388e-01,7.5876249715811839e-01
1.2245219485938456e-01,-2.3158772241228107e+03,3.1051612722558942e-06,9.5562570835504182e-05,3.4032144520535791e-04,2.3902892414461061e-02,3.4083809601902304e-01,6.5859902896988953e-01
1.2111321416170491e-01,-2.3025461787206218e+03,2.2914679465241258e-06,7.1360678970144777e-05,2.5715915432532511e-04,1.9559406975464575e-02,2.8629520817604864e-01,5.6786847110917182e-01
1.1978887484559317e-01,-2.2892297707273119e+03,1.6849268863091152e-06,5.3089374993581860e-05,1.9356730040042612e-04,1.5921453942396743e-02,2.3906291878671229e-01,4.8642623701166088e-01
1.1847901681161346e-01,-2.2759292739992329e+03,1.2344854687513754e-06,3.9349129866104895e-05,1.4513832698141561e-04,1.2892334993789658e-02,1.9845267023463672e-01,4.1395925207275053e-01
1.1718348171097287e-01,-2.2626459327840430e+03,9.0121529149705676e-07,2.9056471833186567e-05,1.0840642803530126e-04,1.0384898439929215e-02,1.6378028386574203e-01,3.5002274546643897e-01
1.1590211292637849e-01,-2.2493809622159147e+03,6.5555445037441139e-07,2.1376280948009072e-05,8.0659097051606431e-05,8.3213682373308572e-03,1.3438123857476347e-01,2.9407480654200507e-01
1.1463475555310382e-01,-2.2361355488034569e+03,4.7514551704370050e-07,1.5667662095367187e-05,5.9783258884092210e-05,6.6329854279134929e-03,1.0962246163592611e-01,2.4550782497702722e-01
1.1338125638026259e-01,-2.2229108509104531e+03,3.4314853588381300e-07,1.1440901210604565e-05,4.4140388312300630e-05,5.2595084927499749e-03,8.8910921446607352e-02,2.0367622790759582e-01
1.1214146387228698e-01,-2.2097079992295035e+03,2.4693082786356251e-07,8.3234128985090827e-06,3.2465746581457445e-05,4.1486146193011183e-03,7.1699374796162507e-02,1.6792019335052835e-01
1.1091522815060832e-01,-2.1965280972486703e+03,1.7705415489752484e-07,6.0329391156163257e-06,2.3787543233550294e-05,3.2552387098099805e-03,5.7489656926132185e-02,1.3758524902925767e-01
1.0970240097553856e-01,-2.1833722217112368e+03,1.2649535584280981e-07,4.3565614498569078e-06,1.7362447108596997e-05,2.5408814601646274e-03,4.5833914811688185e-02,1.1203785452506675e-01
1.0850283572834933e-01,-2.1702414230686563e+03,9.0049371819090611e-08,3.1343479615506655e-06,1.2624423572023196e-05,1.9729123100074158e-03,3.6334177000324153e-02,9.0677211032008376e-02
1.0731638739354739e-01,-2.1571367259267977e+03,6.3874048257890227e-08,2.2466740296413752e-06,9.1443642399785251e-06,1.5238877432947914e-03,2.8640631334968091e-02,7.2943648094437749e-02
1.0614291254134338e-01,-2.1440591294855672e+03,4.5144603673578851e-08,1.6044397500921890e-06,6.5984025940777874e-06,1.1709004815429716e-03,2.2448949152994977e-02,5.8324003793075833e-02
1.0498226931031299e-01,-2.1310096079720197e+03,3.1792515769563082e-08,1.1415586255807230e-06,4.7431774531162561e-06,8.9497068140954579e-04,1.7496954924386836e-02,4.6354448583533617e-02
1.0383431739024712e-01,-2.1179891110670269e+03,2.2309076572852332e-08,8.0921779347293256e-07,3.3966209321463062e-06,6.8048639589058063e-04,1.3560897116779118e-02,3.6621208884188822e-02
1.0269891800518964e-01,-2.1049985643255977e+03,1.5598252309700160e-08,5.7151276407436609e-07,2.4231134936248493e-06,5.1469731352446599e-04,1.0451532131901734e-02,2.8759630390065596e-02
1.0157593389666104e-01,-2.0920388695909519e+03,1.0866956683339166e-08,4.0214311207028678e-07,1.7220714294258539e-06,3.8726314737524628e-04,8.0101906350214507e-03,2.2451988695693405e-02
1.0046522930706515e-01,-2.0791109054024141e+03,7.5435813639453115e-09,2.8192291733326778e-07,1.2192170045141225e-06,2.8985597367418939e-04,6.1049561081713138e-03,1.7424411470386009e-02
9.9366669963277199e-02,-2.0662155273972235e+03,5.2177692623212507e-09,1.9691373275155470e-07,8.5993369858262576e-07,2.1581426866043493e-04,4.6270500805467053e-03,1.3443226838491685e-02
9.8280123060411811e-02,-2.0533535687063477e+03,3.5960838463568723e-09,1.3703083812278132e-07,6.0423328778422568e-07,1.5984529950706678e-04,3.4874878428648930e-03,1.0311000706970346e-02
9.7205457245768123e-02,-2.0405258403443740e+03,2.4695191396505653e-09,9.5007544225675967e-08,4.2296225909270597e-07,1.1777182357785927e-04,2.6140427682395080e-03,7.8624746723314296e-03
9.6142542602950409e-02,-2.0277331315935660e+03,1.6897895957479387e-09,6.5629047657632764e-08,2.9495611286562354e-07,8.6318670953450117e-05,1.9485365676335229e-03,5.9605681479012323e-03
9.5091250636162694e-02,-2.0149762103821661e+03,1.1521008981392184e-09,4.5168231192525105e-08,2.0491487277094868e-07,6.2934662169853960e-05,1.4444566060644373e-03,4.4925650605826695e-03
9.4051454254674829e-02,-2.0022558236570246e+03,7.8268326257819290e-10,3.0972036094235452e-08,1.4182451112426996e-07,4.5645385660525712e-05,1.0648893474602646e-03,3.3665678063435176e-03
9.3023027757458313e-02,-1.9895726977506274e+03,5.2980887160318572e-10,2.1159569183653856e-08,9.7789504225443581e-08,3.2932573633228689e-05,7.8075054371755360e-04,2.5082695203307837e-03
9.2005846817990580e-02,-1.9769275387426148e+03,3.5734692876960010e-10,1.4402734583201394e-08,6.7173455489039566e-08,2.3636124963837572e-05,5.6928736270869134e-04,1.8580700827870991e-03
9.0999788469224976e-02,-1.9643210328158507e+03,2.4015881368947880e-10,9.7675316732879191e-09,4.5969412692597167e-08,1.6875191056313115e-05,4.1282469014386963e-04,1.3685413068948119e-03
9.0004731088725226e-02,-1.9517538466071276e+03,1.6082170178713120e-10,6.5997438131811443e-09,3.1340601702109095e-08,1.1985135123480838e-05,2.9772680405608544e-04,1.0022318910892945e-03
8.9020554383962669e-02,-1.9392266275525876e+03,1.0730709189724986e-10,4.4429592786514560e-09,2.1286980813676476e-08,8.4675737161729650e-06,2.1354602393774020e-04,7.2979229634948905e-04
8.8047139377774003e-02,-1.9267400042279191e+03,7.1342749920207877e-11,2.9800338999078050e-09,1.4404241436050133e-08,5.9510945836767412e-06,1.5233135906105757e-04,5.2839300827066307e-04
8.7084368393977998e-02,-1.9142945866834077e+03,4.7261653664920383e-11,1.9914723790611254e-09,9.7104082630472629e-09,4.1606054589569445e-06,1.0807227066537586e-04,3.8040594875409168e-04
8.6132125043149863e-02,-1.9018909667739269e+03,3.1196482552909407e-11,1.3259653043911183e-09,6.5216354642972395e-09,2.8935969068979313e-06,7.6255136681506236e-05,2.7231744131144431e-04
8.5190294208550774e-02,-1.8895297184839128e+03,2.0518234721005191e-11,8.7962059238513492e-10,4.3636369495280177e-09,2.0018952248928548e-06,5.3512645026687084e-05,1.9384150527181678e-04
8.4258762032211360e-02,-1.8772113982474143e+03,1.3446585137767006e-11,5.8138593326847366e-10,2.9088067005761174e-09,1.3777374731515080e-06,3.7348978357079300e-05,1.3720383922177104e-04
8.3337415901167569e-02,-1.8649365452632828e+03,8.7805489091180551e-12,3.8286008535462574e-10,1.9317741300535031e-09,9.4322089590321105e-07,2.5926174175164301e-05,9.6569222952254508e-05
8.2426144433846799e-02,-1.8527056818055639e+03,5.7130624945002362e-12,2.5120173034240632e-10,1.2781272873185254e-09,6.4236544557217234e-07,1.7899374167506839e-05,6.7587876789037033e-05
8.1524837466602856e-02,-1.8405193135291588e+03,3.7038546153781273e-12,1.6421492773021537e-10,8.4249855405374954e-10,4.3518382392082922e-07,1.2290772381191263e-05,4.7039304225576542e-05
8.0633386040398491e-02,-1.8283779297708334e+03,2.3926354656154271e-12,1.0695734389257706e-10,5.5327686573321286e-10,2.9328181276813574e-07,8.3939145976763064e-06,3.2555115622480627e-05
7.9751682387633235e-02,-1.8162820038456250e+03,1.5400569770582779e-12,6.9409200024754543e-11,3.6198878684032169e-10,1.9661621672800839e-07,5.7015901885517955e-06,2.2405154514090121e-05
7.8879619919115254e-02,-1.8042319933387166e+03,9.8772191414516192e-13,4.4877886423255600e-11,2.3595431795819411e-10,1.3112193619623504e-07,3.8519043456318318e-06,1.5333839584042802e-05
7.8017093211175989e-02,-1.7922283403928509e+03,6.3120472066246720e-13,2.8910602290723908e-11,1.5322931812656409e-10,8.6986766442123082e-08,2.5882422261644787e-06,1.0435948591099771e-05
7.7163997992925365e-02,-1.7802714719913340e+03,4.0192353287292380e-13,1.8556314400379925e-11,9.9137471416219061e-11,5.7405411685253213e-08,1.7297609427767759e-06,7.0630880318602251e-06
7.6320231133646388e-02,-1.7683618002366941e+03,2.5500827891596057e-13,1.1866880891582346e-11,6.3902333143715655e-11,3.7685501564051165e-08,1.1497958740590986e-06,4.7538171558973829e-06
7.5485690630327923e-02,-1.7564997226250689e+03,1.6121400724941161e-13,7.5612248387747378e-12,4.1037354873454917e-11,2.4610338026823398e-08,7.6016974073807494e-07,3.1818438229434538e-06
7.4660275595333336e-02,-1.7446856223163593e+03,1.0155210135246733e-13,4.8001946495261530e-12,2.6255881951606599e-11,1.5987577881702838e-08,4.9987015106375395e-07,2.1179076408463514e-06
7.3843886244204168e-02,-1.7329198684002276e+03,6.3740094594238050e-14,3.0362468805509630e-12,1.6736293680197181e-11,1.0331647553720391e-08,3.2693558011832097e-07,1.4019420853342830e-06
7.3036423883597379e-02,-1.7212028161579963e+03,3.9863381964696408e-14,1.9134946481831955e-12,1.0628652085866106e-11,6.6416855048908698e-09,2.1268018680729501e-07,9.2289233850198808e-07
7.2237790899354129e-02,-1.7095348073204930e+03,2.4841237464476432e-14,1.2015165312336371e-12,6.7248732474904472e-12,4.2472599942614362e-09,1.3761101441488139e-07,6.0418901827047376e-07
7.1447890744699302e-02,-1.6979161703219145e+03,1.5424459689807224e-14,7.5170070865092628e-13,4.2391402761666561e-12,2.7018497979877968e-09,8.8560911927868388e-08,3.9336728606509679e-07
7.0666627928569828e-02,-1.6863472205497530e+03,9.5429872030143809e-15,4.6856867671590220e-13,2.6623183975046112e-12,1.7097608644556402e-09,5.6688509567708538e-08,2.5470061124531045e-07
6.9893908004070956e-02,-1.6748282605908555e+03,5.8829664423904608e-15,2.9101474638457384e-13,1.6658329565864166e-12,1.0762950859269893e-09,3.6092202221186820e-08,1.6401013580969829e-07
6.9129637557058449e-02,-1.6633595804736531e+03,3.6136496849836247e-15,1.8008209989836945e-13,1.0384674109541412e-12,6.7398333448219926e-10,2.2855902477307243e-08,1.0503229916326513e-07
6.8373724194845664e-02,-1.6519414579066249e+03,2.2117364466343295e-15,1.1102997768480139e-13,6.4497808562458622e-13,4.1984479517119167e-10,1.4396311613734931e-08,6.6894280223765670e-08
6.7626076535034399e-02,-1.6405741585130550e+03,1.3488335150322550e-15,6.8206294657749047e-14,3.9910612581251551e-13,2.6016579909892982e-10,9.0193067430982405e-09,4.2371261270278899e-08
6.6886604194467569e-02,-1.6292579360621219e+03,8.1963589671976597e-16,4.1746829070425319e-14,2.4605026971203569e-13,1.6037381133976541e-10,5.6203747612500877e-09,2.6691463128900672e-08
6.6155217778302675e-02,-1.6179930326963786e+03,4.9627367729619789e-16,2.5458785980440939e-14,1.5113044749938143e-13,9.8341881192386003e-11,3.4836033412547302e-09,1.6722229009748842e-08
6.5431828869205039e-02,-1.6067796791556818e+03,2.9940507580505091e-16,1.5469182618650547e-14,9.2485447601965593e-14,5.9988138858182594e-11,2.1476549142477857e-09,1.0419308419989061e-08
6.4716350016658972e-02,-1.5956180949976083e+03,1.7998434207907528e-16,9.3651089898184064e-15,5.6388270652334480e-14,3.6401064119937110e-11,1.3169634381391052e-09,6.4566707140295552e-09
6.4008694726395740e-02,-1.5845084888144133e+03,1.0780724284011589e-16,5.6490368215581728e-15,3.4253006774340356e-14,2.1972758699317817e-11,8.0326225208015024e-10,3.9792883667113509e-09
